public/植人大树自媒体封面制作器/digicamfx/lut/香港印象/Kinetic 04.cube
TITLE "Kinetic 04 by Gamut"
# Version 1.0 - 11/21/2022 - Designed for Rec.709 Color Space. Copyright 2022 Gamut, LLC
LUT_3D_SIZE 5
0.0236570000 0.0283890000 0.0236570000
0.1618900000 0.0531597500 0.0423267500
0.4076495000 0.0568175000 0.0358800000
0.6428012500 0.0498387500 0.0528340000
0.8101030000 0.0776460000 0.0930110000
0.0000000000 0.1988072500 0.0563485000
0.3122707500 0.2057167500 0.0224747500
0.5933000000 0.2247322500 0.0384432500
0.7723865000 0.2529600000 0.0643602500
0.8994457500 0.2893510000 0.1104255000
0.0000000000 0.4688755000 0.0973125000
0.3576312500 0.4880472500 0.0266145000
0.7349340000 0.4844125000 0.0086740000
0.9121535000 0.4961017500 0.0793185000
0.9947895000 0.5337725000 0.1610775000
0.0009860000 0.6873860000 0.1765650000
0.3577002500 0.7154570000 0.1212610000
0.7892020000 0.7183365000 0.0252342500
0.9688940000 0.7087227500 0.0471840000
1.0000000000 0.7143407500 0.1640775000
0.0331200000 0.8277390000 0.3139220000
0.4014217500 0.8574672500 0.3014802500
0.7771165000 0.8650750000 0.2161180000
0.9781972500 0.8476795000 0.1490015000
1.0000000000 0.8314820000 0.1530950000
0.0246430000 0.0256285000 0.1758957500
0.2362137500 0.0428882500 0.1891257500
0.4849662500 0.0181372500 0.1791682500
0.6540092500 0.0183342500 0.1838870000
0.7990230000 0.0607587500 0.2096095000
0.0128145000 0.2130140000 0.2195602500
0.2567612500 0.2565582500 0.2259620000
0.5495490000 0.2541100000 0.1987285000
0.7417155000 0.2500217500 0.1963627500
0.8759797500 0.2795715000 0.2289597500
0.0005917500 0.4666840000 0.3002792500
0.2201502500 0.5306590000 0.2451367500
0.6946535000 0.5288465000 0.2047857500
0.8694885000 0.5133302500 0.2272827500
0.9734037500 0.5359412500 0.2620035000
0.0017742500 0.6937872500 0.3654195000
0.2134077500 0.7240142500 0.2866545000
0.7124837500 0.7430515000 0.1763795000
0.9376810000 0.7191877500 0.1906197500
0.9999595000 0.7266222500 0.2805372500
0.0102510000 0.8438467500 0.4593432500
0.2744690000 0.8579597500 0.4056262500
0.6973042500 0.8788942500 0.3267157500
0.9447985000 0.8580507500 0.2143075000
1.0000000000 0.8405732500 0.2531500000
0.0248400000 0.0220805000 0.3628015000
0.2568352500 0.0027597500 0.3709190000
0.5724985000 0.0000000000 0.4157470000
0.7870532500 0.0019715000 0.4346370000
0.8804210000 0.0118285000 0.4291615000
0.0063085000 0.2539297500 0.4253820000
0.2389355000 0.2846257500 0.4483527500
0.6292805000 0.2939455000 0.4632900000
0.7993092500 0.2727887500 0.4308567500
0.8974457500 0.2842802500 0.4146757500
0.0768830000 0.5010735000 0.4958925000
0.2296540000 0.5542437500 0.5062675000
0.6759980000 0.6146505000 0.5069650000
0.8464975000 0.5730547500 0.4625617500
0.9441930000 0.5431405000 0.4290955000
0.0725445000 0.6771397500 0.5366820000
0.1898705000 0.7274655000 0.5239630000
0.6554875000 0.7989947500 0.5053117500
0.9119667500 0.7748315000 0.4659830000
0.9955800000 0.7497762500 0.4534342500
0.0457505000 0.8417530000 0.6074770000
0.1800845000 0.8547662500 0.5695515000
0.6099525000 0.8958380000 0.5401265000
0.8965445000 0.8877377500 0.4321555000
0.9999730000 0.8576395000 0.4060180000
0.0472425000 0.0575820000 0.5328555000
0.3003380000 0.0516692500 0.5466617500
0.5965742500 0.0067027500 0.5761465000
0.8183692500 0.0001972500 0.6174227500
0.9125090000 0.0147855000 0.6351087500
0.0256285000 0.2990840000 0.5986267500
0.2609370000 0.3237442500 0.6165690000
0.6391905000 0.3268710000 0.6421917500
0.8528032500 0.3084067500 0.6558070000
0.9558297500 0.3345320000 0.6536537500
0.0323315000 0.5696325000 0.6763095000
0.2140842500 0.5935537500 0.6782345000
0.6591342500 0.6301105000 0.6974600000
0.8914955000 0.6307160000 0.6923437500
0.9790002500 0.5993912500 0.6520505000
0.1426317500 0.7200147500 0.7024982500
0.2379490000 0.7456335000 0.7005977500
0.6349895000 0.8202930000 0.7178952500
0.9021367500 0.8367020000 0.7080510000
0.9895305000 0.7939697500 0.6604522500
0.1663427500 0.8147615000 0.7158252500
0.2238947500 0.8309402500 0.7009900000
0.6211065000 0.9057735000 0.7268657500
0.8699932500 0.9316350000 0.7045585000
0.9997580000 0.9029005000 0.6512265000
0.0766620000 0.1556770000 0.6807640000
0.3453597500 0.1627400000 0.7005842500
0.6418860000 0.1388720000 0.7233710000
0.8364640000 0.0674257500 0.7326372500
0.9267710000 0.0756690000 0.7440140000
0.0477705000 0.3759507500 0.7398980000
0.2976672500 0.4042652500 0.7532870000
0.6566222500 0.4176637500 0.7786637500
0.8704305000 0.4020162500 0.7890205000
0.9730782500 0.4015235000 0.7950957500
0.0443715000 0.6133305000 0.7987870000
0.2382270000 0.6350067500 0.8011280000
0.6571020000 0.6616625000 0.8193315000
0.8924475000 0.6633425000 0.8286247500
0.9997855000 0.6705530000 0.8320285000
0.1089462500 0.7761627500 0.8321487500
0.2329192500 0.7912280000 0.8287712500
0.6326630000 0.8242405000 0.8342482500
0.8886110000 0.8441140000 0.8412312500
1.0000000000 0.8476127500 0.8376812500
0.1908820000 0.8586590000 0.8358820000
0.2605200000 0.8581085000 0.8252205000
0.5814470000 0.9027385000 0.8337710000
0.8543300000 0.9344217500 0.8348447500
0.9998660000 0.9424990000 0.8288060000
