public/植人大树自媒体封面制作器/digicamfx/lut/香港印象/Kinetic 04.cube
TITLE "Kinetic 04 by Gamut"
# Version 1.0 - 11/21/2022 - Designed for Rec.709 Color Space. Copyright 2022 Gamut, LLC
LUT_3D_SIZE 33
0.0236570000 0.0283890000 0.0236570000
0.0236323750 0.0283643437 0.0298674375
0.0447901250 0.0307047500 0.0299660000
0.0647011875 0.0345491562 0.0299660000
0.0835233750 0.0353873750 0.0269105000
0.0918495313 0.0377287188 0.0356580625
0.1122706250 0.0447685000 0.0391333125
0.1353705625 0.0492155312 0.0414216875
0.1618900000 0.0531597500 0.0423267500
0.1892868750 0.0558410625 0.0425160000
0.2190986875 0.0578611250 0.0425160000
0.2492762188 0.0590590313 0.0417590000
0.2798070000 0.0596426250 0.0405083750
0.3116618750 0.0604640000 0.0394290000
0.3431225000 0.0601287500 0.0381967500
0.3752324688 0.0589455937 0.0370630000
0.4076495000 0.0568175000 0.0358800000
0.4397165625 0.0549712813 0.0354860000
0.4714525625 0.0524262500 0.0358307500
0.5026238750 0.0500721562 0.0365945312
0.5324103750 0.0480322500 0.0392313750
0.5616047187 0.0475960000 0.0422763438
0.5895641875 0.0475960000 0.0454111250
0.6165865937 0.0484883438 0.0488716875
0.6428012500 0.0498387500 0.0528340000
0.6681491562 0.0519738750 0.0567354375
0.6919343750 0.0545336875 0.0609031250
0.7143186875 0.0576300937 0.0654318750
0.7358533750 0.0601628750 0.0703303750
0.7558758125 0.0641117187 0.0754003125
0.7747983125 0.0679864375 0.0807114375
0.7929179062 0.0727015625 0.0866162500
0.8101030000 0.0776460000 0.0930110000
0.0228936250 0.0276000000 0.0291030937
0.0189999375 0.0299167187 0.0298674375
0.0388868437 0.0352888437 0.0314936875
0.0560622500 0.0399213437 0.0315183438
0.0727155313 0.0401184375 0.0322087187
0.0927817188 0.0435812500 0.0358305312
0.1140151875 0.0465553438 0.0384922500
0.1376054375 0.0505532500 0.0406762813
0.1627329687 0.0533043437 0.0417590000
0.1905118125 0.0564480625 0.0425160000
0.2202429375 0.0584525000 0.0417590000
0.2504205938 0.0600525312 0.0405080000
0.2810976562 0.0611822500 0.0384680000
0.3130111250 0.0619714062 0.0358554375
0.3456935937 0.0630753125 0.0330958438
0.3787979375 0.0641642188 0.0311977813
0.4123319687 0.0646947187 0.0296454375
0.4456122812 0.0651849375 0.0284875625
0.4787115312 0.0662276563 0.0288569687
0.5111386562 0.0672571250 0.0299408750
0.5420089375 0.0682733437 0.0322329375
0.5716785312 0.0694976563 0.0345743125
0.6002477500 0.0715234687 0.0384430000
0.6274498125 0.0736826875 0.0424837812
0.6538078125 0.0766150000 0.0467968750
0.6788368437 0.0794588750 0.0508682187
0.7024610000 0.0822378750 0.0548666875
0.7246358438 0.0853931563 0.0598037500
0.7456213437 0.0885598437 0.0649388438
0.7651857812 0.0923489688 0.0708424063
0.7838887500 0.0968305937 0.0764419062
0.8016021563 0.1014987813 0.0825879063
0.8186189375 0.1070704687 0.0892189688
0.0190738750 0.0509691875 0.0337611250
0.0197386875 0.0490043437 0.0330214375
0.0432261250 0.0477399375 0.0330214375
0.0655467500 0.0465453750 0.0352888437
0.0841846250 0.0505455000 0.0368658125
0.1037495938 0.0531063125 0.0391085938
0.1265191250 0.0568039375 0.0407497500
0.1512070625 0.0603136563 0.0416626250
0.1778600000 0.0633308125 0.0424686875
0.2063952813 0.0665145313 0.0417590000
0.2360199375 0.0696863125 0.0410418125
0.2666724688 0.0727142812 0.0391820938
0.2981377500 0.0761430625 0.0374081250
0.3301133750 0.0789360938 0.0345989062
0.3633098125 0.0821181875 0.0319374375
0.3967180938 0.0847769062 0.0295960938
0.4305283750 0.0873663750 0.0280437500
0.4639643125 0.0892267188 0.0276000000
0.4966029375 0.0911115000 0.0279945000
0.5283682813 0.0929318437 0.0294975313
0.5586053750 0.0945743750 0.0318388750
0.5874042187 0.0965409375 0.0344510938
0.6151072500 0.0982525000 0.0382955000
0.6414342500 0.1001975312 0.0416324375
0.6667161250 0.1024946875 0.0457749375
0.6907409375 0.1047459375 0.0496185937
0.7136319375 0.1070210625 0.0541281875
0.7353401875 0.1102345313 0.0590360625
0.7557194375 0.1134288750 0.0643033750
0.7748556875 0.1171778438 0.0697655000
0.7929853750 0.1214307500 0.0758533750
0.8102672813 0.1262125000 0.0820506250
0.8268255625 0.1316576875 0.0887290000
0.0136277188 0.0696445313 0.0369151562
0.0144158125 0.0675571250 0.0369151562
0.0366437187 0.0664376250 0.0361261562
0.0707867188 0.0626494375 0.0368411875
0.0987157188 0.0668068437 0.0406258750
0.1235535625 0.0704648750 0.0422531562
0.1467424687 0.0735166875 0.0430511875
0.1721786875 0.0773649687 0.0437727813
0.1985864687 0.0807572500 0.0431938750
0.2264550000 0.0839287500 0.0426562500
0.2563722187 0.0873498438 0.0412330625
0.2864916875 0.0903103437 0.0396998750
0.3174637813 0.0932313125 0.0368657500
0.3491416562 0.0964389687 0.0337606562
0.3816959063 0.0995547188 0.0314443750
0.4150371250 0.1029688750 0.0291282188
0.4484503125 0.1059095625 0.0279945000
0.4814393750 0.1087770000 0.0276000000
0.5135272500 0.1112195938 0.0287337500
0.5446485937 0.1137867500 0.0306066563
0.5741748438 0.1157979375 0.0329233750
0.6023894687 0.1178907812 0.0359541250
0.6293232813 0.1200552500 0.0390589375
0.6550824375 0.1222606875 0.0428638125
0.6796220938 0.1245725937 0.0466419375
0.7029880625 0.1270071875 0.0507216250
0.7251217812 0.1295163125 0.0553437813
0.7463030000 0.1327575000 0.0601802500
0.7660439062 0.1360534063 0.0653780000
0.7848279062 0.1400105625 0.0707754375
0.8026094375 0.1443960313 0.0768279688
0.8194040625 0.1494451562 0.0833553750
0.8358732500 0.1550679688 0.0895592187
0.0104482500 0.0859217500 0.0363726250
0.0112125000 0.0845480000 0.0333171250
0.0282411250 0.0882575625 0.0400198750
0.0734163125 0.0886049063 0.0392318750
0.1059797500 0.0859415000 0.0393303750
0.1391890625 0.0905877500 0.0423738125
0.1706566250 0.0946226875 0.0438660625
0.2004522813 0.0989090938 0.0440050000
0.2280777500 0.1016953750 0.0440050000
0.2554576562 0.1042838437 0.0427263750
0.2839580625 0.1072300625 0.0412330625
0.3130815625 0.1098701250 0.0383940937
0.3430256250 0.1127723750 0.0360773750
0.3733767188 0.1158026875 0.0330711562
0.4048200625 0.1190945000 0.0310991875
0.4374238750 0.1226266875 0.0295468437
0.4699128750 0.1259023750 0.0283890000
0.5019211563 0.1287924375 0.0290785000
0.5331636875 0.1318999375 0.0302121250
0.5633001562 0.1348981250 0.0324548750
0.5920442500 0.1374537500 0.0350912500
0.6194500312 0.1399629375 0.0381968438
0.6455430000 0.1423416875 0.0412740000
0.6703580625 0.1447366875 0.0445243750
0.6941761250 0.1472992500 0.0486322500
0.7169528750 0.1500939375 0.0527470312
0.7384806250 0.1531681875 0.0571223125
0.7588195313 0.1564388125 0.0619453125
0.7780471250 0.1599082500 0.0674348750
0.7961387813 0.1640374375 0.0727779063
0.8135118125 0.1686937500 0.0790980000
0.8301383125 0.1738658125 0.0855489687
0.8463202500 0.1797638750 0.0920085000
0.0051006875 0.1096318125 0.0427879062
0.0058650313 0.1081873125 0.0404290625
0.0219813750 0.1126032813 0.0441978750
0.0682925625 0.1127487813 0.0423499062
0.1126608750 0.1100785937 0.0350666875
0.1495301562 0.1128350000 0.0394290000
0.1872508125 0.1172685000 0.0418533750
0.2230914063 0.1211053750 0.0426328750
0.2564355625 0.1243818437 0.0419941562
0.2878254062 0.1271752500 0.0406733438
0.3180037813 0.1298337500 0.0397966562
0.3462797500 0.1319802500 0.0369395625
0.3748171250 0.1345265000 0.0346235000
0.4038539688 0.1374201875 0.0326521250
0.4336491563 0.1406480000 0.0308772812
0.4645901875 0.1441496875 0.0299660000
0.4957765312 0.1477901250 0.0302367188
0.5265892812 0.1511159375 0.0312965938
0.5565612813 0.1545153438 0.0328986562
0.5851769063 0.1575925625 0.0350912500
0.6127954375 0.1606180313 0.0379009375
0.6389235625 0.1632768125 0.0405006563
0.6640600625 0.1660500938 0.0437160312
0.6880783125 0.1688403438 0.0472573750
0.7110413125 0.1717430313 0.0514666562
0.7329789688 0.1748706250 0.0556777500
0.7536101562 0.1781445937 0.0601218750
0.7732099375 0.1815703437 0.0651657812
0.7917680938 0.1855185313 0.0701433438
0.8092941875 0.1896614688 0.0761282500
0.8262337188 0.1946159688 0.0823226250
0.8424188438 0.1998564688 0.0885608438
0.8582988750 0.2055300000 0.0955858125
0.0010846875 0.1368583750 0.0438660625
0.0018726875 0.1354197500 0.0476499062
0.0178905625 0.1387705625 0.0472405000
0.0617421250 0.1399192812 0.0458417188
0.1150189375 0.1406184375 0.0430243125
0.1592177187 0.1387021562 0.0347709375
0.1997201875 0.1420718125 0.0373586875
0.2404234687 0.1455772187 0.0375066250
0.2788443750 0.1489981250 0.0376543750
0.3146955938 0.1516548750 0.0369395312
0.3486900000 0.1542001250 0.0360281250
0.3803647500 0.1566753438 0.0349926875
0.4109453750 0.1587056875 0.0335636250
0.4395137188 0.1612066250 0.0324797500
0.4677636875 0.1642322500 0.0315430000
0.4966953438 0.1678499375 0.0313950625
0.5261247500 0.1714913125 0.0325780625
0.5551621250 0.1752328125 0.0339826875
0.5833805000 0.1786701875 0.0361757500
0.6103426563 0.1820817500 0.0385169062
0.6362021875 0.1852618125 0.0412713125
0.6610919375 0.1883423125 0.0442270000
0.6850782500 0.1913908750 0.0476301250
0.7081027187 0.1945213750 0.0511958750
0.7300471250 0.1977968750 0.0550432500
0.7507777500 0.2010551562 0.0594440000
0.7704928125 0.2045930625 0.0639415625
0.7892655312 0.2083092500 0.0689396875
0.8070430000 0.2122756875 0.0741475000
0.8240172188 0.2168691250 0.0800066563
0.8402613750 0.2217058750 0.0863159375
0.8559112813 0.2270485625 0.0930561875
0.8713483750 0.2326410625 0.0998629375
0.0000000000 0.1669437187 0.0521232813
0.0001479375 0.1653401875 0.0518455313
0.0154014687 0.1680501250 0.0512872188
0.0559063438 0.1700875313 0.0487465937
0.1106487812 0.1703601563 0.0453950313
0.1662310000 0.1701426875 0.0410354375
0.2121416875 0.1700715938 0.0297192187
0.2548425938 0.1731551875 0.0312715625
0.2970234688 0.1761134688 0.0308285313
0.3370675000 0.1788108750 0.0306559375
0.3743515937 0.1809397188 0.0306559375
0.4091673750 0.1831297500 0.0311730625
0.4422570937 0.1850611563 0.0315923125
0.4737249375 0.1871906250 0.0317155937
0.5037086563 0.1900994062 0.0327752500
0.5319210625 0.1933929688 0.0341550312
0.5598010937 0.1972130938 0.0355350313
0.5868132500 0.2009123437 0.0377038125
0.6128697500 0.2045667500 0.0400395938
0.6381623438 0.2080642188 0.0426180000
0.6624710312 0.2114554375 0.0455178438
0.6859135625 0.2146838750 0.0483044375
0.7083470625 0.2179661250 0.0518588437
0.7299472813 0.2213309375 0.0555329062
0.7506326250 0.2247965312 0.0593257187
0.7702913125 0.2283217813 0.0639396563
0.7889281250 0.2320379063 0.0684143750
0.8066803125 0.2360013437 0.0735534375
0.8236041250 0.2402370000 0.0789825000
0.8397755312 0.2447076875 0.0849618750
0.8553125938 0.2497873125 0.0913895625
0.8702922187 0.2550800938 0.0979107187
0.8850745938 0.2605221875 0.1047135625
0.0000000000 0.1988072500 0.0563485000
0.0000000000 0.1971945938 0.0563485000
0.0138491250 0.1995031875 0.0546132500
0.0503530938 0.2017577500 0.0509774375
0.1041372500 0.2028683750 0.0475063750
0.1667190937 0.2026490000 0.0421099375
0.2217251250 0.2028295625 0.0357325000
0.2683096250 0.2038820000 0.0287585938
0.3122707500 0.2057167500 0.0224747500
0.3550599375 0.2079499687 0.0216857500
0.3955288125 0.2101075000 0.0230165000
0.4332260937 0.2118701562 0.0248896562
0.4689161250 0.2136082500 0.0270090000
0.5025135312 0.2156324688 0.0297195938
0.5344594375 0.2179966875 0.0326273125
0.5647750938 0.2211425312 0.0355347813
0.5933000000 0.2247322500 0.0384432500
0.6194983125 0.2283377500 0.0413161875
0.6441557500 0.2319721250 0.0435326250
0.6677235313 0.2354981250 0.0466786562
0.6903740000 0.2390235000 0.0496573750
0.7121516875 0.2424499375 0.0530026250
0.7331798750 0.2459198750 0.0563010625
0.7532649375 0.2493762812 0.0602035937
0.7723865000 0.2529600000 0.0643602500
0.7908234687 0.2566637500 0.0687160625
0.8083389375 0.2605176875 0.0735666875
0.8250203750 0.2645834375 0.0788132500
0.8409706250 0.2689711250 0.0844170000
0.8562472187 0.2735715625 0.0905576875
0.8710081250 0.2785972500 0.0970139375
0.8852681562 0.2838720937 0.1034997813
0.8994457500 0.2893510000 0.1104255000
0.0000000000 0.2318331875 0.0605528438
0.0007643438 0.2300175625 0.0599571875
0.0123460312 0.2322548125 0.0577449062
0.0456976250 0.2352990937 0.0534668750
0.0970244688 0.2368691562 0.0490474062
0.1623841875 0.2367772187 0.0422244687
0.2273566250 0.2366360625 0.0347221875
0.2796897812 0.2365169688 0.0271072187
0.3264231250 0.2376789062 0.0195662813
0.3703976250 0.2389471563 0.0137259687
0.4129429375 0.2408376563 0.0137013437
0.4534059062 0.2425635000 0.0165597812
0.4912963125 0.2442095938 0.0207247187
0.5272224062 0.2458715000 0.0257272500
0.5608422813 0.2480755312 0.0301628437
0.5923321875 0.2507298125 0.0353870313
0.6214476250 0.2539281250 0.0390345000
0.6484762813 0.2573227812 0.0428118125
0.6732764688 0.2608871250 0.0463942188
0.6961854375 0.2644520625 0.0498311250
0.7177124062 0.2679024063 0.0533563750
0.7382318125 0.2714968750 0.0569227500
0.7578643125 0.2749807187 0.0606890625
0.7766174688 0.2785461563 0.0649140000
0.7945701563 0.2822227812 0.0692351875
0.8117155312 0.2859917500 0.0739818125
0.8280944375 0.2898933437 0.0789497500
0.8437535938 0.2939984688 0.0844284688
0.8587242812 0.2983795938 0.0904059687
0.8731335625 0.3030553437 0.0965019063
0.8870349375 0.3080759687 0.1027442500
0.9006768125 0.3134479687 0.1096211563
0.9140826875 0.3188616563 0.1164386250
0.0000000000 0.2651640625 0.0639850625
0.0007643437 0.2632340625 0.0634317188
0.0113853750 0.2659445000 0.0607590000
0.0408490313 0.2696270625 0.0560364687
0.0898975000 0.2716382500 0.0504705625
0.1563097500 0.2717996250 0.0430886562
0.2272295625 0.2713410000 0.0340072500
0.2883355312 0.2708813750 0.0242243437
0.3385941875 0.2710153125 0.0164615625
0.3844556562 0.2718390937 0.0100541562
0.4282766250 0.2730648750 0.0059631875
0.4704587188 0.2745545937 0.0083295312
0.5106366875 0.2762545000 0.0134550625
0.5483152813 0.2779336250 0.0196648750
0.5832789375 0.2798170000 0.0261710625
0.6157306250 0.2820990625 0.0323809375
0.6454403125 0.2848497500 0.0375558125
0.6727710937 0.2879933437 0.0422971250
0.6978457500 0.2913019375 0.0471054375
0.7209417500 0.2947272187 0.0514261875
0.7423344375 0.2981360625 0.0556736875
0.7623241250 0.3015406875 0.0597043750
0.7810126875 0.3049376250 0.0642973750
0.7988792500 0.3085291250 0.0688513125
0.8159277500 0.3122179375 0.0736331875
0.8320372500 0.3160016562 0.0789625000
0.8475418750 0.3199171250 0.0843570625
0.8623039688 0.3240115000 0.0901101875
0.8764747500 0.3284385625 0.0962219375
0.8900765313 0.3331439688 0.1023688750
0.9032797500 0.3381855000 0.1090200000
0.9161331875 0.3435415312 0.1158707500
0.9289431875 0.3489327500 0.1228840625
0.0000000000 0.2989555000 0.0678309375
0.0007643438 0.2969194062 0.0676405000
0.0105964375 0.3001997500 0.0644087813
0.0377035625 0.3044278125 0.0589222187
0.0837449687 0.3069875937 0.0523002188
0.1500133437 0.3075994062 0.0436906250
0.2243005625 0.3070900000 0.0340072500
0.2923016563 0.3062997500 0.0232875000
0.3489020625 0.3059044375 0.0140709687
0.3971471562 0.3061494687 0.0068999062
0.4421977188 0.3066346875 0.0020944687
0.4857528750 0.3078910625 0.0026368750
0.5272588125 0.3093777500 0.0065059375
0.5662150938 0.3108979687 0.0128883437
0.6023600937 0.3126980312 0.0201333437
0.6355136250 0.3147375000 0.0272057500
0.6657554688 0.3170618125 0.0339333125
0.6934699375 0.3198301875 0.0398669063
0.7187143437 0.3227173750 0.0457692500
0.7419244375 0.3257782500 0.0509903438
0.7633715625 0.3289950938 0.0558733750
0.7833407187 0.3322772813 0.0614670625
0.8019055625 0.3356203125 0.0663119062
0.8193964375 0.3390974063 0.0717644688
0.8358722187 0.3426985000 0.0773704375
0.8514840313 0.3464562812 0.0831380000
0.8662597188 0.3504660625 0.0890509375
0.8803650313 0.3545962813 0.0954149687
0.8938460000 0.3590909063 0.1017412188
0.9067549375 0.3638085937 0.1085478125
0.9192493438 0.3689326875 0.1154249375
0.9315014062 0.3742519375 0.1225561563
0.9435729063 0.3797813125 0.1297229375
0.0000000000 0.3333830000 0.0723581250
0.0002712187 0.3294166875 0.0729962500
0.0093149375 0.3351019375 0.0682533750
0.0352391875 0.3397200000 0.0624213438
0.0790941250 0.3430033750 0.0549263750
0.1439280313 0.3443329375 0.0456943750
0.2199916250 0.3437793125 0.0346481250
0.2928784063 0.3427370937 0.0232875000
0.3557575000 0.3419362500 0.0138000000
0.4081941250 0.3414996250 0.0064070625
0.4551156250 0.3415477500 0.0020698125
0.4995422187 0.3422145000 0.0015770000
0.5419412500 0.3434601250 0.0028585000
0.5816933125 0.3448625625 0.0070230625
0.6184414375 0.3463956250 0.0137013750
0.6522322188 0.3480816562 0.0214148437
0.6830421250 0.3500987500 0.0283886250
0.7110566875 0.3523458125 0.0353625625
0.7366842500 0.3548233125 0.0419805625
0.7602173437 0.3574734375 0.0483903750
0.7819375000 0.3603285000 0.0546846250
0.8020007188 0.3633937813 0.0612994375
0.8206296250 0.3665848125 0.0672232500
0.8380594688 0.3699917187 0.0739352812
0.8543356250 0.3735443750 0.0801611250
0.8696164375 0.3773158750 0.0867820000
0.8839676250 0.3812546250 0.0934906875
0.8975552188 0.3854753750 0.1003523437
0.9104965000 0.3900830000 0.1073696250
0.9228162500 0.3949216250 0.1145270938
0.9346600625 0.4001518125 0.1217181875
0.9461864375 0.4055884688 0.1291223750
0.9576021250 0.4111936250 0.1366985000
0.0000000000 0.3679810937 0.0779096563
0.0000000000 0.3640291875 0.0781107500
0.0089701250 0.3701352813 0.0729709688
0.0336868438 0.3754217813 0.0667133438
0.0752957500 0.3791551875 0.0584431875
0.1384640313 0.3810760313 0.0488837813
0.2152584375 0.3809572187 0.0369866250
0.2915142813 0.3799170000 0.0251852188
0.3588933750 0.3787410625 0.0142684687
0.4165957500 0.3779132188 0.0064070625
0.4662943750 0.3775488437 0.0025382812
0.5119097812 0.3775517500 0.0015770000
0.5548831563 0.3782571875 0.0020701250
0.5951346563 0.3793209063 0.0044108750
0.6324477187 0.3806397812 0.0090685312
0.6666887812 0.3820004375 0.0152537500
0.6979628125 0.3836248437 0.0222526875
0.7264738750 0.3854069375 0.0299411250
0.7525792500 0.3873632188 0.0373832500
0.7765565313 0.3896449062 0.0447656562
0.7985463750 0.3920271875 0.0519816562
0.8188932187 0.3947845000 0.0593809687
0.8376195312 0.3977017187 0.0670668750
0.8550414687 0.4009322813 0.0742670625
0.8711751875 0.4044020312 0.0818574375
0.8862716875 0.4081876250 0.0894725000
0.9003178750 0.4121741563 0.0971351563
0.9135868437 0.4166008750 0.1047835625
0.9260729375 0.4212407188 0.1123845313
0.9378270937 0.4262804375 0.1200598750
0.9490193125 0.4315885625 0.1280249375
0.9597567813 0.4371954063 0.1358348125
0.9703060000 0.4428181562 0.1437111250
0.0000000000 0.4022328125 0.0837612500
0.0007643438 0.3986732500 0.0837758125
0.0094626875 0.4050565000 0.0784870000
0.0329230625 0.4105879062 0.0715867813
0.0732270625 0.4148320000 0.0632593125
0.1341879062 0.4171414062 0.0527546250
0.2106880000 0.4177868125 0.0406704375
0.2889883437 0.4170557500 0.0279449688
0.3599283750 0.4158552500 0.0169048750
0.4213997500 0.4146495000 0.0084278750
0.4747850625 0.4137933125 0.0033020625
0.5222712500 0.4134241875 0.0015770000
0.5662226875 0.4136315000 0.0015770000
0.6070228125 0.4142191250 0.0028585312
0.6448563125 0.4151146250 0.0059638125
0.6795497500 0.4161396250 0.0110400312
0.7113091250 0.4173188125 0.0168066250
0.7402644687 0.4186439687 0.0238051250
0.7669303125 0.4201731250 0.0314939375
0.7912611563 0.4219266250 0.0396950938
0.8135620625 0.4239774375 0.0479734375
0.8340547187 0.4262961875 0.0566278438
0.8528650625 0.4289334375 0.0652771875
0.8702680938 0.4318759688 0.0738378750
0.8863652500 0.4352551875 0.0823690625
0.9012730313 0.4389277188 0.0910070313
0.9152363750 0.4430093750 0.0996511250
0.9281816563 0.4474329375 0.1082872813
0.9402400625 0.4522417500 0.1167090000
0.9514340625 0.4573986250 0.1252082812
0.9618124375 0.4628621875 0.1335944375
0.9715792187 0.4684922187 0.1420338750
0.9810770000 0.4742418125 0.1502764375
0.0000000000 0.4360021875 0.0901259375
0.0007643438 0.4328959062 0.0898996250
0.0098074375 0.4391349375 0.0843195625
0.0331447812 0.4449948125 0.0775580312
0.0723972500 0.4494804063 0.0690844687
0.1316179688 0.4525650000 0.0581609062
0.2069740313 0.4538510313 0.0460145937
0.2862634687 0.4536061250 0.0330214375
0.3592744375 0.4525358125 0.0207739375
0.4236754375 0.4511534688 0.0114097500
0.4802096563 0.4500087812 0.0056432812
0.5303391562 0.4492714688 0.0030555000
0.5758613437 0.4491007812 0.0022920312
0.6176051875 0.4491863437 0.0024152500
0.6560625000 0.4495656563 0.0044109062
0.6912826250 0.4501900313 0.0075161563
0.7235149687 0.4509660000 0.0125430625
0.7530132500 0.4519204375 0.0183589687
0.7799425937 0.4530551563 0.0260725000
0.8045564063 0.4543307813 0.0341552813
0.8270423125 0.4559594687 0.0428669063
0.8476520000 0.4578143438 0.0522046563
0.8665069687 0.4600897188 0.0620226250
0.8838942188 0.4627739375 0.0716761250
0.8999487812 0.4658581250 0.0815606250
0.9148082812 0.4694004063 0.0914299375
0.9285692500 0.4733971250 0.1011297813
0.9412658125 0.4778462187 0.1107477813
0.9528664688 0.4827276562 0.1204028125
0.9633313750 0.4879415313 0.1297177813
0.9727089688 0.4934030000 0.1386727187
0.9812063125 0.4990482500 0.1475995625
0.9892825312 0.5047085313 0.1561417500
0.0000000000 0.4688755000 0.0973125000
0.0007643438 0.4661755937 0.0963158750
0.0105964375 0.4720778125 0.0912756875
0.0334402812 0.4780311875 0.0841302500
0.0723972500 0.4828395000 0.0759626250
0.1304922500 0.4864801250 0.0651780937
0.2044060625 0.4883791875 0.0525593125
0.2833457812 0.4887744063 0.0392169375
0.3576312500 0.4880472500 0.0266145000
0.4241350312 0.4867913125 0.0163135938
0.4833833750 0.4855745000 0.0092656250
0.5362162500 0.4846547187 0.0052735937
0.5837947500 0.4840833750 0.0030555000
0.6270830625 0.4838265000 0.0023660000
0.6664097500 0.4837677500 0.0032033125
0.7023110625 0.4840070625 0.0051748125
0.7349340000 0.4844125000 0.0086740000
0.7646767187 0.4849541250 0.0137014375
0.7918050000 0.4856965625 0.0199113750
0.8164755625 0.4865621250 0.0279449688
0.8391247500 0.4877497500 0.0372601250
0.8597733750 0.4892369688 0.0471603750
0.8787306875 0.4910676875 0.0572990625
0.8960610937 0.4933142188 0.0684190625
0.9121535000 0.4961017500 0.0793185000
0.9268642188 0.4993763750 0.0904654063
0.9404388750 0.5032060625 0.1015796250
0.9527461875 0.5075704063 0.1125480625
0.9637342500 0.5123992500 0.1228987500
0.9732621250 0.5175556875 0.1333240313
0.9813750625 0.5228735000 0.1428758125
0.9883858438 0.5283276562 0.1520688437
0.9947895000 0.5337725000 0.1610775000
0.0000000000 0.5003600313 0.1044079375
0.0015277187 0.4979727812 0.1032919375
0.0113853750 0.5036548125 0.0985779375
0.0345985625 0.5095800312 0.0917146250
0.0731501875 0.5146625938 0.0832676562
0.1300031562 0.5186031250 0.0728359688
0.2026019687 0.5211554063 0.0606310000
0.2807135937 0.5221189687 0.0468442500
0.3555974375 0.5219067188 0.0341795312
0.4237698750 0.5210268125 0.0225237812
0.4852090625 0.5199540625 0.0141694688
0.5406505000 0.5190462813 0.0083783125
0.5905519375 0.5182783125 0.0046078750
0.6354335313 0.5177451250 0.0026861250
0.6759275625 0.5174381875 0.0023660000
0.7123855313 0.5172950312 0.0032033125
0.7453812813 0.5173655938 0.0055692813
0.7752253750 0.5175873438 0.0094630000
0.8024804375 0.5179309375 0.0152538125
0.8272751563 0.5184565625 0.0222034063
0.8499428750 0.5191671562 0.0310500625
0.8706716250 0.5202219062 0.0406130313
0.8896210000 0.5216145625 0.0519713125
0.9069770312 0.5234610312 0.0637838125
0.9229375625 0.5258648750 0.0760933750
0.9375534688 0.5288076563 0.0884429062
0.9508246250 0.5323949062 0.1007725000
0.9625979063 0.5365046250 0.1128311875
0.9727460938 0.5410617500 0.1245799375
0.9811280625 0.5459756250 0.1355689063
0.9878300937 0.5510100000 0.1459007187
0.9932419375 0.5560649375 0.1555122813
0.9979513750 0.5610664687 0.1647043125
0.0000000000 0.5307159375 0.1122835000
0.0018975625 0.5285891250 0.1110875625
0.0121734375 0.5339795000 0.1061416250
0.0353624688 0.5397861250 0.0994020625
0.0741616875 0.5450421875 0.0911376250
0.1304590937 0.5492103750 0.0810965938
0.2016802500 0.5521747500 0.0689949375
0.2789040000 0.5537710937 0.0558176875
0.3537642500 0.5541714375 0.0423687500
0.4231472188 0.5537754688 0.0300891250
0.4865860625 0.5530681875 0.0202073125
0.5443010313 0.5523170937 0.0123706563
0.5963401250 0.5515260000 0.0072451250
0.6429485313 0.5508964375 0.0038197188
0.6844851875 0.5503135625 0.0023660000
0.7215438125 0.5498922500 0.0023660000
0.7548121250 0.5495963750 0.0035977500
0.7848392500 0.5494325000 0.0063582813
