植人大树自媒体封面制作器/digicamfx/lut/香港印象/Kinetic 02.cube
TITLE "Kinetic 02 by Gamut"
# Version 1.0 - 11/21/2022 - Designed for Rec.709 Color Space. Copyright 2022 Gamut, LLC
LUT_3D_SIZE 33
0.0149830000 0.0323320000 0.0432640000
0.0351902812 0.0307540000 0.0394779062
0.0537878750 0.0315430000 0.0387385625
0.0733074062 0.0323320000 0.0379258750
0.0936773750 0.0338103750 0.0363726250
0.1155128125 0.0344505937 0.0348202813
0.1417404375 0.0453270625 0.0342046875
0.1680055000 0.0472864687 0.0325043750
0.1961427500 0.0498345000 0.0293742500
0.2264872813 0.0508310000 0.0239779687
0.2580644375 0.0523470000 0.0274520000
0.2907082188 0.0530020000 0.0252593125
0.3239663750 0.0525926250 0.0201087500
0.3587518750 0.0519545313 0.0138983125
0.3938907500 0.0495813125 0.0089206875
0.4299719375 0.0461328437 0.0046822187
0.4658430000 0.0428820000 0.0019715000
0.5009169375 0.0379500937 0.0004191562
0.5347158750 0.0320848750 0.0000000000
0.5676298438 0.0259981563 0.0000000000
0.5994103750 0.0196157500 0.0000000000
0.6302722500 0.0141696875 0.0007890000
0.6597401875 0.0105471875 0.0015770000
0.6881152812 0.0084523750 0.0017989063
0.7148172500 0.0069000000 0.0025630000
0.7396262813 0.0063090000 0.0031540000
0.7629472500 0.0061610625 0.0033019375
0.7848695938 0.0055200000 0.0048542813
0.8054235000 0.0062103750 0.0065061250
0.8245146250 0.0055939687 0.0103989375
0.8421014375 0.0071463125 0.0143418750
0.8585504375 0.0086986562 0.0197879375
0.8687850000 0.0102510000 0.0228690000
0.0205522812 0.0452497813 0.0402412813
0.0281425625 0.0437880625 0.0379259062
0.0523466250 0.0445245313 0.0394536250
0.0686807813 0.0446174062 0.0371862187
0.0896416875 0.0452744375 0.0355106250
0.1106452812 0.0460835000 0.0325784062
0.1347250312 0.0473896875 0.0309265937
0.1599721875 0.0478030000 0.0362746875
0.1866974375 0.0475423750 0.0356338125
0.2154108125 0.0469546250 0.0335389063
0.2448785625 0.0463530312 0.0296944688
0.2758146875 0.0444947500 0.0260473125
0.3124287812 0.0506368125 0.0213902500
0.3480512812 0.0519545313 0.0162150313
0.3834995000 0.0495813125 0.0100296562
0.4198034375 0.0461548438 0.0058154375
0.4563268437 0.0428820000 0.0023655000
0.4923222187 0.0387144062 0.0004191562
0.5272720625 0.0333171250 0.0000000000
0.5611319375 0.0271072813 0.0000000000
0.5935393125 0.0208726250 0.0000000000
0.6246198125 0.0149580312 0.0007890000
0.6544596563 0.0105471875 0.0010598750
0.6829450313 0.0084523750 0.0015770000
0.7099316563 0.0069000000 0.0025630000
0.7351113750 0.0061364063 0.0031540000
0.7586704687 0.0056925937 0.0033019375
0.7809070938 0.0055200000 0.0047310000
0.8016330938 0.0056186250 0.0064075000
0.8211501562 0.0055939687 0.0096108437
0.8389926562 0.0071463125 0.0135538125
0.8554386250 0.0086986563 0.0182602500
0.8686550000 0.0102510000 0.0228690000
0.0189752500 0.0594388750 0.0371615625
0.0161160312 0.0564360938 0.0348202500
0.0482891875 0.0563730625 0.0347463125
0.0725781875 0.0569569687 0.0363480000
0.0911710000 0.0574943750 0.0347956250
0.1118790313 0.0593415937 0.0338596875
0.1346455625 0.0600381875 0.0399169375
0.1591257188 0.0610920313 0.0395028125
0.1866632500 0.0612236875 0.0379504375
0.2153692500 0.0617711875 0.0358309687
0.2458347500 0.0613297500 0.0327262500
0.2771515625 0.0601641250 0.0283640000
0.3099820000 0.0585612500 0.0231641875
0.3440464375 0.0561725937 0.0170034062
0.3794144375 0.0532100000 0.0107936250
0.4157865938 0.0488966250 0.0062592188
0.4521376250 0.0440540625 0.0028093125
0.4881685313 0.0391769375 0.0004191562
0.5231291875 0.0329719375 0.0000000000
0.5565427813 0.0253087188 0.0000000000
0.5886051250 0.0168555625 0.0000000000
0.6192493750 0.0095118125 0.0002712187
0.6487400625 0.0048297500 0.0012815000
0.6771521563 0.0039675312 0.0015770000
0.7040606250 0.0033511875 0.0025630000
0.7293547813 0.0025631250 0.0031540000
0.7558281250 0.0056679375 0.0033019375
0.7786392500 0.0055200000 0.0040661250
0.7994874375 0.0055200000 0.0057664375
0.8190887812 0.0055200000 0.0088958125
0.8370231250 0.0064075000 0.0128634375
0.8535739375 0.0079106250 0.0182109375
0.8683451250 0.0095122500 0.0228690000
0.0144897813 0.0748334062 0.0446015312
0.0147119375 0.0718621875 0.0443784063
0.0334896562 0.0704292187 0.0439355312
0.0688826875 0.0698625937 0.0439355312
0.0959275000 0.0703401875 0.0429845312
0.1196833750 0.0723175625 0.0425071562
0.1416482500 0.0738274687 0.0424450313
0.1660490937 0.0752625937 0.0417819063
0.1928563750 0.0768027813 0.0403384063
0.2215414062 0.0772302500 0.0379997500
0.2520743437 0.0777051562 0.0343278438
0.2841014687 0.0774929688 0.0299163438
0.3176359687 0.0769665000 0.0240517500
0.3521121563 0.0755934688 0.0178413125
0.3877641250 0.0733682813 0.0116313125
0.4244097500 0.0712891562 0.0066290625
0.4608840938 0.0680781875 0.0027600000
0.4966281875 0.0639711250 0.0011337500
0.5310789687 0.0587467500 0.0000000000
0.5641837188 0.0528203125 0.0000000000
0.5962324375 0.0461769063 0.0002958750
0.6266557500 0.0391376250 0.0007890000
0.6561234687 0.0339085625 0.0007890000
0.6838988750 0.0295469687 0.0015770000
0.7102557812 0.0264422500 0.0023660000
0.7350834375 0.0234105000 0.0026122500
0.7583028750 0.0211686562 0.0033019375
0.7802957813 0.0191229063 0.0040661250
0.8008082187 0.0176691875 0.0057171250
0.8200315313 0.0169541563 0.0088218437
0.8376294063 0.0170281250 0.0127648750
0.8542400625 0.0177431562 0.0174475625
0.8697177500 0.0186051250 0.0228690000
0.0111386250 0.0910648750 0.0481187500
0.0112371250 0.0886143437 0.0480520937
0.0188274375 0.0859819375 0.0474186875
0.0587654062 0.0863253438 0.0467806875
0.0949328750 0.0863706250 0.0460912500
0.1265396562 0.0875719375 0.0453948125
0.1544626250 0.0889089375 0.0440508125
0.1806656875 0.0908875000 0.0433334687
0.2074648750 0.0929647500 0.0411852500
0.2356901563 0.0946063750 0.0382955313
0.2657483125 0.0954808750 0.0346480625
0.2968077500 0.0958780313 0.0299903125
0.3293692500 0.0959113750 0.0240517500
0.3634283750 0.0950187812 0.0178413125
0.3986613750 0.0941045000 0.0116313125
0.4351533438 0.0930969375 0.0066290625
0.4715045000 0.0915160000 0.0030558750
0.5070920937 0.0891885938 0.0012076250
0.5416303125 0.0862621250 0.0000000000
0.5744512188 0.0819429688 0.0000000000
0.6061958750 0.0772123750 0.0000000000
0.6364956875 0.0724065937 0.0007890000
0.6653158750 0.0677543125 0.0010352500
0.6928406563 0.0639060312 0.0015770000
0.7188130000 0.0602006250 0.0015770000
0.7431265000 0.0573019688 0.0023660000
0.7661111250 0.0544113750 0.0031540000
0.7874830938 0.0520403750 0.0040661250
0.8075555000 0.0507306250 0.0057171250
0.8262218125 0.0496243438 0.0088218437
0.8436263750 0.0501816875 0.0127648750
0.8600358438 0.0514204688 0.0174229062
0.8757676250 0.0538043750 0.0228690000
0.0066785313 0.1099375938 0.0526923125
0.0074420312 0.1077894688 0.0520346562
0.0078855937 0.1049378125 0.0513708438
0.0453089688 0.1048749375 0.0507661562
0.0893920937 0.1052133437 0.0501134375
0.1279727187 0.1061465312 0.0487679688
0.1637660312 0.1078995312 0.0468029062
0.1966710000 0.1090468438 0.0442106563
0.2272798437 0.1107954688 0.0413745000
0.2558874375 0.1122902188 0.0382955313
0.2847761562 0.1137876562 0.0339825000
0.3147623750 0.1146985625 0.0288074687
0.3458982187 0.1150982813 0.0225978750
0.3787877813 0.1149124375 0.0163875937
0.4130665625 0.1148649688 0.0108428750
0.4487400313 0.1149983437 0.0058400625
0.4847805937 0.1144219375 0.0027600000
0.5199400312 0.1138046562 0.0012076250
0.5538881562 0.1123604062 0.0004438125
0.5866624062 0.1101890000 0.0000000000
0.6177544688 0.1074203437 0.0006657188
0.6475037188 0.1040417500 0.0007890000
0.6758457500 0.1006263438 0.0007890000
0.7029162188 0.0972855625 0.0015770000
0.7284555000 0.0941549375 0.0017742500
0.7523790000 0.0913153750 0.0023660000
0.7747744375 0.0887566563 0.0031540000
0.7958565625 0.0862814062 0.0040661250
0.8153996875 0.0850070000 0.0062842187
0.8335391562 0.0846474687 0.0088218437
0.8503835625 0.0859403125 0.0119768125
0.8666343437 0.0883695313 0.0166339375
0.8821745313 0.0916278750 0.0214151250
0.0040907500 0.1311991875 0.0564663750
0.0042386875 0.1296372188 0.0564663750
0.0006407500 0.1258125625 0.0557590625
0.0338838125 0.1268657500 0.0546325937
0.0799146250 0.1271371875 0.0532825625
0.1252434688 0.1272532812 0.0515401250
0.1671095000 0.1284301250 0.0484235625
0.2064755000 0.1298852812 0.0457975938
0.2429340000 0.1308761250 0.0414212500
0.2762726875 0.1321148750 0.0370873750
0.3072820000 0.1330973125 0.0317890625
0.3373817500 0.1341780312 0.0264662813
0.3677916875 0.1348090000 0.0204044375
0.3992706562 0.1355642812 0.0146626562
0.4322966250 0.1361476250 0.0092165625
0.4663578438 0.1368188437 0.0054706875
0.5012128750 0.1377055000 0.0027600000
0.5355020312 0.1381592187 0.0012076250
0.5685781875 0.1380153125 0.0007890000
0.6003983750 0.1372686875 0.0006410625
0.6309602500 0.1358883750 0.0007890000
0.6601065625 0.1340780312 0.0007890000
0.6879013750 0.1318461875 0.0014292500
0.7142049062 0.1293713438 0.0015770000
0.7391288750 0.1269139375 0.0022180625
0.7625751563 0.1246622500 0.0025383750
0.7845066250 0.1222990000 0.0033019375
0.8049241875 0.1206756562 0.0047065312
0.8238201875 0.1197095625 0.0065061250
0.8414869375 0.1200332812 0.0088218437
0.8580255625 0.1219838750 0.0119768125
0.8736717813 0.1253061875 0.0159928750
0.8889807500 0.1296819375 0.0206509375
0.0017495938 0.1559113125 0.0606646562
0.0018973438 0.1541445938 0.0605323125
0.0008135313 0.1496944375 0.0604371562
0.0243961875 0.1510765625 0.0587897500
0.0664338750 0.1511561563 0.0566246250
0.1175601563 0.1510944688 0.0541732500
0.1658997500 0.1517007812 0.0511026563
0.2106276875 0.1526710937 0.0471986875
0.2529804375 0.1537578750 0.0415846563
0.2918672500 0.1542755625 0.0355843437
0.3274759063 0.1548442812 0.0295472187
0.3605296562 0.1553505625 0.0227211562
0.3921303437 0.1561308125 0.0171758125
0.4234033125 0.1570152812 0.0115571562
0.4554054687 0.1581510000 0.0073439063
0.4882072500 0.1597661250 0.0040658125
0.5214451875 0.1613642812 0.0019715000
0.5543216875 0.1627013438 0.0009613750
0.5861043437 0.1635761875 0.0007890000
0.6167453750 0.1639976250 0.0007890000
0.6463012500 0.1637303125 0.0007890000
0.6744664687 0.1629639688 0.0014046250
0.7013921563 0.1618650312 0.0015770000
0.7269620000 0.1603456875 0.0017989062
0.7513039375 0.1587506563 0.0023660000
0.7739849062 0.1570055938 0.0029816250
0.7952729687 0.1556780313 0.0037704063
0.8150745313 0.1547036563 0.0048542813
0.8332559375 0.1544857188 0.0065061250
0.8503227187 0.1556189688 0.0088218437
0.8662125625 0.1580721250 0.0119275625
0.8814954687 0.1620831250 0.0158203125
0.8963085938 0.1666820313 0.0197140000
0.0001972500 0.1828145000 0.0646592500
0.0007890000 0.1808930000 0.0645152500
0.0007890000 0.1779876875 0.0639836875
0.0159932500 0.1772816875 0.0624782813
0.0543830000 0.1782107500 0.0601642500
0.1057024063 0.1775129687 0.0567026250
0.1603956250 0.1771695000 0.0531621875
0.2111894063 0.1777357813 0.0480274687
0.2582257500 0.1786097500 0.0417467500
0.3019941562 0.1790462187 0.0344262187
0.3426896875 0.1793187500 0.0268604375
0.3801189062 0.1794492500 0.0202074375
0.4153123750 0.1797777500 0.0139970000
0.4485431875 0.1804235625 0.0089209063
0.4808799375 0.1818003750 0.0050271875
0.5129862500 0.1835600000 0.0029326250
0.5450732500 0.1858702500 0.0011830000
0.5762769375 0.1878487500 0.0007890000
0.6065330625 0.1895375625 0.0007890000
0.6356443750 0.1906187500 0.0007890000
0.6638223750 0.1912398750 0.0010845000
0.6909481875 0.1914726562 0.0015770000
0.7167805000 0.1912183750 0.0018235625
0.7415286875 0.1905903437 0.0023660000
0.7648732500 0.1899262500 0.0025630000
0.7867536875 0.1889952500 0.0031540000
0.8071090000 0.1885160000 0.0040907500
0.8260037813 0.1883203750 0.0054460313
0.8435410000 0.1890323750 0.0071956250
0.8598744375 0.1908450312 0.0093396250
0.8752920625 0.1939483750 0.0119275625
0.8900321250 0.1981559063 0.0158203125
0.9042807500 0.2031992500 0.0189260000
0.0000000000 0.2114807812 0.0688610938
0.0000000000 0.2095340937 0.0688610938
0.0000000000 0.2065717500 0.0683214375
0.0099555000 0.2052752187 0.0668372813
0.0430282500 0.2067122188 0.0636833125
0.0912472500 0.2064281562 0.0597342500
0.1502647812 0.2055980000 0.0552277188
0.2078191562 0.2053447500 0.0488466875
0.2598755000 0.2054517500 0.0413715313
0.3081586562 0.2059595938 0.0330955000
0.3532323750 0.2061346875 0.0245693438
0.3952038125 0.2060723750 0.0173483125
0.4344532187 0.2061880000 0.0115817812
0.4709755313 0.2065616563 0.0067028125
0.5054785312 0.2076776563 0.0037208125
0.5385118438 0.2095335313 0.0019468438
0.5701302500 0.2118119375 0.0007890000
0.6002656562 0.2140968438 0.0007890000
0.6291585625 0.2161476875 0.0007890000
0.6568653438 0.2177876250 0.0011091250
0.6835955000 0.2190180937 0.0015770000
0.7092643125 0.2198989687 0.0015770000
0.7340163750 0.2203124687 0.0021440938
0.7575663437 0.2205762500 0.0023660000
0.7797842188 0.2205952500 0.0029323750
0.8005884688 0.2205800625 0.0033265938
0.8199953438 0.2209443438 0.0045093750
0.8379235312 0.2216159062 0.0056432812
0.8545771562 0.2230709375 0.0072941250
0.8701930000 0.2255319063 0.0096108437
0.8849698125 0.2292038125 0.0124939375
0.8990306563 0.2336660000 0.0158203125
0.9124439688 0.2385941250 0.0189260000
0.0000000000 0.2419280625 0.0733536250
0.0000000000 0.2399472187 0.0730036875
0.0000000000 0.2367048125 0.0724879375
0.0055940313 0.2348293438 0.0711215625
0.0332189375 0.2367290000 0.0669939375
0.0764499375 0.2373351563 0.0627142813
0.1361728125 0.2364361250 0.0570873750
0.2001277188 0.2352328438 0.0497204375
0.2585743125 0.2349858750 0.0413472500
0.3113547187 0.2350020312 0.0320848750
0.3602363750 0.2351606875 0.0230170000
0.4063002812 0.2352194375 0.0150076563
0.4495648125 0.2353244375 0.0092660000
0.4897298125 0.2354881875 0.0048302188
0.5272011250 0.2362995000 0.0027107500
0.5620341562 0.2378091250 0.0011583750
0.5943750000 0.2398124375 0.0007890000
0.6244300000 0.2419009688 0.0007890000
0.6525990625 0.2439562500 0.0011337500
0.6793530938 0.2458028437 0.0015770000
0.7049012500 0.2472644375 0.0015770000
0.7293469062 0.2485819062 0.0021194375
0.7527165000 0.2495915625 0.0023660000
0.7749836250 0.2504430000 0.0025876250
0.7959239375 0.2511917500 0.0031540000
0.8155267188 0.2519701250 0.0041153750
0.8336668125 0.2530867500 0.0048789375
0.8505202813 0.2545622187 0.0064321250
0.8663763125 0.2566871875 0.0080831250
0.8812686875 0.2597676250 0.0103989375
0.8952658125 0.2637395000 0.0132580000
0.9082881563 0.2682616562 0.0166092812
0.9203315000 0.2728799375 0.0197140000
0.0000000000 0.2734683438 0.0772866563
0.0000000000 0.2712542187 0.0769664063
0.0000000000 0.2683022812 0.0768255000
0.0020206562 0.2656384687 0.0756180625
0.0256040313 0.2681853750 0.0711865625
0.0632115937 0.2692150000 0.0660591563
0.1202567812 0.2687989375 0.0595228125
0.1886438125 0.2674970625 0.0512114062
0.2540611563 0.2666112187 0.0415285000
0.3119411250 0.2661321562 0.0310007188
0.3647628750 0.2661228438 0.0214636562
0.4144111250 0.2663558437 0.0134552812
0.4612515000 0.2664933125 0.0082551250
0.5048536563 0.2667129688 0.0040658750
0.5453438750 0.2673743125 0.0021930625
0.5824587812 0.2685737812 0.0011583750
0.6162196875 0.2701044688 0.0007890000
0.6471520313 0.2717480000 0.0007890000
0.6754953437 0.2733413125 0.0015770000
0.7018387500 0.2749618750 0.0015770000
0.7266601250 0.2764847188 0.0018728750
0.7501837500 0.2778549375 0.0023660000
0.7724387187 0.2792188125 0.0026122500
0.7933221562 0.2804889688 0.0031540000
0.8129193750 0.2818227500 0.0036717813
0.8311655313 0.2832733438 0.0044601250
0.8479992188 0.2849928438 0.0056679375
0.8637717500 0.2871578438 0.0072202813
0.8787491250 0.2899928125 0.0092902812
0.8929347188 0.2936146875 0.0117056250
0.9060441250 0.2978944063 0.0148103437
0.9177987813 0.3022230625 0.0179154063
0.9280134688 0.3062820000 0.0210207812
0.0000000000 0.3061200000 0.0820016250
0.0000000000 0.3039814688 0.0817110000
0.0000000000 0.3010464375 0.0812412500
0.0009366562 0.2975818750 0.0806338750
0.0193198750 0.3005337500 0.0752262500
0.0513303438 0.3022863437 0.0693645000
0.1040186875 0.3024830000 0.0623265625
0.1741731563 0.3014971250 0.0530856875
0.2458913750 0.3001050000 0.0421936250
0.3100680625 0.2993076875 0.0307295000
0.3674150625 0.2990088750 0.0207002500
0.4202495312 0.2990845000 0.0124200625
0.4702970000 0.2994075000 0.0071958750
0.5169340937 0.2997973750 0.0037946563
0.5602971875 0.3005491250 0.0019221875
0.5997304375 0.3014504375 0.0011583750
0.6352870000 0.3023995000 0.0007890000
0.6673089062 0.3034561562 0.0011583750
0.6963686250 0.3045075625 0.0015770000
0.7230880937 0.3056764063 0.0018975312
0.7477786250 0.3068355000 0.0023660000
0.7707198750 0.3081753750 0.0026368750
0.7920867500 0.3095008125 0.0031540000
0.8117975000 0.3110030938 0.0033759063
0.8300951250 0.3126781250 0.0041400000
0.8469979375 0.3145693125 0.0052241250
0.8627387500 0.3168338125 0.0064567500
0.8775970000 0.3195850312 0.0081324062
0.8916891250 0.3229916250 0.0104482500
0.9049856250 0.3270471562 0.0132579687
0.9171878125 0.3314120625 0.0163626875
0.9272777812 0.3355341250 0.0194678125
0.9354422500 0.3389531250 0.0225731250
0.0000000000 0.3400775938 0.0872067187
0.0000000000 0.3379048125 0.0867618437
0.0000000000 0.3348112188 0.0861586250
0.0007150312 0.3305240938 0.0861301250
0.0144407812 0.3339115000 0.0806760625
0.0420931875 0.3365185938 0.0738023125
0.0895341250 0.3374885313 0.0661210312
0.1580047187 0.3369376875 0.0560177188
0.2346929688 0.3355487500 0.0442863437
0.3055585937 0.3344882813 0.0315185000
0.3679592812 0.3338627187 0.0211188750
0.4244656562 0.3336553125 0.0123954062
0.4772998438 0.3339353125 0.0071958750
0.5268410625 0.3344873437 0.0037946563
0.5726440625 0.3352348125 0.0019221875
0.6141655937 0.3359640312 0.0015770000
0.6514279375 0.3364501562 0.0011830000
0.6848933125 0.3369543125 0.0015770000
0.7150647812 0.3374510625 0.0015770000
0.7423935313 0.3379792812 0.0020454688
0.7673899375 0.3386810625 0.0023660000
0.7901885625 0.3396589688 0.0028338750
0.8108790312 0.3408070938 0.0034005625
0.8297217500 0.3423247500 0.0041646250
0.8470068438 0.3440916250 0.0049282500
0.8628655625 0.3462294687 0.0061608437
0.8776624688 0.3488891250 0.0077132188
0.8916095000 0.3520522187 0.0093888750
0.9049180937 0.3559072187 0.0120749687
0.9173308437 0.3601816250 0.0152782812
0.9282968750 0.3646248438 0.0187040312
0.9366335000 0.3682783750 0.0210207500
0.9426599062 0.3709468125 0.0233368750
0.0000000000 0.3747645000 0.0929744375
0.0000000000 0.3725823125 0.0925536250
0.0000000000 0.3696698750 0.0921313750
0.0007150312 0.3645859375 0.0927070000
0.0110895000 0.3680611250 0.0867291250
0.0353132187 0.3714262188 0.0793914063
0.0768999375 0.3732131250 0.0707829375
0.1423980625 0.3734847500 0.0601053437
0.2215581875 0.3725630625 0.0471201875
0.2983571250 0.3714017500 0.0337612188
0.3663588125 0.3706428125 0.0223266250
0.4270592500 0.3702355312 0.0136273125
0.4829785000 0.3702600000 0.0076391250
0.5349456250 0.3707945313 0.0042384688
0.5827730000 0.3713490000 0.0019221875
0.6261929688 0.3717709375 0.0015770000
0.6651635000 0.3719461875 0.0015770000
0.7000650625 0.3719806250 0.0015770000
0.7314096875 0.3718902500 0.0015770000
0.7597246875 0.3719098750 0.0023660000
0.7851496250 0.3719786250 0.0026615000
0.8079543438 0.3724859062 0.0031540000
0.8283478750 0.3733057500 0.0039430000
0.8466222812 0.3745476250 0.0046081563
0.8631439375 0.3762605625 0.0057172500
0.8782626875 0.3784900937 0.0069248438
0.8923243125 0.3812678750 0.0086249375
0.9055701875 0.3847306250 0.0109412188
0.9181339375 0.3887939375 0.0140463750
0.9296510312 0.3933044687 0.0171516563
0.9390963750 0.3973653125 0.0202071250
0.9455302188 0.4003870937 0.0225484375
0.9495570625 0.4022886250 0.0236570000
0.0000000000 0.4098424063 0.0996087500
0.0000000000 0.4076270625 0.0990372812
0.0000000000 0.4046944062 0.0986524375
0.0002958750 0.4009433750 0.0981709688
0.0088467500 0.4026882188 0.0937409063
0.0298916562 0.4066655312 0.0859025000
0.0673291250 0.4094913750 0.0771972500
0.1281393750 0.4107126875 0.0656552500
0.2075665313 0.4105550312 0.0519145000
0.2892068750 0.4098574375 0.0379401250
0.3626473750 0.4090273750 0.0246427813
0.4278545625 0.4085370625 0.0151800312
0.4870743125 0.4082631250 0.0086989062
0.5414154063 0.4083125312 0.0045836563
0.5911521875 0.4086005938 0.0027107500
0.6362512188 0.4086358125 0.0015770000
0.6768333750 0.4085500000 0.0015770000
0.7132094688 0.4081740313 0.0015770000
0.7458148750 0.4076729062 0.0019221875
0.7750042500 0.4071252187 0.0023660000
0.8010170313 0.4067241250 0.0027846250
0.8239903438 0.4067234063 0.0034252188
0.8442287500 0.4070929062 0.0041892500
0.8621685937 0.4079369063 0.0051501563
0.8782674375 0.4093798125 0.0065060000
0.8928630312 0.4114927187 0.0082309688
0.9064522812 0.4142559688 0.0100295625
0.9191744688 0.4178533438 0.0124940312
0.9310604063 0.4219966875 0.0155988750
0.9414707187 0.4262360938 0.0187040000
0.9492710000 0.4298216250 0.0213905625
0.9539036250 0.4320608125 0.0228936250
0.9562971250 0.4333421875 0.0236570000
0.0000000000 0.4447100000 0.1073225000
0.0000000000 0.4425663125 0.1065942813
0.0000000000 0.4397360625 0.1058616875
0.0000000000 0.4366390000 0.1051600313
0.0073928750 0.4371022500 0.1016553750
0.0261463750 0.4418979063 0.0939979062
0.0595489375 0.4455290000 0.0848047500
0.1159666563 0.4478693125 0.0730244688
0.1939385000 0.4488637500 0.0586212500
0.2784966875 0.4488490312 0.0434454688
0.3568721250 0.4483471875 0.0291775625
0.4265077188 0.4477269375 0.0181866250
0.4892255000 0.4472417500 0.0106456250
0.5460766250 0.4468841875 0.0057665625
0.5979019375 0.4467050000 0.0031047500
0.6447665000 0.4464371250 0.0019468438
0.6868230000 0.4459895000 0.0015770000
0.7246040625 0.4453214062 0.0015770000
0.7583795625 0.4444270625 0.0019221875
0.7884459375 0.4434890312 0.0023660000
0.8149306250 0.4426537500 0.0031540000
0.8381647812 0.4421336563 0.0039430000
0.8584081875 0.4420215000 0.0049775625
0.8762257813 0.4424761875 0.0059145000
0.8921035000 0.4435580000 0.0072942500
0.9065163750 0.4454139062 0.0092408750
0.9197845625 0.4480464375 0.0115822500
0.9321584375 0.4514823750 0.0140464063
0.9433398750 0.4554510000 0.0171516250
0.9524508125 0.4591553438 0.0201824688
0.9584720000 0.4618598750 0.0221293125
0.9615006250 0.4633088750 0.0236570000
0.9627545000 0.4639930000 0.0236570000
0.0000000000 0.4793411875 0.1153671875
0.0000000000 0.4772880000 0.1148738750
0.0000000000 0.4745124375 0.1141912187
0.0007150312 0.4713776562 0.1135036875
0.0060376250 0.4712739062 0.1101308125
0.0235587813 0.4763780625 0.1026888125
0.0540476250 0.4808624062 0.0935752187
0.1060375313 0.4841210938 0.0820157500
0.1810716562 0.4862017813 0.0676508750
0.2667646563 0.4871127188 0.0514010000
0.3491205625 0.4872567187 0.0363976250
0.4229765000 0.4869469062 0.0230904063
0.4892788125 0.4863964687 0.0140464687
0.5491026875 0.4858955313 0.0076391562
0.6031903438 0.4853627187 0.0042137812
0.6518190938 0.4846983750 0.0023166875
0.6954281875 0.4839963750 0.0015770000
0.7344489063 0.4829890937 0.0015770000
0.7692523437 0.4818489375 0.0019468438
0.8000641562 0.4805981875 0.0026861250
0.8271222188 0.4794701563 0.0034498750
0.8505464062 0.4785265937 0.0042138750
0.8709357187 0.4779811250 0.0053474063
0.8887690625 0.4779556250 0.0065306250
0.9046151875 0.4785854375 0.0084526250
0.9189946250 0.4800700938 0.0101775625
0.9321672187 0.4824549063 0.0129126875
0.9442657812 0.4856114688 0.0155989375
0.9546271875 0.4890363750 0.0187039688
0.9623455312 0.4918658125 0.0214398437
0.9667381875 0.4935638438 0.0229182500
0.9684455000 0.4942973125 0.0236570000
0.9690204688 0.4945084063 0.0236570000
0.0007890000 0.5134141875 0.1243465625
0.0003698438 0.5113472188 0.1237134062
0.0003451875 0.5086496250 0.1229127500
0.0007890000 0.5054811250 0.1224073125
0.0053723125 0.5048958750 0.1196289375
0.0217105312 0.5100930625 0.1123420625
0.0500638125 0.5151033750 0.1035888750
0.0985295000 0.5191750625 0.0921180312
0.1700186250 0.5222236875 0.0782026875
0.2550765313 0.5241060312 0.0615100938
0.3400083750 0.5250909375 0.0450361875
0.4176637187 0.5252883437 0.0301876563
0.4875238125 0.5250419375 0.0185806250
0.5504354687 0.5245080313 0.0106456562
0.6069725625 0.5238702500 0.0057665625
0.6575721875 0.5230769687 0.0030801250
0.7026622500 0.5220715625 0.0023166875
0.7428335938 0.5208326563 0.0019221875
