植人大树自媒体封面制作器/digicamfx/lut/香港印象/Kinetic 03.cube
TITLE "Kinetic 03 by Gamut"
# Version 1.0 - 11/21/2022 - Designed for Rec.709 Color Space. Copyright 2022 Gamut, LLC
LUT_3D_SIZE 5
0.0394290000 0.0523470000 0.0580530000
0.2142117500 0.0470680000 0.0352885000
0.4564165000 0.0402115000 0.0023660000
0.6724775000 0.0110400000 0.0078860000
0.8012910000 0.0173490000 0.0291770000
0.0080830000 0.1803745000 0.0673005000
0.2659325000 0.1791702500 0.0364717500
0.5278285000 0.1891802500 0.0039430000
0.7201067500 0.1972345000 0.0084770000
0.8369420000 0.2147380000 0.0260230000
0.0055200000 0.4305425000 0.1080575000
0.2188920000 0.4412800000 0.0509827500
0.6534680000 0.4445455000 0.0067030000
0.8304235000 0.4491497500 0.0163627500
0.8892740000 0.4673845000 0.0315430000
0.0195175000 0.6666505000 0.2060882500
0.1789217500 0.6858155000 0.1597177500
0.6929847500 0.7209405000 0.0565955000
0.9093340000 0.7194455000 0.0584182500
0.9468795000 0.7034635000 0.0687630000
0.0900320000 0.8045880000 0.3817310000
0.2362810000 0.8415800000 0.3705317500
0.6976335000 0.9108180000 0.3285570000
0.9497155000 0.9128195000 0.2379970000
0.9947500000 0.8869530000 0.2047590000
0.0177432500 0.0339085000 0.1893322500
0.2427762500 0.0423205000 0.2321422500
0.4874392500 0.0128142500 0.2056565000
0.6879992500 0.0057172500 0.2103895000
0.8060252500 0.0141940000 0.2265677500
0.0487970000 0.1863812500 0.2077970000
0.2016707500 0.2132190000 0.2156777500
0.4969707500 0.2057522500 0.1829115000
0.7025012500 0.1841440000 0.1683957500
0.8347662500 0.2108280000 0.1972212500
0.0675245000 0.4318905000 0.2765885000
0.1217597500 0.4652482500 0.2126312500
0.6042990000 0.4759852500 0.1521515000
0.7927627500 0.4645767500 0.1669580000
0.8907680000 0.4934982500 0.1998157500
0.0652932500 0.6637567500 0.3374270000
0.1284790000 0.6843752500 0.2718247500
0.6201597500 0.7378220000 0.1445722500
0.8827032500 0.7288365000 0.1349687500
0.9541042500 0.7281030000 0.2099277500
0.1135160000 0.7995550000 0.4519862500
0.2013947500 0.8293705000 0.4253000000
0.6330657500 0.9147450000 0.3890790000
0.9197567500 0.9193580000 0.2652925000
0.9964230000 0.8950400000 0.2346492500
0.0070970000 0.0122230000 0.3366685000
0.2162387500 0.0110400000 0.4073722500
0.5395835000 0.0019715000 0.4820125000
0.7412260000 0.0080830000 0.4917735000
0.8164465000 0.0157710000 0.4865770000
0.0524845000 0.1886502500 0.3852475000
0.1798607500 0.2253872500 0.4138425000
0.5551235000 0.2294055000 0.5019160000
0.7368767500 0.1973275000 0.4708545000
0.8434257500 0.2240587500 0.4728850000
0.1189020000 0.4556955000 0.4895575000
0.1782590000 0.4764677500 0.4923675000
0.5805605000 0.5673290000 0.5367435000
0.7784270000 0.5204907500 0.4850157500
0.8846515000 0.5131820000 0.4691090000
0.1606965000 0.6676665000 0.5656265000
0.1913902500 0.6772357500 0.5470150000
0.5466427500 0.7863542500 0.5180940000
0.8662375000 0.7840597500 0.4733792500
0.9595867500 0.7690065000 0.4810580000
0.1952465000 0.8000860000 0.6357435000
0.2286682500 0.8132727500 0.6225180000
0.5276995000 0.9070675000 0.5902785000
0.8752435000 0.9382415000 0.4629295000
0.9993560000 0.9124100000 0.4214165000
0.0126170000 0.0118290000 0.4691280000
0.1999595000 0.0207002500 0.5286100000
0.5403535000 0.0076887500 0.6749870000
0.7671227500 0.0108425000 0.7187937500
0.8307705000 0.0274032500 0.7227987500
0.0503097500 0.1691142500 0.5226135000
0.1667835000 0.2259792500 0.5584432500
0.5376130000 0.2419655000 0.6915845000
0.7757677500 0.2229945000 0.7342562500
0.8548807500 0.2457697500 0.7292362500
0.1272382500 0.4734172500 0.6441487500
0.1796122500 0.4951265000 0.6552742500
0.5631687500 0.5822290000 0.7225942500
0.8208365000 0.5883262500 0.7808905000
0.9043855000 0.5632932500 0.7483140000
0.1841470000 0.6871967500 0.7211050000
0.2172377500 0.6947255000 0.7196382500
0.5700212500 0.8006547500 0.7806517500
0.8821847500 0.8784512500 0.8191232500
0.9574790000 0.8253227500 0.7550277500
0.2339275000 0.8172520000 0.7757890000
0.2568092500 0.8248217500 0.7721972500
0.5278415000 0.8976432500 0.8050950000
0.8501987500 0.9791670000 0.8076032500
0.9964297500 0.9519452500 0.7252520000
0.0141940000 0.0141940000 0.5111940000
0.1918412500 0.0274030000 0.5790640000
0.5340205000 0.0276000000 0.7486560000
0.7702725000 0.0439932500 0.8127882500
0.8433180000 0.0904630000 0.8343850000
0.0555365000 0.1843397500 0.5912057500
0.1612940000 0.2538325000 0.6337157500
0.5264875000 0.2970407500 0.7595267500
0.7803035000 0.2890677500 0.8465072500
0.8690267500 0.3125545000 0.8675060000
0.1326920000 0.4846620000 0.7157320000
0.1825700000 0.5112080000 0.7316550000
0.5475940000 0.6034145000 0.8034420000
0.8220935000 0.6321440000 0.8966242500
0.9336315000 0.6479470000 0.9260265000
0.1913890000 0.6990197500 0.7994165000
0.2227507500 0.7097742500 0.8058612500
0.5371045000 0.8012957500 0.8660455000
0.8738185000 0.8855980000 0.9327655000
0.9935530000 0.8941957500 0.9618242500
0.2468440000 0.8323030000 0.8576080000
0.2671420000 0.8390187500 0.8598877500
0.5078835000 0.8962675000 0.8958830000
0.8648835000 0.9745312500 0.9484805000
1.0000000000 1.0000000000 0.9520400000
