植人大树自媒体封面制作器/digicamfx/lut/香港印象/Kinetic 05.cube
TITLE "Kinetic 05 by Gamut"
# Version 1.0 - 11/21/2022 - Designed for Rec.709 Color Space. Copyright 2022 Gamut, LLC
LUT_3D_SIZE 33
0.0228690000 0.0291770000 0.0276000000
0.0135538438 0.0284136250 0.0353627813
0.0294731250 0.0307047500 0.0354860000
0.0467563750 0.0329721562 0.0354860000
0.0646201250 0.0353873750 0.0355845000
0.0815970938 0.0377287188 0.0356091250
0.0984632500 0.0400692500 0.0413221250
0.1068264688 0.0414216875 0.0429347812
0.1245855000 0.0475862500 0.0465347500
0.1471287187 0.0529110313 0.0485943437
0.1725533750 0.0562306250 0.0501358125
0.1995409375 0.0594534375 0.0503480000
0.2276502500 0.0617878750 0.0503480000
0.2569907812 0.0631480000 0.0499448437
0.2869650625 0.0639530000 0.0485963125
0.3180671875 0.0639530000 0.0472220000
0.3492905000 0.0636675000 0.0454595000
0.3807474687 0.0616780937 0.0436576562
0.4130431875 0.0593403750 0.0429367500
0.4455862187 0.0560538125 0.0425160000
0.4775013750 0.0529141250 0.0427965000
0.5083281563 0.0491963437 0.0442569688
0.5385846250 0.0459566250 0.0466231875
0.5679792500 0.0437965938 0.0493683438
0.5964400000 0.0430770000 0.0529937500
0.6238150312 0.0423504063 0.0572229375
0.6511107500 0.0416155625 0.0602008125
0.6770557812 0.0409940000 0.0636480937
0.7017941250 0.0417590000 0.0675086250
0.7255925000 0.0418299687 0.0712547188
0.7478180000 0.0433561250 0.0758230625
0.7689890312 0.0454854375 0.0810829063
0.7893530000 0.0475960000 0.0860720000
0.0228690000 0.0268366250 0.0345737812
0.0228690000 0.0268366250 0.0345737812
0.0242735000 0.0253326250 0.0347216562
0.0452276250 0.0275754063 0.0346970000
0.0567610000 0.0357811875 0.0354120312
0.0706183125 0.0426894062 0.0369397188
0.0868326875 0.0443906875 0.0391333125
0.1055963438 0.0472184687 0.0429584375
0.1269482188 0.0510949687 0.0452817500
0.1490611875 0.0543495000 0.0474200000
0.1743451875 0.0574530625 0.0494766250
0.2006786250 0.0600336250 0.0503480000
0.2289813125 0.0619896562 0.0499236250
0.2586942188 0.0631480000 0.0492628750
0.2889523750 0.0642725000 0.0479229687
0.3200312813 0.0645032500 0.0461328438
0.3516010625 0.0642192500 0.0432834063
0.3839846250 0.0628045000 0.0403079687
0.4169158750 0.0607785000 0.0375807187
0.4498444687 0.0587166875 0.0363725938
0.4823064687 0.0562715938 0.0356092187
0.5140443125 0.0539920937 0.0356092187
0.5446067813 0.0526717813 0.0369146250
0.5745776250 0.0523827500 0.0407690625
0.6033548438 0.0529953125 0.0446830313
0.6308377187 0.0542254375 0.0490169687
0.6574622500 0.0561821250 0.0542272188
0.6831627813 0.0585694062 0.0591108750
0.7074073438 0.0615284063 0.0643562812
0.7304484375 0.0643186250 0.0702650937
0.7519951563 0.0676025625 0.0758835625
0.7725715625 0.0712606250 0.0824869688
0.7921457813 0.0757131250 0.0891239375
0.0213412500 0.0313951250 0.0354860000
0.0213659063 0.0412930000 0.0377287500
0.0297688750 0.0390840000 0.0370136875
0.0479412500 0.0412444687 0.0376794688
0.0618206875 0.0420273125 0.0377041250
0.0772218750 0.0450470000 0.0413456250
0.0940335625 0.0479418125 0.0435821250
0.1139198125 0.0517813438 0.0451655313
0.1353039375 0.0544488125 0.0468026875
0.1588835625 0.0574119062 0.0480536875
0.1842481875 0.0599756875 0.0487690625
0.2114829062 0.0623325313 0.0485315312
0.2401226250 0.0640216875 0.0476828125
0.2692866250 0.0653116563 0.0458431250
0.2992902500 0.0669603750 0.0433034375
0.3307643125 0.0682889375 0.0407694063
0.3629505000 0.0695322500 0.0379986250
0.3961169688 0.0705093438 0.0348946563
0.4299794375 0.0712128750 0.0329231250
0.4635171250 0.0718757500 0.0324305625
0.4964181250 0.0727905000 0.0327260625
0.5283808125 0.0731822813 0.0337114062
0.5589471875 0.0741163750 0.0359788125
0.5885663750 0.0750411250 0.0398691562
0.6167581875 0.0764881250 0.0438137500
0.6438245000 0.0781234062 0.0480494687
0.6699656250 0.0804512500 0.0528320625
0.6948686250 0.0828278438 0.0584297187
0.7185163750 0.0858819375 0.0638037500
0.7406826250 0.0889833437 0.0702635000
0.7614898750 0.0927525625 0.0763804375
0.7813698750 0.0968028437 0.0834273125
0.8001526250 0.1017950000 0.0908382500
0.0160667813 0.0568726875 0.0392811562
0.0160667813 0.0571355625 0.0400445313
0.0191970625 0.0549074375 0.0393550312
0.0493982188 0.0548206250 0.0400691563
0.0697355000 0.0531689062 0.0422529062
0.0881089063 0.0565540000 0.0450246250
0.1050024687 0.0595955000 0.0459096875
0.1252213125 0.0624320625 0.0479413437
0.1480768125 0.0657928125 0.0493677812
0.1724326875 0.0688706875 0.0496048750
0.1989843438 0.0715737188 0.0496048750
0.2265985938 0.0746849062 0.0485315312
0.2556247500 0.0774491875 0.0471560000
0.2862161563 0.0805331562 0.0450998438
0.3169070938 0.0828869063 0.0417300000
0.3488580625 0.0857775625 0.0386650937
0.3821275313 0.0886934688 0.0360279375
0.4156040625 0.0911346875 0.0332436563
0.4490156250 0.0933614063 0.0312717812
0.4822539375 0.0951463750 0.0307540000
0.5147433437 0.0970757500 0.0318388750
0.5462620000 0.0986153125 0.0336620937
0.5762359375 0.1001329062 0.0366932500
0.6048215312 0.1016302188 0.0400843125
0.6322949687 0.1031078437 0.0439932500
0.6586504375 0.1046871875 0.0486778750
0.6839066250 0.1068583125 0.0534831250
0.7078824375 0.1090264375 0.0589789687
0.7306929688 0.1115562188 0.0648157500
0.7520674062 0.1146703750 0.0708231563
0.7722325937 0.1180242813 0.0777640000
0.7912603125 0.1222616250 0.0847996250
0.8097173437 0.1272355625 0.0925107813
0.0105467500 0.0745548750 0.0430758750
0.0113357500 0.0726486250 0.0430758750
0.0099558125 0.0716091250 0.0423257500
0.0450225625 0.0730062500 0.0429802500
0.0735503750 0.0685646250 0.0430758750
0.0991970000 0.0723010938 0.0472627187
0.1228509375 0.0762298125 0.0493671250
0.1449278125 0.0791511875 0.0500912500
0.1677542500 0.0823021250 0.0507671250
0.1923561875 0.0855289063 0.0504530000
0.2185254375 0.0885411875 0.0497963125
0.2461021563 0.0914678125 0.0485315312
0.2748506250 0.0943705000 0.0467116250
0.3044976250 0.0967912500 0.0439534375
0.3353456250 0.0993786250 0.0404483750
0.3671877813 0.1027341562 0.0371121875
0.3998108750 0.1057192500 0.0340071250
0.4331936250 0.1091115625 0.0316908125
0.4664868750 0.1116800000 0.0308526250
0.4991960313 0.1142616250 0.0302861250
0.5310147500 0.1165497500 0.0318388750
0.5617658125 0.1185506250 0.0343524688
0.5911733125 0.1207608750 0.0377037500
0.6191623750 0.1224604375 0.0415353125
0.6459442500 0.1243165000 0.0458140000
0.6716923750 0.1263518750 0.0501693125
0.6963500000 0.1285315625 0.0552433125
0.7197334375 0.1309145938 0.0606803125
0.7417618750 0.1335926250 0.0664038750
0.7625172500 0.1367848437 0.0723732187
0.7821378125 0.1404750000 0.0792171875
0.8007625312 0.1448286250 0.0869198438
0.8187895000 0.1500878750 0.0945201250
0.0066785313 0.0916438125 0.0453497188
0.0066785313 0.0911160938 0.0452580938
0.0029081250 0.0902436562 0.0452351875
0.0367654062 0.0926132812 0.0458410000
0.0742625625 0.0898691562 0.0439123750
0.1049252500 0.0904245625 0.0459555313
0.1351549062 0.0944386563 0.0489415938
0.1643603125 0.0987744687 0.0501994687
0.1931023438 0.1028146562 0.0503480000
0.2188630625 0.1058348750 0.0503480000
0.2449971250 0.1081301250 0.0491987500
0.2716981562 0.1108661875 0.0473739375
0.2997402188 0.1133030625 0.0453902188
0.3286134063 0.1159774062 0.0424861875
0.3582436250 0.1183145625 0.0387864687
0.3890583750 0.1213840938 0.0355595000
0.4208763750 0.1245773438 0.0328492813
0.4533933125 0.1277847812 0.0311731563
0.4857597500 0.1309392500 0.0307540000
0.5178592188 0.1339886563 0.0310745313
0.5489731562 0.1365615313 0.0332927500
0.5787291875 0.1390383750 0.0359048125
0.6070964688 0.1413710000 0.0396716562
0.6343531875 0.1436790312 0.0434434062
0.6604880937 0.1458069062 0.0474751562
0.6855849375 0.1479606563 0.0521526562
0.7093664687 0.1502844688 0.0570831875
0.7319313125 0.1530503125 0.0624905938
0.7533761562 0.1558706562 0.0686225938
0.7734490000 0.1593369062 0.0748307187
0.7926560938 0.1633628750 0.0819585625
0.8108716875 0.1680698125 0.0890929375
0.8285072500 0.1732641562 0.0969356875
0.0020206250 0.1096970625 0.0467586875
0.0020206250 0.1099975625 0.0454630000
0.0007890000 0.1089476250 0.0434029375
0.0283638125 0.1150983750 0.0492143125
0.0710678125 0.1160739375 0.0474195625
0.1099795625 0.1124809375 0.0413027500
0.1437673750 0.1159574375 0.0454630000
0.1787161875 0.1198706875 0.0476826562
0.2116782500 0.1239873750 0.0478564375
0.2434751875 0.1276924063 0.0479846875
0.2736066250 0.1307648750 0.0466660625
0.3020298125 0.1331270000 0.0447741250
0.3296930625 0.1349346250 0.0425997500
0.3577051875 0.1369026875 0.0395697813
0.3861931875 0.1393416875 0.0371121250
0.4156750000 0.1422836250 0.0340071562
0.4461386875 0.1454539375 0.0320852500
0.4775488438 0.1490000938 0.0315430000
0.5091195625 0.1523343750 0.0321840625
0.5397498438 0.1554927187 0.0336129062
0.5694555625 0.1583923125 0.0357816875
0.5980181250 0.1611543750 0.0388864062
0.6253196250 0.1638380000 0.0421717500
0.6516598750 0.1663945625 0.0457895313
0.6767733750 0.1689114375 0.0504626250
0.7009874375 0.1713425937 0.0551197187
0.7239025625 0.1740119375 0.0599700000
0.7456775625 0.1768513125 0.0652827187
0.7662671875 0.1800962500 0.0712123750
0.7859047188 0.1838797500 0.0777282188
0.8044265000 0.1880006875 0.0850771250
0.8222440625 0.1929759375 0.0927422812
0.8394635000 0.1982396250 0.1004048750
0.0000000000 0.1346389688 0.0481413125
0.0000000000 0.1345689688 0.0472864687
0.0000000000 0.1342419375 0.0526730625
0.0220064375 0.1400276563 0.0518011563
0.0637482500 0.1415649063 0.0502202187
0.1116380625 0.1419852188 0.0473715625
0.1514734062 0.1403245313 0.0388854062
0.1884091250 0.1437929375 0.0414905625
0.2266598750 0.1477738125 0.0424106562
0.2629520625 0.1511983750 0.0424106562
0.2971953438 0.1545364687 0.0416526563
0.3297515938 0.1571049063 0.0403664063
0.3603688750 0.1597159063 0.0386624375
0.3900524687 0.1614608437 0.0369395000
0.4183876563 0.1630907812 0.0352145625
0.4470323750 0.1653085000 0.0336622188
0.4762102188 0.1684128125 0.0325536250
0.5058395000 0.1719803438 0.0329476250
0.5355178750 0.1755239063 0.0340811563
0.5645402812 0.1789412188 0.0362495625
0.5926297188 0.1821234063 0.0388864062
0.6197970937 0.1851257813 0.0421937500
0.6461424375 0.1881531250 0.0458106250
0.6711453750 0.1909704375 0.0497828125
0.6952206562 0.1936967500 0.0538574062
0.7181685937 0.1964271250 0.0581741875
0.7401124062 0.1993047187 0.0635303437
0.7609628438 0.2025124375 0.0689528750
0.7808239375 0.2060568125 0.0751550937
0.7996800312 0.2100699062 0.0818808125
0.8177213750 0.2146510000 0.0893600312
0.8348817813 0.2195153438 0.0968040625
0.8517805313 0.2248908750 0.1047975625
0.0000000000 0.1622500000 0.0481195000
0.0000000000 0.1630982500 0.0563297500
0.0000000000 0.1622500000 0.0568108750
0.0166095625 0.1680532500 0.0552090312
0.0563452500 0.1700075000 0.0528375000
0.1071368750 0.1708853750 0.0497109688
0.1568485000 0.1704895625 0.0449556875
0.1991813437 0.1705743125 0.0337361250
0.2389022500 0.1740832500 0.0354857500
0.2787142500 0.1774725000 0.0335393750
0.3169621875 0.1805289375 0.0335147500
0.3530241875 0.1831126875 0.0335147500
0.3866693750 0.1854585000 0.0331205000
0.4191011562 0.1875419063 0.0324547812
0.4500900625 0.1896048750 0.0327262500
0.4801737500 0.1916231875 0.0329476250
0.5090307500 0.1939372500 0.0341057500
0.5372035313 0.1971531563 0.0354611250
0.5651072500 0.2006871875 0.0373586875
0.5921935938 0.2041425000 0.0396705313
0.6185061250 0.2075237500 0.0426938750
0.6441339375 0.2107823437 0.0461234062
0.6687917500 0.2139376250 0.0497810625
0.6925192500 0.2169929062 0.0536989062
0.7153965000 0.2199212500 0.0580345000
0.7371601563 0.2229698125 0.0627190313
0.7579585000 0.2262723750 0.0678031875
0.7778692500 0.2297409375 0.0734725313
0.7968010000 0.2335631250 0.0798668750
0.8148518438 0.2378336250 0.0866169375
0.8322125000 0.2424510000 0.0938870000
0.8489528750 0.2474563437 0.1017003125
0.8656112500 0.2527820000 0.1097970000
0.0000000000 0.1936085312 0.0595125000
0.0000000000 0.1936627812 0.0598605000
0.0000000000 0.1929436250 0.0605528438
0.0135286562 0.1982026562 0.0583755938
0.0489098438 0.2007877812 0.0553690938
0.0989534687 0.2018719688 0.0510400625
0.1562101250 0.2022406875 0.0458629375
0.2067123125 0.2023894062 0.0391744063
0.2505719687 0.2039825625 0.0321837813
0.2922774062 0.2064744688 0.0246431250
0.3329902812 0.2090674375 0.0223020625
0.3720671250 0.2113225313 0.0233616250
0.4091751563 0.2136732813 0.0246920938
0.4442875937 0.2155814688 0.0268114375
0.4777131562 0.2176492813 0.0291525000
0.5093862500 0.2198394687 0.0312473125
0.5399144687 0.2224146563 0.0341304062
0.5685547187 0.2251695000 0.0370136875
0.5957071563 0.2282150937 0.0402264687
0.6215395625 0.2315220937 0.0434395312
0.6462760625 0.2348917813 0.0465675313
0.6700943125 0.2381003125 0.0499756250
0.6932395313 0.2414245000 0.0538936562
0.7155390938 0.2446824687 0.0580321875
0.7368736250 0.2479073438 0.0622780312
0.7574737500 0.2513142187 0.0672708125
0.7769674375 0.2548085625 0.0728793750
0.7957544375 0.2584678437 0.0784498437
0.8137962813 0.2624353437 0.0852394687
0.8312051250 0.2667421875 0.0920982812
0.8480212500 0.2714018750 0.0993730625
0.8646318437 0.2763335937 0.1071798125
0.8810963438 0.2815088438 0.1149171250
0.0000000000 0.2253840625 0.0639850625
0.0000000000 0.2256143750 0.0639850625
0.0000000000 0.2251103125 0.0639850625
0.0097091250 0.2301674687 0.0608511562
0.0420848750 0.2335454375 0.0568571250
0.0903689688 0.2351943125 0.0519930313
0.1505639375 0.2355489375 0.0454047500
0.2110165625 0.2360011250 0.0368387187
0.2601992500 0.2361796875 0.0290785625
0.3042336562 0.2378626875 0.0202069687
0.3466748750 0.2398084375 0.0122225625
0.3878740937 0.2418505313 0.0111880000
0.4274001875 0.2439685000 0.0137506250
0.4653682188 0.2458243125 0.0181128125
0.5010528125 0.2478095000 0.0230660625
0.5346274688 0.2497031875 0.0278960313
0.5661710625 0.2522003125 0.0324301250
0.5961417813 0.2551981250 0.0368413125
0.6239669375 0.2584543750 0.0412228125
0.6497060625 0.2615665313 0.0453840000
0.6736274375 0.2644934375 0.0495321875
0.6963465937 0.2676659062 0.0536959063
0.7180920000 0.2709301250 0.0576133750
0.7389583750 0.2742313750 0.0623212500
0.7589816875 0.2776273125 0.0672857500
0.7782697500 0.2810038750 0.0723605000
0.7967231250 0.2845878750 0.0779029375
0.8145347500 0.2883710000 0.0839531875
0.8317595625 0.2923843750 0.0907923750
0.8486362500 0.2966722500 0.0977769063
0.8652975000 0.3011112500 0.1050941875
0.8818346875 0.3059888750 0.1128542187
0.8983551875 0.3107681875 0.1204722500
0.0000000000 0.2586572812 0.0672848125
0.0000000000 0.2586572812 0.0672848125
0.0000000000 0.2585634375 0.0678309375
0.0068998750 0.2637182188 0.0640922500
0.0359786875 0.2676206562 0.0587540313
0.0813637187 0.2697142500 0.0527512187
0.1431607500 0.2705109375 0.0454047500
0.2084819375 0.2702095313 0.0352150000
0.2667595000 0.2704010625 0.0253820938
0.3148811563 0.2709402500 0.0160669688
0.3589827500 0.2724014062 0.0075655000
0.4016455937 0.2741594687 0.0026611875
0.4432074687 0.2760927500 0.0039426875
0.4830720000 0.2779121875 0.0082802188
0.5208300313 0.2796449062 0.0144404062
0.5559901562 0.2814251875 0.0215871250
0.5889571875 0.2837733125 0.0282900313
0.6196922188 0.2867062812 0.0346234062
0.6480556875 0.2897635000 0.0405466563
0.6741955625 0.2929956250 0.0456130625
0.6982437188 0.2960529062 0.0506732500
0.7205831875 0.2990700000 0.0555754375
0.7415889375 0.3021361563 0.0605795312
0.7615749687 0.3053166875 0.0658369062
0.7806966875 0.3086559375 0.0712879375
0.7989736562 0.3120965000 0.0767185000
0.8166671250 0.3155806250 0.0829737813
0.8338032500 0.3193069688 0.0892271875
0.8506500312 0.3231610938 0.0961812187
0.8673061875 0.3272659062 0.1034562500
0.8838939062 0.3316103750 0.1109866250
0.9004469063 0.3361076562 0.1186284063
0.9170345000 0.3407628437 0.1264043438
0.0000000000 0.2924562500 0.0713161250
0.0000000000 0.2925331250 0.0713161250
0.0000000000 0.2925248125 0.0713161250
0.0040908437 0.2980131563 0.0668896875
0.0299656250 0.3026230000 0.0609777500
0.0733841875 0.3053682187 0.0540041875
0.1339316250 0.3062560625 0.0455343125
0.2031075000 0.3060165625 0.0346233750
0.2681307500 0.3056745000 0.0232633750
0.3232467500 0.3059276875 0.0129622500
0.3704062500 0.3066303125 0.0046820625
0.4142904687 0.3079337813 0.0010598750
0.4570326250 0.3094610000 0.0007890000
0.4984605625 0.3112825625 0.0023413438
0.5376521875 0.3129731250 0.0068998750
0.5744004062 0.3148300938 0.0138243438
0.6084550000 0.3169550000 0.0219816250
0.6398451875 0.3194994688 0.0298425625
0.6685009375 0.3222396250 0.0369645625
0.6948686875 0.3251698750 0.0433662500
0.7191891250 0.3281995000 0.0494008750
0.7416980625 0.3313063125 0.0556153750
0.7626255000 0.3343688750 0.0615543125
0.7822752813 0.3374039375 0.0677992500
0.8010295000 0.3406185000 0.0741403750
0.8189983125 0.3439462812 0.0805317812
0.8363429375 0.3473516875 0.0872224375
0.8532736875 0.3508754375 0.0943064375
0.8700632500 0.3545643750 0.1015096250
0.8866422188 0.3584852813 0.1091198750
0.9032055000 0.3626494375 0.1168383750
0.9196727500 0.3669978750 0.1246452500
0.9361541250 0.3715216250 0.1326610000
0.0000000000 0.3267387812 0.0748483750
0.0000000000 0.3268676250 0.0751440625
0.0000000000 0.3271978125 0.0753508438
0.0024644063 0.3331780625 0.0704447500
0.0256782813 0.3380825937 0.0638420313
0.0657290625 0.3414368750 0.0562658125
0.1245542812 0.3429639063 0.0468052500
0.1961531875 0.3430653438 0.0345000938
0.2662419375 0.3425025938 0.0220802500
0.3279897500 0.3421872188 0.0105470312
0.3798215625 0.3422421250 0.0026365938
0.4259838437 0.3430125937 0.0007890000
0.4697238125 0.3442238750 0.0007890000
0.5118992813 0.3457659687 0.0007890000
0.5522171875 0.3474614062 0.0027845938
0.5899544375 0.3492966563 0.0074175937
0.6248444375 0.3512722812 0.0150813125
0.6568326250 0.3534246250 0.0235339687
0.6860057813 0.3557985625 0.0313953750
0.7127842187 0.3584046875 0.0388370313
0.7373423437 0.3611222813 0.0462356250
0.7601559687 0.3639634688 0.0535550625
0.7814111563 0.3669254687 0.0610392187
0.8012797187 0.3698662812 0.0681895312
0.8201093750 0.3729839688 0.0754471875
0.8382253125 0.3761300938 0.0829339062
0.8557204687 0.3793873750 0.0907256250
0.8729040000 0.3827706250 0.0985238750
0.8896990625 0.3863591562 0.1063750000
0.9063083437 0.3901810313 0.1144311562
0.9225608125 0.3942498125 0.1225767500
0.9386481875 0.3986560000 0.1308677187
0.9546167812 0.4030835625 0.1390262187
0.0000000000 0.3617617500 0.0797517500
0.0000000000 0.3619237500 0.0797517500
0.0000000000 0.3626431875 0.0795154375
0.0021441875 0.3687376562 0.0743397813
0.0219818125 0.3741161875 0.0678435000
0.0594638438 0.3780040313 0.0591241250
0.1167074375 0.3801778750 0.0487034375
0.1886123438 0.3808445625 0.0357321250
0.2623593125 0.3804533125 0.0220802500
0.3287814375 0.3798041875 0.0102265000
0.3861333750 0.3794656875 0.0027601875
0.4356709062 0.3794957812 0.0007890000
0.4809850625 0.3802233750 0.0004931250
0.5240255312 0.3814683125 0.0007890000
0.5649682500 0.3830078750 0.0020208125
0.6033673125 0.3847246562 0.0043369687
0.6387703750 0.3864267500 0.0097091250
0.6712619063 0.3882122812 0.0167080312
0.7010756875 0.3901976875 0.0251849375
0.7283289063 0.3923380938 0.0329477188
0.7534896250 0.3946877500 0.0411233750
0.7767504062 0.3971213750 0.0497548750
0.7983903125 0.3997555000 0.0583421875
0.8187274063 0.4024766250 0.0669568750
0.8380685000 0.4053801250 0.0757735000
0.8566885312 0.4083665000 0.0844253750
0.8746499375 0.4115100625 0.0930708125
0.8921773125 0.4148359687 0.1018378750
0.9090815000 0.4183846250 0.1105722500
0.9253852813 0.4222526562 0.1191554062
0.9409925000 0.4264195000 0.1281028125
0.9560209375 0.4308542500 0.1370423125
0.9706900625 0.4354894375 0.1458140625
0.0000000000 0.3971175937 0.0850307812
0.0000000000 0.3973326563 0.0850307812
0.0000000000 0.3980834062 0.0848215312
0.0022181563 0.4044235938 0.0794522500
0.0189750625 0.4103198437 0.0723695000
0.0547440625 0.4149258437 0.0635825312
0.1099735625 0.4176613125 0.0518465938
0.1811750938 0.4189172812 0.0386413750
0.2568601875 0.4188110313 0.0239040312
0.3270766875 0.4181888750 0.0114341250
0.3887761563 0.4175679062 0.0037702500
0.4424587812 0.4172077813 0.0014785000
0.4902862188 0.4173522188 0.0007890000
0.5345089063 0.4181436562 0.0007890000
0.5760257500 0.4193204687 0.0012322500
0.6149501250 0.4206943438 0.0027846250
0.6509717500 0.4221029375 0.0066536875
0.6839849063 0.4235400938 0.0120505000
0.7143936250 0.4250837188 0.0189749687
0.7423009063 0.4267891563 0.0267377500
0.7680714687 0.4286458125 0.0352886875
0.7918732187 0.4306642500 0.0446754688
0.8140452500 0.4328975938 0.0545133438
0.8350138125 0.4353019688 0.0643182500
0.8549625938 0.4378611875 0.0742137188
0.8741982188 0.4405513437 0.0842810000
0.8927906875 0.4435631562 0.0941520000
0.9106336562 0.4467686250 0.1038595625
0.9274459063 0.4503358437 0.1139516875
0.9430617188 0.4543015313 0.1235955000
0.9574099687 0.4587290000 0.1333889062
0.9706415312 0.4634511562 0.1429600000
0.9832865937 0.4683577188 0.1528010625
0.0000000000 0.4322340000 0.0913055000
0.0000000000 0.4324689688 0.0913055000
0.0000000000 0.4334058125 0.0909046875
0.0022181563 0.4399210313 0.0854518438
0.0171515000 0.4461518750 0.0781211250
0.0512537500 0.4513505313 0.0688673750
0.1046161875 0.4547445625 0.0571346875
0.1745121562 0.4565407188 0.0433546562
0.2510102500 0.4570755000 0.0281915000
0.3236590312 0.4566245937 0.0149580000
0.3886307500 0.4559707500 0.0065059375
0.4459792500 0.4553028750 0.0029075938
0.4967783750 0.4550511250 0.0014785000
0.5429594375 0.4553362188 0.0007890000
0.5856748750 0.4560752500 0.0008382500
0.6253010313 0.4569120625 0.0020207813
0.6619500000 0.4579665000 0.0043370000
0.6956398750 0.4590895938 0.0082060938
0.7266231875 0.4602093125 0.0136028750
0.7550610313 0.4615020000 0.0205278438
0.7812435000 0.4628567500 0.0285860000
0.8055788750 0.4644580938 0.0381720000
0.8283688125 0.4661409375 0.0486150625
0.8500422500 0.4681106250 0.0597270625
0.8708000000 0.4702067500 0.0710310000
0.8908010625 0.4725660625 0.0825520000
0.9099333750 0.4752835625 0.0937448750
0.9278296250 0.4784180000 0.1050862813
0.9441341250 0.4820715000 0.1162375000
0.9585285312 0.4862462188 0.1272511562
0.9709590000 0.4908796875 0.1380746875
0.9817562187 0.4958963438 0.1487663750
0.9917160000 0.5011420000 0.1593340000
0.0000000000 0.4667815938 0.0984028750
0.0000000000 0.4670339375 0.0984028750
0.0000000000 0.4680563750 0.0980283438
0.0022181563 0.4746698437 0.0921382812
0.0156976563 0.4812025937 0.0850416563
0.0490329375 0.4864879375 0.0755701250
0.1004470938 0.4904964063 0.0638519062
0.1688944687 0.4930928750 0.0499905312
0.2451720625 0.4942747188 0.0345737813
0.3193505313 0.4943871562 0.0206015625
0.3866542813 0.4938150937 0.0102267812
0.4469008437 0.4931087500 0.0052243125
0.5008171875 0.4926340625 0.0030308750
0.5494529375 0.4924673750 0.0014785000
0.5939021562 0.4927165000 0.0007890000
0.6347069687 0.4931902500 0.0015770000
0.6721213750 0.4938224062 0.0024152812
0.7063911875 0.4945192500 0.0051008438
0.7377511875 0.4953163750 0.0089699062
0.7666331875 0.4962680938 0.0147858750
0.7932150937 0.4971664688 0.0220801875
0.8181009687 0.4982359062 0.0313213437
0.8416308125 0.4994315938 0.0418504062
0.8640436875 0.5007717812 0.0537474687
0.8856882188 0.5023365625 0.0659807500
0.9062681250 0.5042551563 0.0790393750
0.9256609375 0.5066462188 0.0919699062
0.9432379687 0.5096918125 0.1048487813
0.9584670312 0.5133302813 0.1175552500
0.9711641250 0.5176548125 0.1300724688
0.9813263750 0.5224840000 0.1420662813
0.9894791562 0.5277269062 0.1537442500
0.9965845937 0.5331350000 0.1650082187
0.0000000000 0.5003553125 0.1057944375
0.0000000000 0.5006503438 0.1059545625
0.0000000000 0.5017305625 0.1052534375
0.0022181563 0.5081873750 0.0999486875
0.0149334375 0.5147560000 0.0927810625
0.0471126562 0.5203115000 0.0836209375
0.0976058125 0.5247666875 0.0719416875
0.1645974687 0.5280552500 0.0584250312
0.2400215000 0.5298933750 0.0432967500
0.3146745625 0.5305736875 0.0285118437
0.3837004375 0.5303890625 0.0170530625
0.4462884375 0.5298719375 0.0097336563
0.5029537500 0.5293771250 0.0052243125
0.5543598750 0.5290900938 0.0030308750
0.6009687500 0.5290306250 0.0014785000
0.6431730000 0.5290758125 0.0007890000
0.6815091875 0.5293897500 0.0016263125
0.7162639063 0.5297591250 0.0031786563
