植人大树自媒体封面制作器/digicamfx/lut/香港印象/Kinetic 05.cube
TITLE "Kinetic 05 by Gamut"
# Version 1.0 - 11/21/2022 - Designed for Rec.709 Color Space. Copyright 2022 Gamut, LLC
LUT_3D_SIZE 5
0.0228690000 0.0291770000 0.0276000000
0.1245855000 0.0475862500 0.0465347500
0.3492905000 0.0636675000 0.0454595000
0.5964400000 0.0430770000 0.0529937500
0.7893530000 0.0475960000 0.0860720000
0.0000000000 0.1622500000 0.0481195000
0.2389022500 0.1740832500 0.0354857500
0.5090307500 0.1939372500 0.0341057500
0.7153965000 0.2199212500 0.0580345000
0.8656112500 0.2527820000 0.1097970000
0.0000000000 0.4322340000 0.0913055000
0.2510102500 0.4570755000 0.0281915000
0.6619500000 0.4579665000 0.0043370000
0.8708000000 0.4702067500 0.0710310000
0.9917160000 0.5011420000 0.1593340000
0.0000000000 0.6790752500 0.1703382500
0.2316837500 0.7099960000 0.1240977500
0.7123260000 0.7225070000 0.0175455000
0.9552145000 0.7090960000 0.0226720000
1.0000000000 0.7170415000 0.1706030000
0.0015770000 0.8571140000 0.3501750000
0.2774665000 0.8834370000 0.3324490000
0.6797145000 0.9024335000 0.2346250000
0.9599877500 0.8792357500 0.1405935000
1.0000000000 0.8586260000 0.1496710000
0.0252340000 0.0301630000 0.1768270000
0.1833587500 0.0452817500 0.1831885000
0.4091927500 0.0396227500 0.1653205000
0.5962510000 0.0116312500 0.1727417500
0.7757590000 0.0465347500 0.2090090000
0.0000000000 0.1778102500 0.2056015000
0.1891655000 0.2110677500 0.2132890000
0.4778310000 0.2168792500 0.1863212500
0.6906642500 0.2160262500 0.1881217500
0.8459625000 0.2443760000 0.2289080000
0.0000000000 0.4314592500 0.2864507500
0.1368192500 0.4936820000 0.2326405000
0.6277455000 0.4990745000 0.1875170000
0.8280817500 0.4866627500 0.2183722500
0.9710685000 0.5057952500 0.2623250000
0.0000000000 0.6855210000 0.3539400000
0.1289957500 0.7175702500 0.2806505000
0.6403695000 0.7459502500 0.1503402500
0.9196590000 0.7204740000 0.1629570000
1.0000000000 0.7292030000 0.2888907500
0.0000000000 0.8689142500 0.4783050000
0.1828100000 0.8849450000 0.4292147500
0.6081645000 0.9182020000 0.3348045000
0.9181452500 0.8941220000 0.1989045000
1.0000000000 0.8709872500 0.2541185000
0.0161655000 0.0114345000 0.3929820000
0.1966155000 0.0000000000 0.3962912500
0.4997035000 0.0000000000 0.4415350000
0.7404530000 0.0000000000 0.4584155000
0.8421645000 0.0011830000 0.4458060000
0.0000000000 0.2040662500 0.4418420000
0.1688215000 0.2364607500 0.4735385000
0.5603137500 0.2434322500 0.4975480000
0.7519847500 0.2189685000 0.4621292500
0.8649120000 0.2354380000 0.4448392500
0.0019715000 0.4661205000 0.5232435000
0.1402015000 0.5156017500 0.5412927500
0.6040480000 0.5850410000 0.5474040000
0.8003277500 0.5403480000 0.4928725000
0.9394265000 0.5089980000 0.4530605000
0.0752210000 0.6655037500 0.5729927500
0.1404397500 0.7120520000 0.5585985000
0.5677492500 0.7995882500 0.5358942500
0.8815127500 0.7748825000 0.4866062500
0.9981395000 0.7474627500 0.4779237500
0.0501530000 0.8570315000 0.6563320000
0.1145862500 0.8774045000 0.6202582500
0.4987805000 0.9322215000 0.5671780000
0.8503812500 0.9352192500 0.4381022500
0.9999460000 0.8950780000 0.4187520000
0.0335142500 0.0394197500 0.6055392500
0.2281370000 0.0303600000 0.6126760000
0.5190282500 0.0000000000 0.6431145000
0.7747557500 0.0000000000 0.6950922500
0.9168715000 0.0041400000 0.7146260000
0.0082800000 0.2430025000 0.6630555000
0.1898417500 0.2763250000 0.6894175000
0.5676345000 0.2778727500 0.7224727500
0.8089140000 0.2454852500 0.7409457500
0.9563267500 0.2681885000 0.7334287500
0.0001972500 0.5307840000 0.7535235000
0.1270867500 0.5623030000 0.7650555000
0.5755505000 0.5980312500 0.7888550000
0.8496250000 0.5981552500 0.7887567500
0.9817820000 0.5579107500 0.7356262500
0.0358802500 0.7171162500 0.7867290000
0.1329017500 0.7421510000 0.7892275000
0.5547620000 0.8157190000 0.8134282500
0.8620662500 0.8499892500 0.8068012500
0.9922867500 0.7916180000 0.7364540000
0.1528170000 0.8279627500 0.8040090000
0.2089342500 0.8411370000 0.7890700000
0.5184800000 0.9379792500 0.8069687500
0.8201000000 0.9954782500 0.7941470000
0.9997580000 0.9658212500 0.7252972500
0.0586620000 0.1314990000 0.7978680000
0.2655385000 0.1336062500 0.8094385000
0.5606520000 0.1056540000 0.8401000000
0.7890020000 0.0291775000 0.8680897500
0.9381910000 0.0710600000 0.8947370000
0.0285860000 0.3276085000 0.8511550000
0.2260662500 0.3620215000 0.8715105000
0.5821210000 0.3754225000 0.9174860000
0.8238450000 0.3552935000 0.9477557500
0.9788767500 0.3380570000 0.9548947500
0.0130115000 0.5788340000 0.9447530000
0.1618820000 0.6070947500 0.9586627500
0.5685500000 0.6350760000 0.9896235000
0.8476912500 0.6383262500 0.9991275000
1.0000000000 0.6385840000 0.9991815000
0.0045340000 0.7745617500 0.9974867500
0.0967892500 0.7964870000 0.9987917500
0.5121677500 0.8304185000 0.9998525000
0.8378862500 0.8569950000 1.0000000000
1.0000000000 0.8696185000 1.0000000000
0.0118290000 0.8895260000 0.9993290000
0.0847572500 0.8942632500 0.9916635000
0.4454305000 0.9407960000 0.9877600000
0.8126917500 0.9985565000 1.0000000000
1.0000000000 1.0000000000 1.0000000000
