植人大树自媒体封面制作器/digicamfx/lut/香港印象/Kinetic 01.cube
TITLE "Kinetic 01 by Gamut"
# Version 1.0 - 11/21/2022 - Designed for Rec.709 Color Space. Copyright 2022 Gamut, LLC
LUT_3D_SIZE 33
0.0362740000 0.0574390000 0.0656460000
0.0577262188 0.0568200000 0.0628418438
0.0798108750 0.0568200000 0.0605010000
0.1016158750 0.0562545000 0.0576103750
0.1249782500 0.0561960000 0.0550132500
0.1490148750 0.0556661250 0.0513296875
0.1742611875 0.0544148125 0.0472844375
0.1998472187 0.0526322500 0.0430020625
0.2263905000 0.0506825000 0.0370627500
0.2541804062 0.0479866563 0.0308530625
0.2839736875 0.0469294375 0.0241011875
0.3188865625 0.0549340000 0.0166092812
0.3512365000 0.0542950000 0.0072941250
0.3850207500 0.0528767500 0.0029818125
0.4198465625 0.0495813125 0.0069989375
0.4543886563 0.0464628438 0.0038932187
0.4889775000 0.0421290000 0.0019715000
0.5225017187 0.0371615625 0.0015770000
0.5550485000 0.0312968750 0.0015770000
0.5865755938 0.0252101563 0.0015770000
0.6174905000 0.0193202500 0.0023660000
0.6472105000 0.0144409062 0.0026368750
0.6759765000 0.0115824375 0.0031540000
0.7031255312 0.0100293750 0.0041646250
0.7286790000 0.0092657500 0.0049282500
0.7524761250 0.0086740000 0.0055200000
0.7750224375 0.0086740000 0.0064567500
0.7958483125 0.0086740000 0.0080091250
0.8154911250 0.0094630000 0.0104482500
0.8335550312 0.0095368750 0.0144158125
0.8498930000 0.0110893125 0.0191231250
0.8642218750 0.0134306250 0.0244952813
0.8705920000 0.0141940000 0.0268120000
0.0215384062 0.0671463125 0.0587551562
0.0507305938 0.0666144688 0.0557210000
0.0735733125 0.0655382812 0.0563114688
0.0937554687 0.0660595312 0.0532420625
0.1157213437 0.0655025625 0.0498998125
0.1390387812 0.0649405937 0.0458610625
0.1635823437 0.0643755938 0.0422256875
0.1892205312 0.0627845000 0.0370130625
0.2156225312 0.0616393750 0.0322084063
0.2438625938 0.0598628125 0.0261706250
0.2730940937 0.0571982813 0.0271075313
0.3034438125 0.0545482500 0.0233616250
0.3348693437 0.0513025000 0.0189749688
0.3683145313 0.0478678125 0.0130610313
0.4029342500 0.0429398437 0.0081074687
0.4388930000 0.0401484375 0.0050761875
0.4779126875 0.0436040938 0.0023408750
0.5127307812 0.0379500937 0.0015770000
0.5465075625 0.0317401250 0.0015770000
0.5790976875 0.0252101563 0.0015770000
0.6106286875 0.0185559062 0.0018975312
0.6408558438 0.0137011875 0.0023660000
0.6699657812 0.0110646562 0.0031540000
0.6979814063 0.0100293750 0.0039430000
0.7239390625 0.0092657500 0.0049282500
0.7481085000 0.0086740000 0.0055200000
0.7708793750 0.0086740000 0.0063090000
0.7920032812 0.0086740000 0.0072202813
0.8117905313 0.0086986562 0.0097587500
0.8303097500 0.0095368750 0.0136523437
0.8470637500 0.0110400000 0.0183095313
0.8619865000 0.0126416562 0.0229921875
0.8703710312 0.0141940000 0.0268120000
0.0067525625 0.0772996250 0.0525483125
0.0331928437 0.0763771250 0.0485674063
0.0678235625 0.0743726875 0.0471916250
0.0925118438 0.0734370312 0.0478929375
0.1133275625 0.0743410625 0.0464446875
0.1340282500 0.0738650000 0.0422010625
0.1576994375 0.0738013750 0.0383918125
0.1826116875 0.0734338438 0.0344018438
0.2099483125 0.0727725000 0.0314443750
0.2397423750 0.0723680312 0.0349188750
0.2703200625 0.0717948125 0.0313948125
0.3016587813 0.0698864687 0.0267870000
0.3343027500 0.0673865000 0.0208478125
0.3684162187 0.0646562187 0.0151058750
0.4040231250 0.0614248750 0.0092165625
0.4403625625 0.0572812188 0.0054706875
0.4763620000 0.0529111250 0.0027600000
0.5114552187 0.0469255000 0.0015770000
0.5449579375 0.0400358750 0.0015770000
0.5775100000 0.0323065938 0.0015770000
0.6085488125 0.0244955000 0.0018728750
0.6383569688 0.0181124687 0.0023660000
0.6671711250 0.0138987500 0.0031540000
0.6952311563 0.0122968125 0.0034252188
0.7210375625 0.0100047500 0.0047310000
0.7451245625 0.0085016250 0.0055200000
0.7677207500 0.0077873125 0.0057172500
0.7888216563 0.0071463125 0.0072202813
0.8089231875 0.0071955625 0.0096601250
0.8272584375 0.0079352500 0.0135538438
0.8440681250 0.0080830625 0.0175953750
0.8594460313 0.0095615625 0.0229429062
0.8690095625 0.0103988750 0.0268120000
0.0111139687 0.0898386250 0.0457284062
0.0161406875 0.0856415937 0.0421055937
0.0507070000 0.0855381250 0.0464344375
0.0869400312 0.0838223438 0.0397885312
0.1148684375 0.0837177500 0.0412520000
0.1380201562 0.0841620937 0.0397676563
0.1608078438 0.0849683750 0.0372848125
0.1859706250 0.0866645312 0.0346970000
0.2140088438 0.0871205938 0.0404579375
0.2435392813 0.0875639687 0.0374326563
0.2742891562 0.0872168437 0.0329971875
0.3066918125 0.0867407188 0.0278222187
0.3406869375 0.0862162188 0.0224007813
0.3755528750 0.0844205312 0.0154757187
0.4117746562 0.0827497500 0.0099803437
0.4484175625 0.0806044375 0.0057661875
0.4845599375 0.0777070313 0.0027600000
0.5196879688 0.0737340938 0.0015770000
0.5534531875 0.0685586250 0.0015770000
0.5857431250 0.0629944062 0.0015770000
0.6168040000 0.0571683750 0.0023660000
0.6463820000 0.0511175000 0.0023660000
0.6748697187 0.0466957500 0.0031540000
0.7017293125 0.0427167500 0.0034498750
0.7270719063 0.0397504062 0.0042138750
0.7509187500 0.0369151250 0.0049775625
0.7730967813 0.0352148125 0.0063090000
0.7939980625 0.0332184687 0.0072202813
0.8135335625 0.0323317500 0.0096601250
0.8317497500 0.0317154375 0.0128388125
0.8483339375 0.0324796250 0.0174968125
0.8632908438 0.0339581250 0.0229182812
0.8739578750 0.0347215000 0.0268120000
0.0081816250 0.1042738750 0.0507258750
0.0010103437 0.0994487812 0.0499518125
0.0322326250 0.0993704375 0.0501344375
0.0741373438 0.0985762187 0.0488768125
0.1108372500 0.0977493750 0.0475080000
0.1438740938 0.0988413750 0.0459043125
0.1723252500 0.0999259375 0.0445565000
0.1996922188 0.1017659375 0.0426270625
0.2275526250 0.1032655000 0.0411852500
0.2568821250 0.1047101250 0.0376298125
0.2873551250 0.1055593125 0.0333176250
0.3190560937 0.1059526250 0.0278961875
0.3523023750 0.1055785000 0.0217843750
0.3866986875 0.1048807500 0.0154757187
0.4224286875 0.1041360000 0.0100543125
0.4589917813 0.1034638437 0.0058400625
0.4950645000 0.1018976250 0.0034498750
0.5300755937 0.1000718438 0.0019961563
0.5637448750 0.0970880000 0.0015770000
0.5958313750 0.0933770625 0.0018975313
0.6266423750 0.0891426250 0.0023660000
0.6559951875 0.0849859062 0.0023660000
0.6841122500 0.0810930625 0.0031540000
0.7105688750 0.0777805937 0.0038443750
0.7355782500 0.0745475000 0.0041400000
0.7589964688 0.0717674062 0.0049035937
0.7808905000 0.0693246250 0.0062103750
0.8014182812 0.0677127187 0.0073434062
0.8204262500 0.0666947500 0.0096601250
0.8380499375 0.0667450000 0.0134552188
0.8541948750 0.0682428125 0.0174968125
0.8689964688 0.0702986250 0.0221539375
0.8807167500 0.0726387500 0.0268120000
0.0049775625 0.1218926562 0.0546321250
0.0050760625 0.1186678750 0.0539906250
0.0181123437 0.1165803750 0.0533439687
0.0594172500 0.1168076250 0.0520976562
0.1047718750 0.1167503125 0.0508724063
0.1453680000 0.1180156250 0.0495621250
0.1825688750 0.1192710938 0.0475078125
0.2163516875 0.1203354063 0.0442106563
0.2475733437 0.1219100938 0.0406025000
0.2767928125 0.1235448750 0.0369394375
0.3062844688 0.1245434375 0.0318630625
0.3368006562 0.1252225625 0.0264416563
0.3686518438 0.1255996875 0.0202320312
0.4020086250 0.1258106562 0.0144900625
0.4367207813 0.1259334375 0.0092658750
0.4724642500 0.1262847188 0.0054706875
0.5081516875 0.1262311250 0.0035485000
0.5427724687 0.1256599063 0.0019961563
0.5759819063 0.1244655625 0.0019221875
0.6078205313 0.1226302813 0.0023660000
0.6380952187 0.1201240000 0.0023660000
0.6670545313 0.1174209688 0.0030308750
0.6945212813 0.1144298438 0.0034005625
0.7206576875 0.1116930313 0.0039430000
0.7451491250 0.1091179375 0.0047310000
0.7681582500 0.1066526875 0.0055200000
0.7895964062 0.1045154375 0.0064567500
0.8096743438 0.1028265000 0.0080091250
0.8282366875 0.1024309375 0.0103251250
0.8452004687 0.1032357812 0.0135538437
0.8608771563 0.1053880937 0.0174968125
0.8753600625 0.1088373125 0.0214890312
0.8875020625 0.1118971875 0.0260230000
0.0026616875 0.1428630000 0.0583166250
0.0033019375 0.1405885313 0.0577048125
0.0086247500 0.1380637500 0.0570881875
0.0465978437 0.1391504375 0.0558395625
0.0954238750 0.1391986250 0.0540525625
0.1430524687 0.1394951250 0.0521812500
0.1868855625 0.1407771875 0.0489850000
0.2273824688 0.1419394688 0.0450758750
0.2644377500 0.1428848125 0.0400115000
0.2978170938 0.1439009375 0.0349440000
0.3290099375 0.1448497500 0.0294239375
0.3594854063 0.1458771250 0.0241255938
0.3903570625 0.1464575000 0.0180386250
0.4222938125 0.1474232500 0.0124692500
0.4557155625 0.1483119375 0.0082798750
0.4900979062 0.1493275312 0.0052487812
0.5244906250 0.1505353750 0.0033019375
0.5583258125 0.1510850938 0.0023660000
0.5907147500 0.1513319375 0.0023660000
0.6215384063 0.1508549688 0.0023660000
0.6513419375 0.1498605000 0.0026615000
0.6797284375 0.1483924375 0.0031540000
0.7065943750 0.1464644375 0.0037950625
0.7319954375 0.1446529375 0.0041646250
0.7559590625 0.1426815000 0.0049282500
0.7784964688 0.1408598438 0.0056925938
0.7994256875 0.1393915625 0.0064567500
0.8187320625 0.1384049375 0.0081324062
0.8365879375 0.1386431250 0.0109906875
0.8530067812 0.1400199688 0.0135538438
0.8683644375 0.1432250000 0.0174475625
0.8823224375 0.1471355000 0.0213412813
0.8945121875 0.1509277500 0.0252340000
0.0007890000 0.1682826562 0.0622936875
0.0009367500 0.1655830000 0.0617295937
0.0013310625 0.1627637500 0.0612547188
0.0349176875 0.1643367813 0.0595280625
0.0820573437 0.1643611563 0.0567026250
0.1358090937 0.1641192500 0.0542141875
0.1863478750 0.1645954688 0.0505776562
0.2323933125 0.1655350938 0.0459295938
0.2753358750 0.1665345938 0.0402007500
0.3144075625 0.1670523125 0.0333914375
0.3498709063 0.1675684375 0.0265649062
0.3831770000 0.1682636875 0.0203551562
0.4149095313 0.1688115937 0.0148104375
0.4467471875 0.1700158438 0.0099801563
0.4790280937 0.1716419063 0.0063825313
0.5119100000 0.1735190625 0.0040658125
0.5448388750 0.1754240625 0.0027600000
0.5770965313 0.1769972812 0.0023660000
0.6081747500 0.1781155000 0.0023660000
0.6379870000 0.1787972812 0.0026861250
0.6666855000 0.1788268125 0.0031540000
0.6941022187 0.1784267187 0.0037704063
0.7202474375 0.1775931875 0.0041892500
0.7449826250 0.1766061562 0.0047310000
0.7682383437 0.1756130313 0.0053474062
0.7898850313 0.1746668125 0.0061364063
0.8101654375 0.1739728125 0.0072449375
0.8287248125 0.1739531875 0.0089204062
0.8458748437 0.1750037188 0.0112371250
0.8615939375 0.1771827500 0.0141694687
0.8762698125 0.1805617187 0.0174475625
0.8897837187 0.1848875312 0.0207495313
0.9016006250 0.1889490000 0.0244460000
0.0000000000 0.1963025000 0.0661972500
0.0000000000 0.1935788438 0.0657817500
0.0007890000 0.1895275625 0.0651156875
0.0261711250 0.1915143750 0.0634845313
0.0685457500 0.1921032500 0.0602387500
0.1243043437 0.1913841562 0.0567993437
0.1815161250 0.1913225625 0.0518911250
0.2335535938 0.1916169375 0.0460822813
0.2815420000 0.1922665000 0.0390180000
0.3255501875 0.1927300000 0.0312719688
0.3662566875 0.1931372500 0.0242488750
0.4036074063 0.1933225000 0.0172497812
0.4386586250 0.1938758750 0.0118283750
0.4721464063 0.1949862500 0.0079349062
0.5045490000 0.1966242500 0.0048301875
0.5366287500 0.1988285625 0.0033512500
0.5682685000 0.2013327500 0.0023660000
0.5988940625 0.2036146562 0.0023660000
0.6283729375 0.2054501875 0.0027107500
0.6569255625 0.2068766250 0.0031540000
0.6843708750 0.2078208750 0.0034498750
0.7106620938 0.2082731562 0.0039430000
0.7357098750 0.2083725000 0.0045340000
0.7594167500 0.2082727500 0.0049529062
0.7817390000 0.2080305000 0.0057172500
0.8025747500 0.2080620313 0.0064813750
0.8217662500 0.2083148750 0.0078365000
0.8395086563 0.2091960937 0.0095861250
0.8558277500 0.2109492500 0.0118288750
0.8708476875 0.2137667813 0.0143418437
0.8847720625 0.2175538750 0.0174475625
0.8975175000 0.2219366563 0.0211440313
0.9089087500 0.2260997500 0.0244460000
0.0000000000 0.2254085938 0.0704620625
0.0000000000 0.2230175313 0.0700832812
0.0007396875 0.2184212500 0.0700495312
0.0184823750 0.2205761562 0.0669939375
0.0553285625 0.2216997500 0.0636833125
0.1096906875 0.2215073437 0.0593022812
0.1724335313 0.2204351875 0.0538881875
0.2313764375 0.2202352813 0.0462334375
0.2842982187 0.2206343750 0.0382616562
0.3329394062 0.2211553750 0.0297195938
0.3780860625 0.2213303125 0.0213897188
0.4199582188 0.2214952188 0.0149337187
0.4588832188 0.2217714687 0.0097831563
0.4951666562 0.2225603125 0.0061606563
0.5293997188 0.2240447188 0.0038439375
0.5619310625 0.2262860313 0.0027353750
0.5929751562 0.2288795625 0.0023660000
0.6226587500 0.2314716250 0.0027353750
0.6508704687 0.2337473125 0.0031540000
0.6779870625 0.2355672187 0.0034745313
0.7040079688 0.2370633437 0.0039430000
0.7290031563 0.2382412188 0.0045093750
0.7528091563 0.2391552500 0.0049775625
0.7754038125 0.2398024687 0.0057419062
0.7964272500 0.2404885625 0.0065060000
0.8161154063 0.2413210312 0.0072695938
0.8342346562 0.2424572500 0.0086003125
0.8509770938 0.2442063125 0.0104975625
0.8663753438 0.2467163750 0.0125925000
0.8805647813 0.2499581250 0.0156973125
0.8936529063 0.2538660313 0.0182848750
0.9054424375 0.2581660625 0.0219076563
0.9161450000 0.2622397188 0.0244460000
0.0000000000 0.2567813750 0.0745333125
0.0000000000 0.2543951250 0.0740419687
0.0000000000 0.2510821875 0.0738963750
0.0124197812 0.2512514375 0.0711215625
0.0440418750 0.2531116250 0.0670623125
0.0942370312 0.2534269062 0.0617305000
0.1593237500 0.2523361250 0.0553238125
0.2254528125 0.2515750313 0.0470925312
0.2841959375 0.2512350000 0.0375033125
0.3372426562 0.2514931563 0.0283891250
0.3861609375 0.2517393125 0.0196157500
0.4321701250 0.2520889375 0.0131594375
0.4749932500 0.2522450000 0.0079842500
0.5147623125 0.2529594687 0.0052980937
0.5514136250 0.2542438750 0.0034991875
0.5854373750 0.2562082500 0.0027353750
0.6169875625 0.2586051250 0.0027600000
0.6462870938 0.2609329687 0.0031540000
0.6737859375 0.2632571250 0.0034991875
0.6999086875 0.2653613125 0.0039430000
0.7248068125 0.2671727500 0.0042385000
0.7485640000 0.2687448125 0.0050022187
0.7710319375 0.2702123750 0.0055200000
0.7922440937 0.2715346562 0.0060624375
0.8119677500 0.2728938125 0.0068507500
0.8303596875 0.2744124375 0.0080583750
0.8473715000 0.2764366250 0.0093641875
0.8630283125 0.2788961250 0.0117055625
0.8775091875 0.2819264375 0.0141448750
0.8908518750 0.2855693750 0.0164612813
0.9028097500 0.2896159375 0.0195663750
0.9135978750 0.2936402500 0.0226717188
0.9234560000 0.2976353750 0.0257764375
0.0000000000 0.2892958438 0.0787477188
0.0000000000 0.2866758437 0.0782786562
0.0000000000 0.2832992187 0.0782632500
0.0084029062 0.2828536875 0.0756647500
0.0350422813 0.2856967188 0.0706604375
0.0794312188 0.2867106875 0.0649402188
0.1439327188 0.2859796250 0.0572940000
0.2156015625 0.2848831250 0.0484026875
0.2811909375 0.2841708750 0.0376452500
0.3391448125 0.2840065312 0.0273535938
0.3919697813 0.2841881250 0.0185811875
0.4414198750 0.2846617812 0.0116064062
0.4878364375 0.2850803125 0.0071712500
0.5307308125 0.2857982813 0.0045836563
0.5700275625 0.2869208750 0.0034252188
0.6058681250 0.2886332188 0.0031540000
0.6384463750 0.2905316250 0.0031540000
0.6681728750 0.2925423750 0.0031540000
0.6957581875 0.2945013750 0.0036717813
0.7213783750 0.2964806875 0.0042631250
0.7455212500 0.2983094375 0.0047310000
0.7682275938 0.3001394063 0.0052487812
0.7895230000 0.3019059063 0.0060377812
0.8093728750 0.3036520938 0.0068261250
0.8279053750 0.3055964063 0.0078117813
0.8449738750 0.3077724687 0.0093641563
0.8608799062 0.3102510937 0.0109167187
0.8755668750 0.3133704687 0.0125925313
0.8891283438 0.3168425938 0.0155987500
0.9014184063 0.3207466875 0.0180139688
0.9122546562 0.3246755937 0.0211193437
0.9218276563 0.3285884062 0.0237062812
0.9306071563 0.3323365000 0.0265407812
0.0000000000 0.3230446250 0.0833943750
0.0000000000 0.3206330625 0.0833943750
0.0000000000 0.3169881250 0.0829322500
0.0055200000 0.3160121563 0.0806760625
0.0278960000 0.3194150000 0.0750982500
0.0663903437 0.3211878437 0.0682870937
0.1277471250 0.3213028125 0.0601927500
0.2027072500 0.3201635625 0.0498977188
0.2751148750 0.3190865000 0.0383276250
0.3387437188 0.3186270000 0.0273535938
0.3956539375 0.3185895000 0.0177921875
0.4483644375 0.3190453750 0.0113355312
0.4977102500 0.3197090000 0.0069003750
0.5434129688 0.3205194687 0.0042631250
0.5851466875 0.3217233750 0.0034991875
0.6228188437 0.3230619062 0.0031540000
0.6567493750 0.3245365000 0.0031540000
0.6874423437 0.3260131563 0.0036471250
0.7154233750 0.3276401875 0.0039430000
0.7411644688 0.3291632188 0.0047310000
0.7649962500 0.3308746250 0.0052241250
0.7870820938 0.3326353125 0.0057912188
0.8074791875 0.3344115000 0.0065552500
0.8262918437 0.3364507187 0.0075901250
0.8436346250 0.3386315000 0.0085757500
0.8597513125 0.3412345000 0.0101280937
0.8746101250 0.3442170625 0.0121246875
0.8884345000 0.3477140938 0.0141449062
0.9009678750 0.3515136250 0.0172502500
0.9121462812 0.3554269063 0.0195664375
0.9218205625 0.3593218750 0.0226223750
0.9300897812 0.3629345000 0.0249878125
0.9375863750 0.3663975000 0.0276000000
0.0000000000 0.3581695938 0.0887860313
0.0000000000 0.3555361875 0.0885295312
0.0000000000 0.3520052500 0.0880904687
0.0031788438 0.3503568437 0.0863836250
0.0223512813 0.3541549687 0.0802600000
0.0560664688 0.3568234063 0.0731603437
0.1127659375 0.3578102813 0.0638693750
0.1882520938 0.3571659375 0.0524216875
0.2661011562 0.3560432813 0.0398581250
0.3358253438 0.3552965312 0.0280439688
0.3974236875 0.3550985313 0.0185072187
0.4533954375 0.3553025625 0.0118040000
0.5054497500 0.3560162188 0.0073682500
0.5535376563 0.3570639687 0.0050515312
0.5972945625 0.3581484375 0.0039430000
0.6367333125 0.3592708750 0.0031540000
0.6720129688 0.3602896875 0.0035485000
0.7039636563 0.3613052812 0.0039430000
0.7328178437 0.3623998750 0.0042877500
0.7589900938 0.3635449375 0.0050515312
0.7829335625 0.3648181875 0.0058158750
0.8047114063 0.3663305937 0.0065798750
0.8244858438 0.3679551875 0.0073435625
0.8425878750 0.3699585625 0.0083538750
0.8591170313 0.3722781875 0.0096600000
0.8743299375 0.3751152500 0.0116808437
0.8883525937 0.3783392188 0.0133811563
0.9012085625 0.3820333438 0.0156974375
0.9127732500 0.3859379688 0.0188025937
0.9228985000 0.3899002812 0.0211193125
0.9312644375 0.3935422500 0.0241747187
0.9382260937 0.3968094375 0.0265160938
0.9443130625 0.3997789687 0.0283890000
0.0000000000 0.3939310000 0.0952807500
0.0000000000 0.3912901875 0.0948695000
0.0000000000 0.3882453750 0.0940680625
0.0022181563 0.3859950000 0.0924861250
0.0185810000 0.3898128750 0.0862821250
0.0484495625 0.3932876563 0.0787705938
0.0999369375 0.3951111875 0.0687478750
0.1736690312 0.3954444375 0.0565729062
0.2552703750 0.3947023750 0.0431789375
0.3306167812 0.3938924062 0.0302614688
0.3969807500 0.3936286250 0.0200595625
0.4566236250 0.3936775625 0.0130112500
0.5112098125 0.3941816250 0.0081321875
0.5612729687 0.3949679688 0.0058158750
0.6068392500 0.3958746875 0.0042877500
0.6479743438 0.3966492812 0.0039430000
0.6849145000 0.3972913750 0.0039430000
0.7181499375 0.3978815625 0.0039430000
0.7481094375 0.3984778125 0.0047310000
0.7750663750 0.3991216562 0.0055200000
0.7992825000 0.3999387500 0.0059638125
0.8210035937 0.4010350937 0.0067522500
0.8405147500 0.4024482500 0.0081322500
0.8580698750 0.4042825313 0.0093394375
0.8739558125 0.4065691875 0.0108920625
0.8884669375 0.4093941250 0.0126172187
0.9017377500 0.4127063125 0.0149335000
0.9137656875 0.4164489062 0.0175703438
0.9243032500 0.4203305000 0.0203549375
0.9333106875 0.4240611875 0.0226716563
0.9404582500 0.4273316250 0.0253326250
0.9460550937 0.4301151875 0.0272799062
0.9507778750 0.4325671875 0.0288322500
0.0000000000 0.4299394375 0.1023564375
0.0000000000 0.4274951875 0.1017684688
0.0000000000 0.4243681250 0.1012199688
0.0022181563 0.4216626250 0.0997025313
0.0161163437 0.4258476250 0.0935941250
0.0427135938 0.4300353125 0.0854523437
0.0898800312 0.4329339688 0.0753015938
0.1605356250 0.4342322188 0.0626641250
0.2435500625 0.4342959375 0.0485293750
0.3234054375 0.4338920312 0.0345743438
0.3942889063 0.4334798438 0.0234849375
0.4574980625 0.4333880000 0.0153279688
0.5148147187 0.4336100000 0.0103990312
0.5670489375 0.4340725000 0.0070477500
0.6144481563 0.4345371563 0.0054953437
0.6574082500 0.4349144687 0.0043616250
0.6960538438 0.4351851250 0.0039430000
0.7307821875 0.4353726250 0.0043616250
0.7618797812 0.4354913437 0.0050761875
0.7896314063 0.4356826563 0.0058405313
0.8142033750 0.4360421250 0.0066045000
0.8360157188 0.4367739063 0.0075161562
0.8552895000 0.4378430000 0.0089205625
0.8725110625 0.4394401250 0.0101035312
0.8878982500 0.4415352812 0.0122232500
0.9018854063 0.4442514062 0.0141695938
0.9144912188 0.4474629063 0.0164858437
0.9257455625 0.4510410938 0.0194679062
0.9353712500 0.4546361250 0.0219077500
0.9432030625 0.4579205625 0.0242240000
0.9490987187 0.4607525000 0.0264914062
0.9534805312 0.4629319687 0.0280437813
0.9570601562 0.4648925313 0.0291770000
0.0000000000 0.4658765000 0.1102360000
0.0000000000 0.4634232500 0.1097030000
0.0000000000 0.4604510625 0.1089901250
0.0022181563 0.4573724375 0.1079404375
0.0142927500 0.4615390000 0.1017033750
0.0386525312 0.4665464687 0.0934981563
0.0822063750 0.4703188750 0.0834313750
0.1494130625 0.4727717500 0.0704158438
0.2321442500 0.4739085000 0.0555222500
0.3147794688 0.4739972500 0.0409809375
0.3894616250 0.4738088125 0.0290784375
0.4560320625 0.4735765937 0.0198869062
0.5162112500 0.4735261250 0.0135043750
0.5709510313 0.4736015937 0.0093151562
0.6206103125 0.4737375625 0.0066044375
0.6656007188 0.4737710000 0.0054953437
0.7060300000 0.4736335000 0.0047310000
0.7421449687 0.4733954375 0.0047310000
0.7742838750 0.4731511250 0.0051255000
0.8026511563 0.4729744688 0.0059145000
0.8275968750 0.4729335000 0.0073928750
0.8494571875 0.4732788750 0.0081568750
0.8686958750 0.4739850625 0.0097092500
0.8856574688 0.4752484375 0.0114835312
0.9008037500 0.4771025000 0.0134057500
0.9143233750 0.4795526250 0.0157221875
0.9263781875 0.4824720000 0.0182852500
0.9369284063 0.4856864687 0.0211439063
0.9456375000 0.4888165000 0.0234601250
0.9523773750 0.4915848125 0.0257024687
0.9572390000 0.4937602500 0.0276493125
0.9605287813 0.4954003750 0.0287830000
0.9629520000 0.4966505000 0.0299660000
0.0000000000 0.5013912500 0.1189197500
0.0000000000 0.4990234375 0.1184301563
0.0003698438 0.4961291875 0.1177773125
0.0022181563 0.4928550312 0.1167701875
0.0132083750 0.4968987812 0.1110575000
0.0364718125 0.5022889375 0.1029247500
0.0771265312 0.5068057812 0.0926647812
0.1403904687 0.5102326562 0.0799058437
0.2214013125 0.5122505625 0.0648755625
0.3053570000 0.5131709375 0.0498731875
0.3828773750 0.5133320000 0.0365209062
0.4526463438 0.5132505625 0.0259737187
0.5158533125 0.5131347500 0.0180631875
0.5735095937 0.5130420937 0.0124198750
0.6257120625 0.5129143750 0.0086001250
0.6727715312 0.5126922812 0.0062596875
0.7148468437 0.5122887188 0.0055200000
0.7521172813 0.5117610938 0.0051008438
0.7851145625 0.5111724062 0.0058651875
0.8140921875 0.5106932187 0.0066291250
0.8393916875 0.5103426875 0.0074668438
0.8613868750 0.5102880312 0.0089452187
0.8805849375 0.5106619375 0.0108674062
0.8974757500 0.5115797813 0.0124202812
0.9124209375 0.5130357813 0.0149580938
0.9256831562 0.5151064687 0.0172748125
0.9373387187 0.5176625000 0.0203795312
0.9472176875 0.5203411250 0.0229425000
0.9550530000 0.5228473438 0.0257024687
0.9608466875 0.5248673437 0.0272553438
0.9646791875 0.5263823125 0.0288076875
0.9670521875 0.5273574687 0.0295714687
0.9687496875 0.5281043750 0.0303353750
0.0007890000 0.5363913125 0.1284054375
0.0007890000 0.5340190625 0.1277924062
0.0007890000 0.5312626875 0.1270416250
0.0022181563 0.5289564375 0.1256835937
0.0125188750 0.5315901250 0.1208061875
0.0346231250 0.5370585313 0.1130465937
0.0733218750 0.5421858125 0.1032778750
0.1338431875 0.5462514375 0.0906869688
0.2124204375 0.5491286875 0.0761156250
0.2962586563 0.5507655938 0.0604235000
0.3755505000 0.5515280625 0.0460468750
0.4481101875 0.5518104062 0.0339333125
0.5145790000 0.5519163125 0.0241501250
0.5751410313 0.5519202187 0.0165108437
0.6298663125 0.5517170000 0.0116317500
0.6787955938 0.5512927812 0.0081814063
0.7222568750 0.5507266875 0.0066537500
0.7607103438 0.5499302500 0.0058651875
