植人大树自媒体封面制作器/digicamfx/lut/香港印象/Kinetic 02.cube
TITLE "Kinetic 02 by Gamut"
# Version 1.0 - 11/21/2022 - Designed for Rec.709 Color Space. Copyright 2022 Gamut, LLC
LUT_3D_SIZE 5
0.0149830000 0.0323320000 0.0432640000
0.1961427500 0.0498345000 0.0293742500
0.4658430000 0.0428820000 0.0019715000
0.7148172500 0.0069000000 0.0025630000
0.8687850000 0.0102510000 0.0228690000
0.0001972500 0.1828145000 0.0646592500
0.2582257500 0.1786097500 0.0417467500
0.5450732500 0.1858702500 0.0011830000
0.7648732500 0.1899262500 0.0025630000
0.9042807500 0.2031992500 0.0189260000
0.0000000000 0.4447100000 0.1073225000
0.1939385000 0.4488637500 0.0586212500
0.6868230000 0.4459895000 0.0015770000
0.8921035000 0.4435580000 0.0072942500
0.9627545000 0.4639930000 0.0236570000
0.0041400000 0.6981602500 0.1985565000
0.1356090000 0.7076630000 0.1650565000
0.7147195000 0.7297555000 0.0331202500
0.9579022500 0.7152375000 0.0291772500
0.9996845000 0.6992982500 0.0445215000
0.0370630000 0.8649290000 0.3768040000
0.1724755000 0.8781612500 0.3758885000
0.6755145000 0.9074245000 0.3045450000
0.9618770000 0.8977455000 0.1967577500
1.0000000000 0.8731970000 0.1721670000
0.0049282500 0.0173485000 0.2112720000
0.2260205000 0.0477705000 0.2089945000
0.4974445000 0.0169542500 0.1857140000
0.7302495000 0.0007890000 0.1884980000
0.8730847500 0.0070970000 0.2053490000
0.0000000000 0.1983062500 0.2143260000
0.1943635000 0.2113822500 0.1996870000
0.5104332500 0.2036112500 0.1625245000
0.7451655000 0.1777097500 0.1416460000
0.8972490000 0.1963220000 0.1660477500
0.0000000000 0.4638660000 0.2447965000
0.0982425000 0.4757917500 0.1894442500
0.6398300000 0.4732235000 0.1118062500
0.8504295000 0.4594250000 0.1323792500
0.9618077500 0.4893320000 0.1643347500
0.0039430000 0.7086375000 0.2957515000
0.0825422500 0.7135590000 0.2446407500
0.6407235000 0.7481692500 0.0933625000
0.9295455000 0.7241365000 0.0726642500
0.9998455000 0.7186710000 0.1598855000
0.0258255000 0.8685267500 0.4207730000
0.1284227500 0.8769340000 0.4049612500
0.6179727500 0.9178117500 0.3611140000
0.9317070000 0.9050557500 0.2168527500
1.0000000000 0.8804280000 0.1880150000
0.0000000000 0.0000000000 0.4286255000
0.2248340000 0.0003945000 0.4424087500
0.5582955000 0.0000000000 0.4648810000
0.7878220000 0.0015770000 0.4694712500
0.8836430000 0.0086740000 0.4647750000
0.0000000000 0.1982167500 0.4645140000
0.1506120000 0.2240410000 0.4759347500
0.5754030000 0.2270377500 0.4810070000
0.7771585000 0.1854225000 0.4390347500
0.9087492500 0.2097830000 0.4434927500
0.0003945000 0.4994255000 0.5230250000
0.0633497500 0.5130407500 0.5109672500
0.6089020000 0.5676620000 0.5085685000
0.8236787500 0.5137767500 0.4456557500
0.9488250000 0.5038215000 0.4282975000
0.0047310000 0.7402595000 0.5581900000
0.0415147500 0.7392007500 0.5279002500
0.5259340000 0.7984915000 0.4701507500
0.8965067500 0.7616605000 0.4002742500
0.9969350000 0.7521707500 0.4306292500
0.0149830000 0.8879895000 0.6223650000
0.0527005000 0.8909417500 0.6026352500
0.4868675000 0.9226020000 0.5554520000
0.8826855000 0.9205635000 0.3895400000
1.0000000000 0.8929475000 0.3662845000
0.0000000000 0.0000000000 0.6276962500
0.2182100000 0.0000000000 0.6450242500
0.5727010000 0.0000000000 0.6834220000
0.8210967500 0.0033512500 0.7104137500
0.8985115000 0.0153772500 0.7119480000
0.0000000000 0.1690610000 0.6695770000
0.1287335000 0.2196515000 0.6882322500
0.5759752500 0.2291532500 0.7173335000
0.8306265000 0.2046352500 0.7229212500
0.9234527500 0.2304120000 0.7112122500
0.0011830000 0.5161142500 0.7507572500
0.0532172500 0.5321282500 0.7537225000
0.5654637500 0.5873642500 0.7686882500
0.8674460000 0.5809182500 0.7614650000
0.9625502500 0.5435732500 0.7150647500
0.0057172500 0.7629505000 0.7881852500
0.0378517500 0.7633045000 0.7778432500
0.4584800000 0.8256490000 0.7736787500
0.8833680000 0.8502000000 0.7720067500
0.9747192500 0.7943452500 0.7029015000
0.0181370000 0.9064860000 0.8203530000
0.0384430000 0.9098002500 0.8092340000
0.3811982500 0.9372910000 0.7939757500
0.8328672500 0.9577517500 0.7588270000
0.9975207500 0.9206077500 0.6592195000
0.0000000000 0.0000000000 0.7294980000
0.2127542500 0.0039430000 0.7637522500
0.5809370000 0.0153770000 0.8152875000
0.8317967500 0.0362745000 0.8484047500
0.9154330000 0.0865200000 0.8678150000
0.0007890000 0.1837825000 0.7977620000
0.1107400000 0.2525472500 0.8247077500
0.5748502500 0.2858575000 0.8645247500
0.8447632500 0.2812032500 0.8850925000
0.9420912500 0.3062807500 0.8998452500
0.0027600000 0.5297315000 0.8884730000
0.0502780000 0.5515180000 0.8972625000
0.5338620000 0.6165175000 0.9212575000
0.8720992500 0.6238080000 0.9353012500
0.9848355000 0.6295105000 0.9399985000
0.0080830000 0.7762140000 0.9321507500
0.0380490000 0.7799575000 0.9287927500
0.4044955000 0.8342415000 0.9353672500
0.8606042500 0.8618597500 0.9404065000
0.9995037500 0.8589225000 0.9341575000
0.0212920000 0.9188330000 0.9479050000
0.0382460000 0.9215212500 0.9424917500
0.3181220000 0.9440200000 0.9402025000
0.8111875000 0.9658955000 0.9303300000
0.9937220000 0.9697200000 0.9238270000
