植人大树自媒体封面制作器/digicamfx/lut/香港印象/Kinetic 03.cube
TITLE "Kinetic 03 by Gamut"
# Version 1.0 - 11/21/2022 - Designed for Rec.709 Color Space. Copyright 2022 Gamut, LLC
LUT_3D_SIZE 33
0.0394290000 0.0523470000 0.0580530000
0.0540856563 0.0530020000 0.0580530000
0.0755094375 0.0530020000 0.0568970625
0.0961734063 0.0524084062 0.0544732188
0.1182721250 0.0523470000 0.0518505000
0.1409814062 0.0517892813 0.0485088437
0.1651339375 0.0510200000 0.0450085625
0.1889589063 0.0491346250 0.0405543125
0.2142117500 0.0470680000 0.0352885000
0.2405832813 0.0444150625 0.0292760625
0.2678983750 0.0435396875 0.0225238750
0.3009414375 0.0510200000 0.0155494062
0.3308462500 0.0506000000 0.0065055000
0.3617792188 0.0488525937 0.0029818125
0.3937366250 0.0460881875 0.0069989375
0.4251170625 0.0436113438 0.0043123750
0.4564165000 0.0402115000 0.0023660000
0.4869099375 0.0355845625 0.0019468438
0.5162671250 0.0305078750 0.0023660000
0.5446061562 0.0247416875 0.0031540000
0.5724406250 0.0196157500 0.0034498750
0.5990107812 0.0152289063 0.0050022187
0.6251293750 0.0131594375 0.0057665625
0.6493826875 0.0116070938 0.0065306250
0.6724775000 0.0110400000 0.0078860000
0.6940981250 0.0110400000 0.0086740000
0.7142924375 0.0110400000 0.0096107500
0.7330014063 0.0111632813 0.0111632813
0.7508738750 0.0118290000 0.0136031250
0.7672826875 0.0126909687 0.0175707188
0.7825799375 0.0142433125 0.0222278750
0.7960000937 0.0157956563 0.0268612813
0.8012910000 0.0173490000 0.0291770000
0.0301385000 0.0603306250 0.0549929375
0.0488293750 0.0614922813 0.0531018125
0.0694438125 0.0615116250 0.0531422187
0.0887639062 0.0615116250 0.0505348437
0.1091775938 0.0609236250 0.0471314375
0.1318424687 0.0603306250 0.0435616250
0.1544373437 0.0598267500 0.0391523125
0.1789422813 0.0586389687 0.0352638437
0.2041309062 0.0569704063 0.0298424375
0.2303677500 0.0555828750 0.0245936250
0.2582508125 0.0532185313 0.0255305312
0.2860265938 0.0506359063 0.0223263750
0.3152273750 0.0472135312 0.0176688437
0.3461829063 0.0442887812 0.0122720312
0.3778469062 0.0398541875 0.0077869375
0.4109039688 0.0374277813 0.0051008438
0.4463079688 0.0413428437 0.0027600000
0.4778335938 0.0363730938 0.0023660000
0.5083921250 0.0309516875 0.0023660000
0.5380573750 0.0247663438 0.0031540000
0.5660769062 0.0188764375 0.0034498750
0.5933926250 0.0144901875 0.0042385000
0.6196719062 0.0118782812 0.0055200000
0.6447352187 0.0118290000 0.0065306250
0.6682587813 0.0110400000 0.0078860000
0.6901102500 0.0110400000 0.0080583750
0.7104047187 0.0110400000 0.0088465937
0.7295505000 0.0110400000 0.0104975625
0.7474848750 0.0118290000 0.0128141250
0.7642272187 0.0119028750 0.0167818125
0.7797607500 0.0134552500 0.0214398125
0.7936793750 0.0150322500 0.0260969375
0.8010782188 0.0165600000 0.0291770000
0.0185313125 0.0681164375 0.0518088125
0.0340811250 0.0707214688 0.0471492500
0.0645294375 0.0697306875 0.0450034375
0.0878262188 0.0687101875 0.0457483125
0.1070417500 0.0691959375 0.0435828750
0.1268647813 0.0691606875 0.0405520000
0.1489225000 0.0686581875 0.0360281875
0.1731963125 0.0682008125 0.0321591250
0.1987251250 0.0680447500 0.0298180625
0.2265050000 0.0670707813 0.0331199687
0.2554280000 0.0665000000 0.0296205625
0.2848526563 0.0649977188 0.0252100000
0.3149671875 0.0627120625 0.0197639375
0.3462830625 0.0598472500 0.0143175312
0.3791390625 0.0573692500 0.0088714375
0.4122516562 0.0538727187 0.0054706875
0.4449024375 0.0496672500 0.0031540000
0.4764885000 0.0440959062 0.0023660000
0.5070023750 0.0380978750 0.0023660000
0.5361565625 0.0310501250 0.0031047500
0.5642098125 0.0240023750 0.0034498750
0.5909534063 0.0181124687 0.0042138750
0.6170000625 0.0140956875 0.0054706875
0.6421831250 0.0130855313 0.0065306250
0.6653903125 0.0108427500 0.0072942500
0.6870653125 0.0095122500 0.0080583750
0.7074924375 0.0087725625 0.0088219375
0.7265070312 0.0080338125 0.0103742812
0.7445209375 0.0079351875 0.0128141250
0.7614095625 0.0074174063 0.0167078437
0.7768524375 0.0081816875 0.0206508750
0.7911444375 0.0089944062 0.0253572500
0.7996337500 0.0097586875 0.0291770000
0.0168556875 0.0817834688 0.0464438750
0.0200590312 0.0790732188 0.0420597812
0.0486711250 0.0800483125 0.0443141563
0.0824819063 0.0782007812 0.0381465625
0.1089562500 0.0785276875 0.0389324063
0.1307560625 0.0785907813 0.0381229687
0.1519888125 0.0794141563 0.0350666563
0.1757044375 0.0807830312 0.0330215000
0.2021632188 0.0809151875 0.0381722812
0.2302590938 0.0812669375 0.0350666562
0.2590176563 0.0812195000 0.0307053750
0.2891964062 0.0807467500 0.0260473125
0.3208374375 0.0803075313 0.0208231562
0.3529261875 0.0788830312 0.0146873125
0.3861870938 0.0771130938 0.0097091250
0.4195698750 0.0753387188 0.0057661875
0.4524143438 0.0727888125 0.0035485000
0.4840996875 0.0694383438 0.0023660000
0.5145545625 0.0651140625 0.0023660000
0.5436397813 0.0598970000 0.0031540000
0.5716601562 0.0547900000 0.0039430000
0.5982676250 0.0494739063 0.0042138750
0.6238753750 0.0453505000 0.0050515312
0.6481366562 0.0420482500 0.0063090000
0.6710179687 0.0393222500 0.0070970000
0.6924900625 0.0369890938 0.0080583750
0.7124084687 0.0354365313 0.0088219375
0.7312699063 0.0338840937 0.0103742812
0.7489122500 0.0325043438 0.0128141250
0.7654873125 0.0325043437 0.0159928125
0.7806875937 0.0332677812 0.0206508750
0.7946941563 0.0340320000 0.0253079375
0.8043125625 0.0347954688 0.0291770000
0.0156725000 0.0950651250 0.0513042500
0.0122971250 0.0894090000 0.0511866875
0.0323319375 0.0925373750 0.0487665625
0.0706187188 0.0921295625 0.0468031250
0.1051685000 0.0912932500 0.0453723750
0.1361234062 0.0920308750 0.0437026562
0.1632158125 0.0932122500 0.0417303125
0.1887872187 0.0947687500 0.0396715625
0.2148000000 0.0960257500 0.0382462500
0.2424644375 0.0974630312 0.0358309063
0.2711099375 0.0983153750 0.0314933750
0.3008470000 0.0986481875 0.0263185312
0.3314506250 0.0983896250 0.0206998750
0.3631868437 0.0979352500 0.0146873125
0.3958486250 0.0974790000 0.0097091250
0.4290460625 0.0969447813 0.0062592188
0.4615941250 0.0956928750 0.0035485000
0.4934470000 0.0941758438 0.0027846250
0.5238913125 0.0918740000 0.0030555000
0.5527517813 0.0884116562 0.0031540000
0.5803645000 0.0848905000 0.0039430000
0.6068370000 0.0811721563 0.0046325000
0.6321605625 0.0780150000 0.0055200000
0.6559449688 0.0746506875 0.0063090000
0.6786016250 0.0722058750 0.0070970000
0.6995653750 0.0698086250 0.0078860000
0.7194739375 0.0676774375 0.0088219375
0.7379626250 0.0662208125 0.0103742812
0.7552327500 0.0651853750 0.0128141250
0.7712329375 0.0657148125 0.0159928125
0.7862420625 0.0668448125 0.0199605000
0.8001484063 0.0688515625 0.0246184375
0.8106338750 0.0707817500 0.0291770000
0.0135291250 0.1108372813 0.0557983437
0.0136277500 0.1080349063 0.0552684687
0.0221293125 0.1072251875 0.0527122500
0.0565172187 0.1089844062 0.0495189375
0.0995807500 0.1092142812 0.0481629375
0.1377007500 0.1098768125 0.0467809062
0.1729481875 0.1112193125 0.0447606562
0.2046679687 0.1120612500 0.0413269375
0.2340542188 0.1136270625 0.0382462500
0.2615406875 0.1150445000 0.0346974375
0.2889189688 0.1158656250 0.0301627812
0.3170099375 0.1165400000 0.0248646563
0.3466098125 0.1171537812 0.0192706563
0.3771030000 0.1174259687 0.0137013125
0.4087185625 0.1176975937 0.0090439688
0.4411520937 0.1182488750 0.0058898438
0.4735218125 0.1184612500 0.0039430000
0.5047084063 0.1182387187 0.0031540000
0.5347532500 0.1174367813 0.0031540000
0.5635139688 0.1160349687 0.0038197188
0.5907051250 0.1139504688 0.0042385000
0.6167991562 0.1116453750 0.0050022187
0.6415997813 0.1090965000 0.0057665625
0.6649833437 0.1069266563 0.0065306250
0.6871554375 0.1047147187 0.0072942500
0.7078740937 0.1024589375 0.0080583750
0.7272939375 0.1006214062 0.0094874687
0.7454004375 0.0991974687 0.0110400000
0.7622533125 0.0987886875 0.0133812187
0.7778758125 0.0995850000 0.0159928125
0.7924685000 0.1018198750 0.0198618750
0.8060114688 0.1050794375 0.0238542187
0.8169234687 0.1078150625 0.0283890000
0.0113356875 0.1306503750 0.0594125625
0.0113356875 0.1282230625 0.0589242500
0.0149829375 0.1265908125 0.0577040000
0.0446789688 0.1299445312 0.0534059375
0.0905695000 0.1299755625 0.0513926875
0.1355918125 0.1300579375 0.0489415938
0.1768066875 0.1311378750 0.0461810000
0.2151997187 0.1323234062 0.0421113750
0.2496665000 0.1327557500 0.0376545000
0.2809722188 0.1339169375 0.0325780000
0.3099633125 0.1348865000 0.0278467500
0.3379666250 0.1359531250 0.0225485937
0.3663675625 0.1367557500 0.0171018750
0.3956175625 0.1376119375 0.0121489375
0.4259767500 0.1387951250 0.0081321250
0.4571222812 0.1400867188 0.0054706875
0.4883275000 0.1412838750 0.0039430000
0.5188787812 0.1421515000 0.0031540000
0.5480264375 0.1426940625 0.0034991875
0.5758070000 0.1424690937 0.0039430000
0.6026226250 0.1418014375 0.0047310000
0.6280964375 0.1407500937 0.0053720625
0.6523030000 0.1392518125 0.0061610625
0.6752415312 0.1377161250 0.0069492500
0.6967874375 0.1359896250 0.0077380625
0.7170942500 0.1344766562 0.0086740000
0.7361136875 0.1331185000 0.0096107500
0.7536403437 0.1325086250 0.0112864063
0.7699012500 0.1325191875 0.0136031250
0.7851131562 0.1340217500 0.0167078437
0.7993501875 0.1370571250 0.0198126250
0.8124897812 0.1408657500 0.0237062812
0.8233562500 0.1443370625 0.0276000000
0.0088465937 0.1543691250 0.0634476875
0.0096107500 0.1518758125 0.0630015938
0.0098819375 0.1492063750 0.0623306875
0.0350423750 0.1531230937 0.0577423750
0.0778746875 0.1534531875 0.0541737812
0.1288921563 0.1530279063 0.0516023750
0.1762371562 0.1535312813 0.0477048750
0.2199078750 0.1542914375 0.0430020625
0.2600776563 0.1548600937 0.0370873750
0.2964087500 0.1556070000 0.0310256562
0.3293722500 0.1561026875 0.0248153125
0.3599090625 0.1568518125 0.0192952813
0.3889508125 0.1576552500 0.0140218125
0.4177703125 0.1589865313 0.0099801563
0.4469479687 0.1606761562 0.0069987188
0.4767292500 0.1626128438 0.0044849688
0.5065822500 0.1646585625 0.0039430000
0.5356552187 0.1665123750 0.0037704063
0.5637441563 0.1678618125 0.0039430000
0.5905651875 0.1686678437 0.0045586250
0.6163597813 0.1689345313 0.0050268750
0.6410335625 0.1688794062 0.0057912188
0.6645917500 0.1684058438 0.0065552500
0.6868638125 0.1676474375 0.0073189063
0.7078370937 0.1668269687 0.0080830000
0.7275483438 0.1660622500 0.0088465937
0.7458117500 0.1655771875 0.0102265625
0.7628220625 0.1655359063 0.0119521250
0.7784961875 0.1664246875 0.0141202500
0.7930506250 0.1687212500 0.0167078437
0.8067320000 0.1720326250 0.0198126250
0.8194690625 0.1762001250 0.0231152813
0.8300753438 0.1800314062 0.0268120000
0.0080830000 0.1803745000 0.0673005000
0.0080830000 0.1779805937 0.0668902500
0.0061607500 0.1738548750 0.0667500000
0.0273289375 0.1779430000 0.0619126875
0.0649378750 0.1794357500 0.0572051250
0.1177575000 0.1785205938 0.0536293750
0.1721673750 0.1782547500 0.0491973750
0.2210949375 0.1786834375 0.0431840312
0.2659325000 0.1791702500 0.0364717500
0.3070540938 0.1796697500 0.0296949688
0.3444916250 0.1798900000 0.0224746250
0.3787943125 0.1803093438 0.0164614375
0.4107651250 0.1812268750 0.0115325000
0.4408271875 0.1822945625 0.0079349062
0.4701355000 0.1840228750 0.0052734375
0.4992191250 0.1864352188 0.0041400000
0.5278285000 0.1891802500 0.0039430000
0.5553594375 0.1915159375 0.0039430000
0.5819389375 0.1935317500 0.0042877500
0.6075678750 0.1951339375 0.0050515312
0.6322450000 0.1961346250 0.0058158750
0.6559150312 0.1968223750 0.0063090000
0.6784985625 0.1971621875 0.0070970000
0.6999360000 0.1972493438 0.0076887500
0.7201067500 0.1972345000 0.0084770000
0.7389507187 0.1972241563 0.0096353750
0.7564252500 0.1975823750 0.0109906875
0.7726873750 0.1985413125 0.0125432812
0.7876492500 0.2001412500 0.0143911250
0.8017014688 0.2029148750 0.0172256250
0.8148244375 0.2065498125 0.0198126250
0.8268635938 0.2108731250 0.0235092812
0.8369420000 0.2147380000 0.0260230000
0.0073189062 0.2078487813 0.0711393438
0.0073189062 0.2052991563 0.0706294688
0.0037454063 0.2001408438 0.0719680313
0.0211440625 0.2047005000 0.0659902187
0.0527507500 0.2068560938 0.0603298125
0.1039960937 0.2066676250 0.0561357500
0.1636294375 0.2056733750 0.0506591563
0.2190893750 0.2053117812 0.0439020937
0.2688002500 0.2055648125 0.0359046562
0.3138149687 0.2059386875 0.0281425938
0.3554976250 0.2063181250 0.0203798125
0.3937035000 0.2066291875 0.0139230937
0.4291196250 0.2071897813 0.0097091875
0.4618930313 0.2081550625 0.0063825625
0.4928739375 0.2098381250 0.0045096563
0.5223067500 0.2122189063 0.0039430000
0.5502611875 0.2149497188 0.0039430000
0.5768293437 0.2175940625 0.0043123750
0.6023280625 0.2199882500 0.0050761875
0.6265939062 0.2219894063 0.0055200000
0.6500134687 0.2236500625 0.0060870937
0.6724723437 0.2249659062 0.0068753750
0.6939831875 0.2259916563 0.0076640938
0.7143965625 0.2268022188 0.0081076250
0.7335134063 0.2274633437 0.0088712500
0.7514579375 0.2283506250 0.0102019688
0.7680241250 0.2295596875 0.0111879375
0.7833437188 0.2312027813 0.0133072187
0.7976650625 0.2334768750 0.0151801250
0.8109571875 0.2367002500 0.0180632188
0.8233243750 0.2405888438 0.0206015625
0.8345048125 0.2447343125 0.0237062812
0.8439024687 0.2484561563 0.0268120000
0.0065552500 0.2371684375 0.0750377500
0.0065552500 0.2346504688 0.0745493125
0.0065055000 0.2311863125 0.0744420625
0.0164122187 0.2326954375 0.0701636250
0.0426433750 0.2357601875 0.0638410000
0.0893113437 0.2363032500 0.0586593438
0.1512306250 0.2353351875 0.0526296250
0.2136202188 0.2345429063 0.0442116250
0.2688613125 0.2342411250 0.0356827500
0.3179688438 0.2344058438 0.0265895312
0.3629973750 0.2348866250 0.0185811875
0.4049649062 0.2353681875 0.0123707500
0.4438276875 0.2357941250 0.0079349375
0.4797711562 0.2367337187 0.0058405313
0.5129264375 0.2381865000 0.0042877500
0.5437921875 0.2402491875 0.0039430000
0.5722561875 0.2427508750 0.0043370000
0.5985568437 0.2452234062 0.0047310000
0.6232616250 0.2476166250 0.0052734375
0.6466254687 0.2497709375 0.0060624375
0.6689746250 0.2517616875 0.0066045000
0.6903585625 0.2534939063 0.0073682188
0.7106831250 0.2549200000 0.0081322500
0.7299245625 0.2564355937 0.0088959062
0.7478715000 0.2578300000 0.0096600000
0.7646446875 0.2593717187 0.0109660312
0.7801848750 0.2611490625 0.0125186875
0.7946366250 0.2635660625 0.0140710312
0.8081565625 0.2664774375 0.0165105625
0.8207246562 0.2699668125 0.0190738437
0.8320923750 0.2739215625 0.0219323125
0.8422830312 0.2778949688 0.0250370625
0.8509277500 0.2814120000 0.0276000000
0.0057912188 0.2672675313 0.0787477188
0.0057912188 0.2649015313 0.0784327188
0.0057912188 0.2616607500 0.0782632500
0.0124937500 0.2619472812 0.0747539063
0.0342781562 0.2658494063 0.0676933125
0.0750932813 0.2672606563 0.0611066875
0.1363974063 0.2666319375 0.0540267813
0.2045633750 0.2655426875 0.0454242500
0.2660777500 0.2647335312 0.0352890000
0.3198880937 0.2647100000 0.0252588125
0.3683691250 0.2650917812 0.0172744062
0.4134959687 0.2656965313 0.0113355312
0.4556441562 0.2664846562 0.0076637500
0.4944447812 0.2673518437 0.0050515312
0.5300559062 0.2687560000 0.0042877500
0.5625715937 0.2704985937 0.0043616250
0.5919868125 0.2725323438 0.0047310000
0.6188208125 0.2746773750 0.0052487812
0.6435245625 0.2768238750 0.0058651875
0.6665484375 0.2788165312 0.0066291250
0.6881912187 0.2807926250 0.0073928750
0.7086439062 0.2827051562 0.0081568750
0.7277785313 0.2845554375 0.0089205625
0.7458044063 0.2863915312 0.0096846250
0.7625964375 0.2882456562 0.0104482500
0.7782160000 0.2903705937 0.0117301562
0.7928680000 0.2928967500 0.0132825313
0.8064582188 0.2957404062 0.0156234062
0.8190893125 0.2990769062 0.0180632500
0.8306658750 0.3028326875 0.0203796250
0.8409960312 0.3066829375 0.0234846875
0.8499814063 0.3103936250 0.0260722812
0.8577226875 0.3136822188 0.0283890000
0.0055200000 0.2985557500 0.0829322500
0.0055200000 0.2962766250 0.0826447500
0.0055200000 0.2927641250 0.0824681250
0.0094629062 0.2924221250 0.0798117812
0.0278958750 0.2968558750 0.0721592500
0.0626106562 0.2992806875 0.0644085000
0.1209851250 0.2993292500 0.0565351875
0.1920899688 0.2982819063 0.0468670625
0.2605672500 0.2974151250 0.0357815000
0.3196878750 0.2969523125 0.0252095000
0.3720267500 0.2972088750 0.0170031875
0.4199450625 0.2978554063 0.0110643125
0.4647730000 0.2987883750 0.0069003750
0.5063014062 0.2999809375 0.0050515312
0.5442536875 0.3013386250 0.0047310000
0.5783965000 0.3028484062 0.0047310000
0.6090231250 0.3043918750 0.0051255000
0.6367522812 0.3059888438 0.0058898438
0.6618991250 0.3076266250 0.0066537500
0.6850263125 0.3093660313 0.0074175312
0.7064128750 0.3111615000 0.0078860000
0.7261831875 0.3129705937 0.0086740000
0.7444941875 0.3148833750 0.0097092500
0.7615527813 0.3169306250 0.0104729063
0.7773167500 0.3191667500 0.0117301250
0.7919772187 0.3217115938 0.0132825000
0.8056343125 0.3245607500 0.0148348750
0.8184853750 0.3278947187 0.0171762500
0.8302032500 0.3314707500 0.0196157500
0.8407668437 0.3352420938 0.0219323437
0.8499178125 0.3389336250 0.0249878125
0.8576709687 0.3423285938 0.0273291563
0.8644516250 0.3453836250 0.0296701250
0.0055200000 0.3311265000 0.0880904687
0.0055200000 0.3285745000 0.0876495938
0.0047803125 0.3251797813 0.0872067187
0.0076886250 0.3240159062 0.0851168125
0.0231147813 0.3287910000 0.0774208125
0.0526815625 0.3322052812 0.0687216875
0.1062702188 0.3331835625 0.0597789687
0.1783115312 0.3326456250 0.0489177187
0.2520376250 0.3317927813 0.0373308750
0.3172144688 0.3311488750 0.0262444687
0.3738544688 0.3312230938 0.0170031875
0.4248340625 0.3316570000 0.0110643125
0.4720345938 0.3326855625 0.0073682500
0.5159242188 0.3340535625 0.0055200000
0.5557032187 0.3353327812 0.0047556563
0.5914604688 0.3367080000 0.0051501562
0.6234359063 0.3378582187 0.0055200000
0.6520987500 0.3390588750 0.0063090000
0.6779807187 0.3402089375 0.0067768750
0.7014333437 0.3414891875 0.0075654688
0.7229132500 0.3429231563 0.0083538750
0.7423175312 0.3445087813 0.0091424687
0.7601506563 0.3462867187 0.0104975625
0.7764909375 0.3483572812 0.0112619062
0.7915762188 0.3507205313 0.0124941250
0.8055226875 0.3533879062 0.0142188437
0.8184732500 0.3564972500 0.0163874063
0.8304701562 0.3599788125 0.0187285938
0.8413206875 0.3636784375 0.0211685938
0.8508517812 0.3674117500 0.0234847188
0.8588043438 0.3708088438 0.0265407188
0.8652435625 0.3738017812 0.0284136250
0.8709760625 0.3765338437 0.0304338750
0.0055200000 0.3642310625 0.0938105000
0.0055200000 0.3616695938 0.0933936875
0.0052241250 0.3587099375 0.0929744375
0.0068013125 0.3566181875 0.0913334375
0.0198624375 0.3616143750 0.0833586875
0.0455211562 0.3658057812 0.0741099375
0.0935496250 0.3677785000 0.0642205625
0.1640097812 0.3681676563 0.0527516875
0.2417563125 0.3676753750 0.0402773125
0.3124942187 0.3671328750 0.0280193125
0.3737861250 0.3669950625 0.0182360000
0.4281676250 0.3673941250 0.0118533125
0.4778702500 0.3682785000 0.0081321875
0.5234474062 0.3694583437 0.0062843438
0.5648954375 0.3707762500 0.0055200000
0.6020209375 0.3717997188 0.0055200000
0.6352830000 0.3726789375 0.0059145000
0.6650080938 0.3734320625 0.0066783750
0.6917698125 0.3741692500 0.0074421875
0.7158630625 0.3749993125 0.0082061250
0.7375365000 0.3760313750 0.0089698750
0.7570388750 0.3772653125 0.0099062500
0.7746978750 0.3787876250 0.0112865625
0.7906376875 0.3806454375 0.0124941562
0.8052130000 0.3828993125 0.0140465000
0.8186233750 0.3855741562 0.0155988438
0.8309981875 0.3887413750 0.0179401875
0.8422815000 0.3922497188 0.0204042188
0.8522971250 0.3958410000 0.0227209375
0.8607050313 0.3993209375 0.0250371875
0.8675055000 0.4023767500 0.0273045625
0.8727544062 0.4049556563 0.0292016563
0.8772359375 0.4072225000 0.0307540000
0.0055200000 0.3974505000 0.1006011250
0.0055200000 0.3950212813 0.1000340313
0.0055200000 0.3920950313 0.0994458437
0.0062350313 0.3897036875 0.0979421250
0.0176197187 0.3947814375 0.0904593125
0.0400885313 0.3995973750 0.0806538125
0.0832803125 0.4028445937 0.0700168125
0.1508409375 0.4041382813 0.0579301563
0.2303568125 0.4044854062 0.0445859375
0.3059899687 0.4044718125 0.0315672812
0.3718224688 0.4044053437 0.0212422187
0.4297220625 0.4046246562 0.0138494687
0.4818629063 0.4052668125 0.0096845312
0.5291529062 0.4060707813 0.0070477500
0.5720286250 0.4070352188 0.0062843437
0.6105747812 0.4078237813 0.0059391562
0.6451042812 0.4083671562 0.0063090000
0.6760505000 0.4087834063 0.0067276250
0.7037630000 0.4091148125 0.0075161563
0.7285730625 0.4095297500 0.0086740000
0.7507380313 0.4101444063 0.0097585000
0.7704710000 0.4110186250 0.0106701562
0.7880537188 0.4121453125 0.0120752500
0.8038831250 0.4136815000 0.0132577812
0.8181736875 0.4157120312 0.0150074062
0.8312346563 0.4182787188 0.0171515312
0.8431359375 0.4213302188 0.0194925625
0.8536843750 0.4245859375 0.0219570312
0.8628523750 0.4279855625 0.0242732812
0.8702233750 0.4310552500 0.0265160312
0.8758452500 0.4336083438 0.0288569375
0.8799721563 0.4356868750 0.0299906250
0.8833423437 0.4374561250 0.0311731563
0.0055200000 0.4305425000 0.1080575000
0.0055200000 0.4281505000 0.1075151875
0.0055200000 0.4253443750 0.1069765000
0.0062350313 0.4224614688 0.1060920625
0.0160672500 0.4275380000 0.0982596250
0.0365458125 0.4332738750 0.0886504375
0.0756886875 0.4373696250 0.0774951250
0.1394189063 0.4399018125 0.0651212812
0.2188920000 0.4412800000 0.0509827500
0.2979127188 0.4419823438 0.0372601250
0.3678235625 0.4422133125 0.0259244375
0.4290009687 0.4424793437 0.0176445312
0.4836220000 0.4428120000 0.0124198750
0.5329061875 0.4433415312 0.0093151562
0.5774321250 0.4438701250 0.0074915000
0.6175121250 0.4442848125 0.0067030000
0.6534680000 0.4445455000 0.0067030000
0.6857058750 0.4446630000 0.0074668438
0.7144821250 0.4447020000 0.0082307500
0.7400469687 0.4447504375 0.0089945312
0.7627028750 0.4449632500 0.0105468750
0.7827170625 0.4453839375 0.0114345000
0.8004066250 0.4461458750 0.0128635625
0.8162182188 0.4473796563 0.0148101250
0.8304235000 0.4491497500 0.0163627500
0.8431788125 0.4514773750 0.0188764688
0.8545733125 0.4541894375 0.0211931875
0.8645737187 0.4571964062 0.0235094062
0.8728695000 0.4601385000 0.0261215000
0.8792704688 0.4626714375 0.0280683750
0.8838081875 0.4646901250 0.0296207500
0.8869227812 0.4661744375 0.0307786562
0.8892740000 0.4673845000 0.0315430000
0.0063090000 0.4632836250 0.1163963750
0.0063090000 0.4609591875 0.1157220000
0.0063090000 0.4582278438 0.1150656250
0.0059638125 0.4549114375 0.1147089063
0.0154015312 0.4598798125 0.1073513750
0.0340565000 0.4661243438 0.0977663125
0.0702320625 0.4711781875 0.0863071875
0.1300015313 0.4746298750 0.0736445000
0.2078780312 0.4770216875 0.0596725000
0.2885935312 0.4785563125 0.0451419687
0.3616985312 0.4793882500 0.0327502812
0.4260112812 0.4798398437 0.0228195312
0.4833513437 0.4801691250 0.0161903125
0.5349271562 0.4804828750 0.0120011250
0.5814501563 0.4807599688 0.0093890312
0.6233094375 0.4809580625 0.0082553750
0.6608343125 0.4809594688 0.0078860000
0.6944133750 0.4808329062 0.0082553750
0.7241855000 0.4806335625 0.0090191875
0.7504820938 0.4803682812 0.0097831250
0.7735955313 0.4802462500 0.0109167187
0.7938901250 0.4803195938 0.0124695937
0.8117583438 0.4807335938 0.0140219375
0.8276273437 0.4816566562 0.0157961875
0.8417565625 0.4830916875 0.0181126250
0.8543530938 0.4850691250 0.0204288125
0.8654648125 0.4874214062 0.0231149063
0.8748136875 0.4899390313 0.0258502500
0.8823310313 0.4922810000 0.0281669688
0.8878235312 0.4942441562 0.0299162187
0.8914653437 0.4955909063 0.0311731563
0.8937473438 0.4964803750 0.0319128438
0.8952909375 0.4971193750 0.0327013750
0.0070970000 0.4954679375 0.1254416250
0.0070970000 0.4931064375 0.1248138125
0.0066537500 0.4905266250 0.1241835625
0.0066537500 0.4874574688 0.1234262500
0.0150810000 0.4916250625 0.1170630625
0.0326272500 0.4980283750 0.1076116875
0.0664808750 0.5037815625 0.0964101875
0.1225724375 0.5080727188 0.0837087500
0.1982927500 0.5113635625 0.0698873750
0.2791372813 0.5137041562 0.0550735313
0.3543648750 0.5151695000 0.0416180625
0.4213781875 0.5160405000 0.0305080938
0.4814486875 0.5165891875 0.0222774375
0.5355941875 0.5169265312 0.0161903125
0.5844691250 0.5172839375 0.0124198750
0.6283703125 0.5174111875 0.0101771250
0.6674801875 0.5172496250 0.0090191875
0.7022122187 0.5169470938 0.0090191875
