植人大树自媒体封面制作器/digicamfx/lut/香港印象/Kinetic 01.cube
TITLE "Kinetic 01 by Gamut"
# Version 1.0 - 11/21/2022 - Designed for Rec.709 Color Space. Copyright 2022 Gamut, LLC
LUT_3D_SIZE 5
0.0362740000 0.0574390000 0.0656460000
0.2263905000 0.0506825000 0.0370627500
0.4889775000 0.0421290000 0.0019715000
0.7286790000 0.0092657500 0.0049282500
0.8705920000 0.0141940000 0.0268120000
0.0000000000 0.1963025000 0.0661972500
0.2815420000 0.1922665000 0.0390180000
0.5682685000 0.2013327500 0.0023660000
0.7817390000 0.2080305000 0.0057172500
0.9089087500 0.2260997500 0.0244460000
0.0000000000 0.4658765000 0.1102360000
0.2321442500 0.4739085000 0.0555222500
0.7060300000 0.4736335000 0.0047310000
0.9008037500 0.4771025000 0.0134057500
0.9629520000 0.4966505000 0.0299660000
0.0057172500 0.7234315000 0.2104882500
0.1950042500 0.7368372500 0.1704827500
0.7369267500 0.7574105000 0.0507887500
0.9602312500 0.7477790000 0.0468040000
0.9978167500 0.7316477500 0.0584900000
0.0402170000 0.8802540000 0.3817310000
0.2233867500 0.8977755000 0.3815230000
0.7051505000 0.9295990000 0.3244210000
0.9603250000 0.9180897500 0.2176650000
1.0000000000 0.8939600000 0.1830820000
0.0090682500 0.0333175000 0.2632955000
0.2569405000 0.0459962500 0.2450335000
0.5234210000 0.0130112500 0.2160332500
0.7461110000 0.0037457500 0.2189292500
0.8758082500 0.0118290000 0.2353110000
0.0000000000 0.2133795000 0.2428500000
0.2090057500 0.2298055000 0.2297850000
0.5345705000 0.2199027500 0.1924432500
0.7625822500 0.1949197500 0.1756350000
0.9069040000 0.2227132500 0.2051830000
0.0003945000 0.4886032500 0.2767695000
0.1191517500 0.5050160000 0.2201055000
0.6516140000 0.5080195000 0.1592402500
0.8604507500 0.4936600000 0.1723222500
0.9635155000 0.5238610000 0.2064942500
0.0057172500 0.7364997500 0.3370250000
0.1199272500 0.7446235000 0.2813137500
0.6564410000 0.7762330000 0.1453255000
0.9311202500 0.7565515000 0.1272107500
0.9982942500 0.7525250000 0.2040852500
0.0258255000 0.8860877500 0.4513852500
0.1593497500 0.8967460000 0.4322695000
0.6366605000 0.9367145000 0.3912072500
0.9296740000 0.9247200000 0.2469800000
1.0000000000 0.9004250000 0.2135950000
0.0000000000 0.0035485000 0.4837400000
0.2518737500 0.0000000000 0.4872417500
0.5813455000 0.0015770000 0.5083970000
0.8050657500 0.0055200000 0.5167610000
0.8872045000 0.0134060000 0.5110980000
0.0000000000 0.2095115000 0.5058002500
0.1684040000 0.2403540000 0.5197905000
0.5972945000 0.2443740000 0.5295337500
0.8006065000 0.2093610000 0.4954665000
0.9158615000 0.2364970000 0.4969235000
0.0007890000 0.5242925000 0.5708555000
0.0816887500 0.5430342500 0.5620325000
0.6265070000 0.6055150000 0.5667895000
0.8425640000 0.5513575000 0.5085350000
0.9547690000 0.5431990000 0.4908965000
0.0065060000 0.7672717500 0.6127752500
0.0625435000 0.7712227500 0.5829772500
0.5502117500 0.8271480000 0.5361062500
0.8980810000 0.8033980000 0.4786690000
0.9921450000 0.7857350000 0.4849285000
0.0189260000 0.9062335000 0.6719510000
0.0770197500 0.9108407500 0.6488820000
0.5022135000 0.9414080000 0.6049420000
0.8776145000 0.9400785000 0.4550445000
0.9997850000 0.9120620000 0.4075730000
0.0000000000 0.0000000000 0.6793045000
0.2426160000 0.0000000000 0.6949155000
0.5935075000 0.0017742500 0.7352697500
0.8328307500 0.0084772500 0.7665685000
0.9019872500 0.0266145000 0.7712842500
0.0000000000 0.1810095000 0.7176637500
0.1452107500 0.2372387500 0.7392555000
0.5939852500 0.2499632500 0.7736230000
0.8424217500 0.2364340000 0.7855227500
0.9275185000 0.2598092500 0.7797480000
0.0007890000 0.5383087500 0.8081320000
0.0708597500 0.5589000000 0.8123745000
0.5827947500 0.6144005000 0.8322560000
0.8769002500 0.6144585000 0.8315210000
0.9669187500 0.5902910000 0.7954170000
0.0072942500 0.7868467500 0.8506395000
0.0509535000 0.7920315000 0.8416312500
0.4878542500 0.8508595000 0.8430510000
0.8865650000 0.8799860000 0.8478712500
0.9727532500 0.8317592500 0.7776812500
0.0214890000 0.9228055000 0.8823622500
0.0513107500 0.9274825000 0.8702767500
0.4070270000 0.9547265000 0.8574885000
0.8377150000 0.9702575000 0.8300770000
0.9878142500 0.9405290000 0.7317647500
0.0000000000 0.0000000000 0.7428650000
0.2322725000 0.0045340000 0.7842805000
0.5962945000 0.0177430000 0.8411790000
0.8382750000 0.0419300000 0.8790290000
0.9146180000 0.0921680000 0.9008330000
0.0000000000 0.1960407500 0.8213277500
0.1259042500 0.2679957500 0.8528860000
0.5886905000 0.3006897500 0.8961215000
0.8515935000 0.3029067500 0.9210692500
0.9415100000 0.3300265000 0.9382185000
0.0019715000 0.5478745000 0.9191590000
0.0664600000 0.5744732500 0.9297285000
0.5505385000 0.6377765000 0.9557220000
0.8771702500 0.6520202500 0.9752932500
0.9798910000 0.6668595000 0.9881005000
0.0088712500 0.7961527500 0.9705295000
0.0478967500 0.8047082500 0.9729957500
0.4407052500 0.8564850000 0.9859710000
0.8677680000 0.8835127500 0.9941957500
0.9886660000 0.8850222500 0.9990135000
0.0260230000 0.9333570000 1.0000000000
0.0493062500 0.9375990000 0.9998120000
0.3503795000 0.9595320000 0.9991410000
0.8113740000 0.9727532500 0.9853355000
0.9789400000 0.9786360000 0.9807040000
