public/LUT/奥山由之-宝矿力调色预设.xmp
<x:xmpmeta xmlns:x="adobe:ns:meta/" x:xmptk="Adobe XMP Core 7.0-c000 1.000000, 0000/00/00-00:00:00        ">
 <rdf:RDF xmlns:rdf="http://www.w3.org/1999/02/22-rdf-syntax-ns#">
  <rdf:Description rdf:about=""
    xmlns:crs="http://ns.adobe.com/camera-raw-settings/1.0/"
   crs:PresetType="Normal"
   crs:Cluster=""
   crs:UUID="06DE6136D48D4DAB81F8712C45589E18"
   crs:SupportsAmount2="True"
   crs:SupportsAmount="True"
   crs:SupportsColor="True"
   crs:SupportsMonochrome="True"
   crs:SupportsHighDynamicRange="True"
   crs:SupportsNormalDynamicRange="True"
   crs:SupportsSceneReferred="True"
   crs:SupportsOutputReferred="True"
   crs:RequiresRGBTables="False"
   crs:CameraModelRestriction=""
   crs:Copyright=""
   crs:ContactInfo=""
   crs:Version="15.3"
   crs:CompatibleVersion="251658240"
   crs:ProcessVersion="11.0"
   crs:WhiteBalance="Custom"
   crs:Temperature="5711"
   crs:Tint="+13"
   crs:Exposure2012="+0.85"
   crs:Contrast2012="0"
   crs:Highlights2012="-42"
   crs:Shadows2012="+39"
   crs:Whites2012="-25"
   crs:Blacks2012="-21"
   crs:Texture="0"
   crs:Clarity2012="0"
   crs:Dehaze="0"
   crs:Vibrance="-11"
   crs:Saturation="0"
   crs:ParametricShadows="0"
   crs:ParametricDarks="0"
   crs:ParametricLights="0"
   crs:ParametricHighlights="0"
   crs:ParametricShadowSplit="25"
   crs:ParametricMidtoneSplit="50"
   crs:ParametricHighlightSplit="75"
   crs:Sharpness="40"
   crs:SharpenRadius="+1.0"
   crs:SharpenDetail="25"
   crs:SharpenEdgeMasking="0"
   crs:LuminanceSmoothing="0"
   crs:ColorNoiseReduction="25"
   crs:ColorNoiseReductionDetail="50"
   crs:ColorNoiseReductionSmoothness="50"
   crs:HueAdjustmentRed="+19"
   crs:HueAdjustmentOrange="+8"
   crs:HueAdjustmentYellow="0"
   crs:HueAdjustmentGreen="0"
   crs:HueAdjustmentAqua="0"
   crs:HueAdjustmentBlue="-5"
   crs:HueAdjustmentPurple="0"
   crs:HueAdjustmentMagenta="0"
   crs:SaturationAdjustmentRed="-10"
   crs:SaturationAdjustmentOrange="+4"
   crs:SaturationAdjustmentYellow="0"
   crs:SaturationAdjustmentGreen="0"
   crs:SaturationAdjustmentAqua="0"
   crs:SaturationAdjustmentBlue="0"
   crs:SaturationAdjustmentPurple="0"
   crs:SaturationAdjustmentMagenta="0"
   crs:LuminanceAdjustmentRed="+21"
   crs:LuminanceAdjustmentOrange="+11"
   crs:LuminanceAdjustmentYellow="-1"
   crs:LuminanceAdjustmentGreen="0"
   crs:LuminanceAdjustmentAqua="-11"
   crs:LuminanceAdjustmentBlue="-40"
   crs:LuminanceAdjustmentPurple="0"
   crs:LuminanceAdjustmentMagenta="0"
   crs:SplitToningShadowHue="211"
   crs:SplitToningShadowSaturation="19"
   crs:SplitToningHighlightHue="211"
   crs:SplitToningHighlightSaturation="20"
   crs:SplitToningBalance="0"
   crs:ColorGradeMidtoneHue="220"
   crs:ColorGradeMidtoneSat="0"
   crs:ColorGradeShadowLum="0"
   crs:ColorGradeMidtoneLum="0"
   crs:ColorGradeHighlightLum="0"
   crs:ColorGradeBlending="50"
   crs:ColorGradeGlobalHue="0"
   crs:ColorGradeGlobalSat="0"
   crs:ColorGradeGlobalLum="0"
   crs:AutoLateralCA="1"
   crs:LensProfileEnable="1"
   crs:LensManualDistortionAmount="0"
   crs:VignetteAmount="0"
   crs:DefringePurpleAmount="0"
   crs:DefringePurpleHueLo="30"
   crs:DefringePurpleHueHi="70"
   crs:DefringeGreenAmount="0"
   crs:DefringeGreenHueLo="40"
   crs:DefringeGreenHueHi="60"
   crs:GrainAmount="50"
   crs:GrainSize="20"
   crs:GrainFrequency="50"
   crs:PostCropVignetteAmount="-10"
   crs:PostCropVignetteMidpoint="50"
   crs:PostCropVignetteFeather="50"
   crs:PostCropVignetteRoundness="0"
   crs:PostCropVignetteStyle="1"
   crs:PostCropVignetteHighlightContrast="0"
   crs:ShadowTint="0"
   crs:RedHue="-22"
   crs:RedSaturation="+24"
   crs:GreenHue="+93"
   crs:GreenSaturation="+42"
   crs:BlueHue="+2"
   crs:BlueSaturation="+18"
   crs:OverrideLookVignette="True"
   crs:ToneCurveName2012="Custom"
   crs:LensProfileSetup="LensDefaults"
   crs:HasSettings="True"
   crs:CropConstrainToWarp="0"
   crs:AsShotTemperature="5700"
   crs:AsShotTint="13">
   <crs:Name>
    <rdf:Alt>
     <rdf:li xml:lang="x-default">奥山由之-宝矿力预设</rdf:li>
    </rdf:Alt>
   </crs:Name>
   <crs:ShortName>
    <rdf:Alt>
     <rdf:li xml:lang="x-default"/>
    </rdf:Alt>
   </crs:ShortName>
   <crs:SortName>
    <rdf:Alt>
     <rdf:li xml:lang="x-default"/>
    </rdf:Alt>
   </crs:SortName>
   <crs:Group>
    <rdf:Alt>
     <rdf:li xml:lang="x-default"/>
    </rdf:Alt>
   </crs:Group>
   <crs:Description>
    <rdf:Alt>
     <rdf:li xml:lang="x-default"/>
    </rdf:Alt>
   </crs:Description>
   <crs:ToneCurvePV2012>
    <rdf:Seq>
     <rdf:li>0, 16</rdf:li>
     <rdf:li>44, 37</rdf:li>
     <rdf:li>80, 73</rdf:li>
     <rdf:li>113, 108</rdf:li>
     <rdf:li>150, 152</rdf:li>
     <rdf:li>184, 191</rdf:li>
     <rdf:li>225, 228</rdf:li>
     <rdf:li>255, 245</rdf:li>
    </rdf:Seq>
   </crs:ToneCurvePV2012>
   <crs:ToneCurvePV2012Red>
    <rdf:Seq>
     <rdf:li>0, 0</rdf:li>
     <rdf:li>36, 31</rdf:li>
     <rdf:li>65, 62</rdf:li>
     <rdf:li>91, 89</rdf:li>
     <rdf:li>125, 124</rdf:li>
     <rdf:li>165, 165</rdf:li>
     <rdf:li>255, 255</rdf:li>
    </rdf:Seq>
   </crs:ToneCurvePV2012Red>
   <crs:ToneCurvePV2012Green>
    <rdf:Seq>
     <rdf:li>0, 0</rdf:li>
     <rdf:li>255, 255</rdf:li>
    </rdf:Seq>
   </crs:ToneCurvePV2012Green>
   <crs:ToneCurvePV2012Blue>
    <rdf:Seq>
     <rdf:li>0, 0</rdf:li>
     <rdf:li>49, 49</rdf:li>
     <rdf:li>90, 91</rdf:li>
     <rdf:li>125, 131</rdf:li>
     <rdf:li>169, 166</rdf:li>
     <rdf:li>205, 205</rdf:li>
     <rdf:li>255, 255</rdf:li>
    </rdf:Seq>
   </crs:ToneCurvePV2012Blue>
   <crs:MaskGroupBasedCorrections>
    <rdf:Seq>
     <rdf:li>
      <rdf:Description
       crs:What="Correction"
       crs:CorrectionAmount="1"
       crs:CorrectionActive="true"
       crs:CorrectionName="蒙版 4"
       crs:CorrectionSyncID="3726D61E38F54333A2A288562794AC21"
       crs:LocalExposure="0"
       crs:LocalHue="0"
       crs:LocalSaturation="-0.109129"
       crs:LocalContrast="0"
       crs:LocalClarity="0"
       crs:LocalSharpness="0"
       crs:LocalBrightness="0"
       crs:LocalToningHue="240"
       crs:LocalToningSaturation="0"
       crs:LocalExposure2012="0.042491"
       crs:LocalContrast2012="0.254808"
       crs:LocalHighlights2012="0"
       crs:LocalShadows2012="-0.189813"
       crs:LocalWhites2012="0.1"
       crs:LocalBlacks2012="-0.25"
       crs:LocalClarity2012="0"
       crs:LocalDehaze="0"
       crs:LocalLuminanceNoise="0"
       crs:LocalMoire="0"
       crs:LocalDefringe="0"
       crs:LocalTemperature="0.038906"
       crs:LocalTint="-0.010159"
       crs:LocalTexture="0">
      <crs:MainCurve>
       <rdf:Seq>
        <rdf:li>0,0</rdf:li>
        <rdf:li>63,53</rdf:li>
        <rdf:li>113,108</rdf:li>
        <rdf:li>161,172</rdf:li>
        <rdf:li>208,213</rdf:li>
        <rdf:li>255,245</rdf:li>
       </rdf:Seq>
      </crs:MainCurve>
      <crs:RedCurve>
       <rdf:Seq>
        <rdf:li>0,0</rdf:li>
        <rdf:li>72,72</rdf:li>
        <rdf:li>116,118</rdf:li>
        <rdf:li>167,167</rdf:li>
        <rdf:li>255,255</rdf:li>
       </rdf:Seq>
      </crs:RedCurve>
      <crs:GreenCurve>
       <rdf:Seq>
        <rdf:li>0,0</rdf:li>
        <rdf:li>103,106</rdf:li>
        <rdf:li>132,137</rdf:li>
        <rdf:li>172,176</rdf:li>
        <rdf:li>255,255</rdf:li>
       </rdf:Seq>
      </crs:GreenCurve>
      <crs:BlueCurve>
       <rdf:Seq>
        <rdf:li>0,0</rdf:li>
        <rdf:li>46,47</rdf:li>
        <rdf:li>96,97</rdf:li>
        <rdf:li>144,145</rdf:li>
        <rdf:li>199,200</rdf:li>
        <rdf:li>255,255</rdf:li>
       </rdf:Seq>
      </crs:BlueCurve>
      <crs:CorrectionMasks>
       <rdf:Seq>
        <rdf:li
         crs:What="Mask/Image"
         crs:MaskActive="true"
         crs:MaskName="背景1"
         crs:MaskBlendMode="0"
         crs:MaskInverted="false"
         crs:MaskSyncID="68BE4EA707CB4BA2838D6DFEC10113F7"
         crs:MaskValue="1"
         crs:MaskVersion="1"
         crs:MaskSubType="0"
         crs:MaskSubCategoryID="22"
         crs:ReferencePoint="0.500000 0.500000"
         crs:ErrorReason="0"/>
       </rdf:Seq>
      </crs:CorrectionMasks>
      </rdf:Description>
     </rdf:li>
     <rdf:li>
      <rdf:Description
       crs:What="Correction"
       crs:CorrectionAmount="1"
       crs:CorrectionActive="true"
       crs:CorrectionName="蒙版 1"
       crs:CorrectionSyncID="1B8CD843F0A846DDBC3C4A462C13ED3A"
       crs:LocalExposure="0"
       crs:LocalHue="0.001393"
       crs:LocalSaturation="0.202704"
       crs:LocalContrast="0"
       crs:LocalClarity="0"
       crs:LocalSharpness="0"
       crs:LocalBrightness="0"
       crs:LocalToningHue="240"
       crs:LocalToningSaturation="0"
       crs:LocalExposure2012="0.025"
       crs:LocalContrast2012="0"
       crs:LocalHighlights2012="-0.28149"
       crs:LocalShadows2012="0.195553"
       crs:LocalWhites2012="0"
       crs:LocalBlacks2012="-0.196929"
       crs:LocalClarity2012="0"
       crs:LocalDehaze="0"
       crs:LocalLuminanceNoise="0"
       crs:LocalMoire="0"
       crs:LocalDefringe="0"
       crs:LocalTemperature="0.15"
       crs:LocalTint="-0.469111"
       crs:LocalTexture="0">
      <crs:CorrectionMasks>
       <rdf:Seq>
        <rdf:li
         crs:What="Mask/Image"
         crs:MaskActive="true"
         crs:MaskName="主体 1"
         crs:MaskBlendMode="0"
         crs:MaskInverted="false"
         crs:MaskSyncID="918AD801FF524CE7AB1EDB886598BD48"
         crs:MaskValue="1"
         crs:MaskVersion="1"
         crs:MaskSubType="1"
         crs:ReferencePoint="0.500000 0.500000"
         crs:ErrorReason="0"/>
       </rdf:Seq>
      </crs:CorrectionMasks>
      </rdf:Description>
     </rdf:li>
    </rdf:Seq>
   </crs:MaskGroupBasedCorrections>
   <crs:Look>
    <rdf:Description
     crs:Name="Adobe Color"
     crs:Amount="1"
     crs:UUID="B952C231111CD8E0ECCF14B86BAA7077"
     crs:SupportsAmount="false"
     crs:SupportsMonochrome="false"
     crs:SupportsOutputReferred="false"
     crs:Copyright="© 2018 Adobe Systems, Inc."
     crs:Stubbed="true">
    <crs:Group>
     <rdf:Alt>
      <rdf:li xml:lang="x-default">Profiles</rdf:li>
     </rdf:Alt>
    </crs:Group>
    </rdf:Description>
   </crs:Look>
  </rdf:Description>
 </rdf:RDF>
</x:xmpmeta>
