public/LUT/植人大树调色方案#1.cube
#Generated with IWLTBAP LUT Generator
#Website: https://luts.iwltbap.com
TITLE "D FunS"
LUT_3D_SIZE 64
0.082353 0.035294 0.003922
0.082353 0.035294 0.003922
0.086275 0.035294 0.003922
0.086275 0.035294 0.003922
0.090196 0.039216 0.003922
0.094118 0.039216 0.003922
0.101961 0.043137 0.003922
0.105882 0.043137 0.003922
0.117647 0.047059 0.007843
0.137255 0.050980 0.011765
0.156863 0.054902 0.015686
0.176471 0.062745 0.019608
0.200000 0.066667 0.023529
0.235294 0.074510 0.031373
0.270588 0.082353 0.035294
0.301961 0.090196 0.043137
0.337255 0.098039 0.050980
0.364706 0.105882 0.058824
0.392157 0.113725 0.066667
0.419608 0.117647 0.070588
0.450980 0.129412 0.078431
0.490196 0.137255 0.090196
0.525490 0.149020 0.098039
0.564706 0.160784 0.109804
0.596078 0.168627 0.117647
0.611765 0.172549 0.121569
0.627451 0.180392 0.129412
0.647059 0.184314 0.133333
0.662745 0.192157 0.137255
0.682353 0.200000 0.145098
0.701961 0.207843 0.149020
0.725490 0.215686 0.156863
0.741176 0.219608 0.160784
0.752941 0.227451 0.164706
0.764706 0.231373 0.168627
0.776471 0.235294 0.172549
0.788235 0.239216 0.176471
0.796078 0.247059 0.180392
0.807843 0.250980 0.184314
0.815686 0.254902 0.188235
0.823529 0.258824 0.192157
0.831373 0.262745 0.196078
0.839216 0.266667 0.196078
0.847059 0.270588 0.200000
0.854902 0.274510 0.200000
0.862745 0.278431 0.203922
0.870588 0.282353 0.207843
0.878431 0.290196 0.211765
0.882353 0.290196 0.211765
0.886275 0.294118 0.211765
0.886275 0.294118 0.211765
0.890196 0.298039 0.215686
0.894118 0.298039 0.215686
0.898039 0.301961 0.219608
0.901961 0.301961 0.219608
0.905882 0.305882 0.223529
0.909804 0.305882 0.223529
0.909804 0.309804 0.223529
0.913725 0.309804 0.223529
0.913725 0.313725 0.223529
0.909804 0.309804 0.219608
0.905882 0.305882 0.219608
0.901961 0.305882 0.219608
0.894118 0.301961 0.219608
0.082353 0.043137 0.003922
0.082353 0.039216 0.003922
0.086275 0.043137 0.003922
0.086275 0.043137 0.003922
0.090196 0.043137 0.003922
0.094118 0.043137 0.003922
0.101961 0.047059 0.003922
0.105882 0.047059 0.007843
0.113725 0.050980 0.007843
0.129412 0.054902 0.011765
0.152941 0.058824 0.015686
0.172549 0.066667 0.019608
0.192157 0.070588 0.023529
0.215686 0.074510 0.027451
0.247059 0.082353 0.035294
0.282353 0.090196 0.039216
0.317647 0.098039 0.047059
0.349020 0.105882 0.058824
0.376471 0.113725 0.062745
0.403922 0.121569 0.070588
0.435294 0.129412 0.078431
0.470588 0.137255 0.086275
0.509804 0.149020 0.098039
0.549020 0.160784 0.105882
0.580392 0.168627 0.113725
0.600000 0.172549 0.121569
0.615686 0.176471 0.125490
0.631373 0.184314 0.129412
0.650980 0.188235 0.137255
0.670588 0.196078 0.141176
0.690196 0.203922 0.149020
0.709804 0.211765 0.152941
0.729412 0.219608 0.160784
0.745098 0.223529 0.164706
0.756863 0.231373 0.168627
0.768627 0.235294 0.172549
0.780392 0.239216 0.176471
0.792157 0.243137 0.180392
0.800000 0.247059 0.184314
0.811765 0.254902 0.188235
0.819608 0.258824 0.192157
0.827451 0.262745 0.192157
0.835294 0.266667 0.196078
0.843137 0.270588 0.196078
0.850980 0.274510 0.200000
0.858824 0.278431 0.203922
0.866667 0.282353 0.203922
0.874510 0.286275 0.207843
0.882353 0.290196 0.211765
0.886275 0.294118 0.211765
0.886275 0.294118 0.215686
0.890196 0.298039 0.215686
0.894118 0.298039 0.215686
0.898039 0.301961 0.219608
0.901961 0.301961 0.219608
0.905882 0.305882 0.223529
0.909804 0.305882 0.223529
0.909804 0.309804 0.223529
0.913725 0.309804 0.223529
0.913725 0.313725 0.223529
0.909804 0.309804 0.219608
0.901961 0.305882 0.219608
0.898039 0.305882 0.219608
0.894118 0.301961 0.219608
0.086275 0.050980 0.007843
0.086275 0.050980 0.007843
0.086275 0.047059 0.007843
0.090196 0.047059 0.007843
0.090196 0.050980 0.007843
0.098039 0.050980 0.007843
0.101961 0.050980 0.007843
0.105882 0.054902 0.007843
0.113725 0.054902 0.007843
0.129412 0.058824 0.011765
0.149020 0.062745 0.015686
0.168627 0.070588 0.019608
0.188235 0.074510 0.023529
0.207843 0.078431 0.027451
0.227451 0.082353 0.031373
0.262745 0.090196 0.039216
0.294118 0.098039 0.047059
0.329412 0.105882 0.054902
0.360784 0.113725 0.062745
0.388235 0.121569 0.070588
0.419608 0.129412 0.078431
0.454902 0.137255 0.086275
0.490196 0.149020 0.094118
0.529412 0.156863 0.105882
0.560784 0.168627 0.113725
0.580392 0.172549 0.117647
0.600000 0.176471 0.125490
0.615686 0.180392 0.129412
0.635294 0.188235 0.133333
0.658824 0.192157 0.137255
0.678431 0.200000 0.145098
0.698039 0.207843 0.149020
0.717647 0.215686 0.156863
0.733333 0.223529 0.160784
0.749020 0.227451 0.168627
0.760784 0.235294 0.172549
0.772549 0.239216 0.176471
0.784314 0.243137 0.176471
0.796078 0.247059 0.180392
0.803922 0.250980 0.184314
0.815686 0.258824 0.188235
0.823529 0.262745 0.192157
0.831373 0.266667 0.196078
0.839216 0.270588 0.196078
0.847059 0.274510 0.200000
0.854902 0.278431 0.200000
0.862745 0.282353 0.203922
0.870588 0.286275 0.207843
0.878431 0.290196 0.211765
0.886275 0.294118 0.215686
0.886275 0.294118 0.215686
0.890196 0.298039 0.215686
0.894118 0.298039 0.215686
0.898039 0.301961 0.219608
0.901961 0.301961 0.219608
0.905882 0.305882 0.223529
0.905882 0.305882 0.223529
0.909804 0.305882 0.223529
0.909804 0.309804 0.223529
0.913725 0.309804 0.223529
0.905882 0.309804 0.223529
0.901961 0.305882 0.219608
0.898039 0.305882 0.219608
0.890196 0.301961 0.219608
0.086275 0.058824 0.011765
0.086275 0.058824 0.011765
0.090196 0.054902 0.007843
0.090196 0.054902 0.007843
0.094118 0.054902 0.007843
0.098039 0.054902 0.007843
0.101961 0.058824 0.007843
0.105882 0.058824 0.007843
0.113725 0.062745 0.007843
0.129412 0.062745 0.011765
0.149020 0.070588 0.015686
0.164706 0.074510 0.019608
0.184314 0.078431 0.023529
0.203922 0.082353 0.027451
0.219608 0.086275 0.031373
0.239216 0.090196 0.035294
0.274510 0.098039 0.043137
0.309804 0.105882 0.050980
0.341176 0.113725 0.058824
0.376471 0.121569 0.070588
0.403922 0.129412 0.074510
0.439216 0.137255 0.086275
0.474510 0.149020 0.094118
0.509804 0.156863 0.101961
0.541176 0.164706 0.109804
0.564706 0.172549 0.113725
0.584314 0.176471 0.121569
0.603922 0.180392 0.125490
0.623529 0.188235 0.133333
0.643137 0.192157 0.137255
0.662745 0.200000 0.141176
0.686275 0.203922 0.149020
0.701961 0.211765 0.152941
0.721569 0.219608 0.160784
0.741176 0.227451 0.164706
0.756863 0.231373 0.168627
0.764706 0.239216 0.172549
0.776471 0.243137 0.176471
0.788235 0.247059 0.180392
0.800000 0.250980 0.184314
0.807843 0.254902 0.188235
0.815686 0.258824 0.188235
0.827451 0.266667 0.192157
0.835294 0.270588 0.196078
0.843137 0.274510 0.196078
0.850980 0.278431 0.200000
0.858824 0.282353 0.203922
0.870588 0.286275 0.207843
0.874510 0.290196 0.211765
0.882353 0.290196 0.211765
0.886275 0.294118 0.215686
0.890196 0.298039 0.215686
0.894118 0.298039 0.219608
0.898039 0.301961 0.219608
0.901961 0.301961 0.219608
0.905882 0.305882 0.223529
0.905882 0.305882 0.223529
0.909804 0.305882 0.223529
0.909804 0.309804 0.223529
0.913725 0.309804 0.223529
0.905882 0.309804 0.223529
0.901961 0.305882 0.223529
0.894118 0.305882 0.219608
0.890196 0.301961 0.219608
0.090196 0.070588 0.015686
0.090196 0.066667 0.011765
0.090196 0.066667 0.011765
0.094118 0.062745 0.011765
0.094118 0.062745 0.011765
0.098039 0.062745 0.011765
0.101961 0.062745 0.011765
0.109804 0.066667 0.011765
0.113725 0.066667 0.011765
0.129412 0.070588 0.015686
0.149020 0.074510 0.019608
0.164706 0.078431 0.023529
0.180392 0.082353 0.027451
0.200000 0.086275 0.027451
0.215686 0.090196 0.031373
0.231373 0.094118 0.035294
0.254902 0.098039 0.039216
0.286275 0.105882 0.047059
0.321569 0.113725 0.058824
0.356863 0.121569 0.066667
0.392157 0.129412 0.074510
0.423529 0.141176 0.082353
0.458824 0.149020 0.090196
0.494118 0.156863 0.098039
0.525490 0.164706 0.105882
0.545098 0.172549 0.113725
0.568627 0.176471 0.117647
0.588235 0.180392 0.125490
0.607843 0.184314 0.129412
0.631373 0.192157 0.133333
0.650980 0.196078 0.141176
0.670588 0.203922 0.145098
0.690196 0.211765 0.149020
0.709804 0.215686 0.156863
0.729412 0.223529 0.160784
0.745098 0.231373 0.168627
0.760784 0.235294 0.172549
0.772549 0.239216 0.176471
0.780392 0.243137 0.180392
0.792157 0.247059 0.180392
0.803922 0.254902 0.184314
0.811765 0.258824 0.188235
0.819608 0.262745 0.192157
0.831373 0.266667 0.196078
0.839216 0.274510 0.196078
0.847059 0.278431 0.200000
0.854902 0.282353 0.203922
0.866667 0.286275 0.207843
0.874510 0.286275 0.207843
0.878431 0.290196 0.211765
0.886275 0.294118 0.215686
0.890196 0.298039 0.219608
0.894118 0.298039 0.219608
0.898039 0.301961 0.219608
0.901961 0.301961 0.219608
0.901961 0.305882 0.223529
0.905882 0.305882 0.223529
0.905882 0.305882 0.223529
0.909804 0.309804 0.223529
0.909804 0.309804 0.227451
0.905882 0.305882 0.223529
0.898039 0.305882 0.223529
0.894118 0.301961 0.219608
0.886275 0.301961 0.219608
0.094118 0.082353 0.019608
0.098039 0.082353 0.019608
0.098039 0.078431 0.019608
0.098039 0.078431 0.015686
0.098039 0.074510 0.015686
0.098039 0.070588 0.015686
0.105882 0.074510 0.015686
0.109804 0.074510 0.015686
0.113725 0.074510 0.015686
0.121569 0.074510 0.015686
0.137255 0.078431 0.019608
0.152941 0.082353 0.023529
0.172549 0.086275 0.027451
0.192157 0.090196 0.027451
0.207843 0.094118 0.031373
0.223529 0.098039 0.035294
0.243137 0.101961 0.039216
0.270588 0.109804 0.047059
0.305882 0.117647 0.054902
0.341176 0.125490 0.066667
0.372549 0.133333 0.074510
0.407843 0.145098 0.082353
0.443137 0.152941 0.090196
0.478431 0.160784 0.098039
0.509804 0.168627 0.105882
0.537255 0.176471 0.113725
0.560784 0.180392 0.117647
0.580392 0.188235 0.125490
0.600000 0.192157 0.129412
0.623529 0.196078 0.133333
0.643137 0.203922 0.141176
0.662745 0.207843 0.145098
0.686275 0.215686 0.152941
0.705882 0.219608 0.156863
0.725490 0.227451 0.164706
0.741176 0.235294 0.168627
0.756863 0.239216 0.172549
0.768627 0.243137 0.176471
0.780392 0.247059 0.180392
0.788235 0.250980 0.184314
0.800000 0.254902 0.184314
0.807843 0.258824 0.188235
0.819608 0.266667 0.192157
0.827451 0.270588 0.196078
0.835294 0.274510 0.200000
0.847059 0.278431 0.200000
0.854902 0.282353 0.203922
0.862745 0.286275 0.207843
0.870588 0.290196 0.211765
0.878431 0.290196 0.211765
0.882353 0.294118 0.215686
0.890196 0.298039 0.219608
0.894118 0.301961 0.219608
0.898039 0.301961 0.219608
0.901961 0.305882 0.223529
0.901961 0.305882 0.223529
0.905882 0.309804 0.223529
0.905882 0.309804 0.223529
0.909804 0.309804 0.227451
0.909804 0.313725 0.227451
0.905882 0.309804 0.223529
0.898039 0.305882 0.223529
0.894118 0.305882 0.219608
0.886275 0.301961 0.219608
0.101961 0.090196 0.027451
0.101961 0.090196 0.023529
0.105882 0.090196 0.023529
0.105882 0.090196 0.023529
0.105882 0.086275 0.023529
0.105882 0.086275 0.019608
0.105882 0.082353 0.019608
0.109804 0.082353 0.019608
0.113725 0.082353 0.019608
0.121569 0.082353 0.019608
0.129412 0.082353 0.019608
0.145098 0.086275 0.023529
0.160784 0.090196 0.027451
0.180392 0.094118 0.027451
0.200000 0.098039 0.031373
0.215686 0.101961 0.035294
0.235294 0.109804 0.039216
0.262745 0.113725 0.047059
0.290196 0.121569 0.054902
0.325490 0.129412 0.062745
0.356863 0.137255 0.074510
0.392157 0.149020 0.082353
0.427451 0.156863 0.090196
0.462745 0.164706 0.098039
0.494118 0.172549 0.105882
0.525490 0.180392 0.113725
0.552941 0.188235 0.117647
0.572549 0.192157 0.125490
0.596078 0.196078 0.129412
0.615686 0.200000 0.133333
0.635294 0.207843 0.141176
0.654902 0.211765 0.145098
0.678431 0.219608 0.152941
0.698039 0.223529 0.156863
0.721569 0.231373 0.164706
0.737255 0.239216 0.172549
0.752941 0.243137 0.176471
0.764706 0.247059 0.176471
0.776471 0.250980 0.180392
0.788235 0.254902 0.184314
0.796078 0.258824 0.188235
0.807843 0.262745 0.188235
0.815686 0.266667 0.192157
0.827451 0.270588 0.196078
0.835294 0.274510 0.200000
0.843137 0.278431 0.203922
0.850980 0.282353 0.203922
0.862745 0.286275 0.207843
0.870588 0.290196 0.211765
0.874510 0.294118 0.215686
0.882353 0.294118 0.215686
0.890196 0.298039 0.219608
0.894118 0.301961 0.219608
0.898039 0.305882 0.223529
0.901961 0.305882 0.223529
0.901961 0.309804 0.223529
0.905882 0.309804 0.223529
0.905882 0.313725 0.227451
0.909804 0.313725 0.227451
0.909804 0.313725 0.227451
0.905882 0.313725 0.227451
0.898039 0.309804 0.223529
0.890196 0.305882 0.219608
0.886275 0.305882 0.219608
0.105882 0.101961 0.031373
0.109804 0.101961 0.031373
0.109804 0.101961 0.031373
0.113725 0.101961 0.027451
0.113725 0.101961 0.027451
0.113725 0.098039 0.027451
0.113725 0.094118 0.023529
0.109804 0.090196 0.023529
0.117647 0.094118 0.023529
0.121569 0.090196 0.023529
0.129412 0.090196 0.023529
0.133333 0.090196 0.023529
0.152941 0.094118 0.027451
0.172549 0.098039 0.027451
0.192157 0.101961 0.031373
0.207843 0.109804 0.035294
0.227451 0.113725 0.039216
0.254902 0.121569 0.047059
0.278431 0.129412 0.054902
0.305882 0.133333 0.062745
0.341176 0.141176 0.070588
0.376471 0.152941 0.078431
0.411765 0.160784 0.086275
0.447059 0.168627 0.098039
0.478431 0.176471 0.101961
0.509804 0.184314 0.109804
0.537255 0.192157 0.117647
0.564706 0.200000 0.125490
0.588235 0.203922 0.129412
0.607843 0.207843 0.133333
0.627451 0.211765 0.141176
0.647059 0.215686 0.145098
0.670588 0.223529 0.152941
0.690196 0.227451 0.156863
0.713725 0.235294 0.164706
0.733333 0.239216 0.172549
0.749020 0.247059 0.176471
0.760784 0.250980 0.180392
0.772549 0.254902 0.180392
0.784314 0.258824 0.184314
0.792157 0.262745 0.188235
0.803922 0.266667 0.192157
0.815686 0.270588 0.192157
0.823529 0.274510 0.196078
0.831373 0.278431 0.200000
0.843137 0.282353 0.203922
0.850980 0.282353 0.207843
0.858824 0.286275 0.207843
0.866667 0.290196 0.211765
0.874510 0.294118 0.215686
0.882353 0.298039 0.219608
0.886275 0.298039 0.219608
0.890196 0.301961 0.223529
0.894118 0.305882 0.223529
0.898039 0.309804 0.223529
0.901961 0.309804 0.223529
0.905882 0.313725 0.227451
0.905882 0.313725 0.227451
0.909804 0.317647 0.227451
0.909804 0.317647 0.231373
0.905882 0.313725 0.227451
0.898039 0.313725 0.223529
0.890196 0.309804 0.219608
0.886275 0.305882 0.219608
0.113725 0.113725 0.039216
0.113725 0.113725 0.039216
0.117647 0.113725 0.035294
0.117647 0.113725 0.035294
0.121569 0.113725 0.035294
0.121569 0.109804 0.031373
0.117647 0.105882 0.031373
0.117647 0.105882 0.027451
0.117647 0.101961 0.027451
0.121569 0.101961 0.027451
0.129412 0.098039 0.027451
0.133333 0.098039 0.027451
0.141176 0.098039 0.027451
0.160784 0.101961 0.031373
0.180392 0.109804 0.031373
0.200000 0.113725 0.035294
0.219608 0.117647 0.039216
0.247059 0.125490 0.047059
0.270588 0.133333 0.054902
0.298039 0.141176 0.062745
0.325490 0.145098 0.070588
0.360784 0.156863 0.078431
0.396078 0.164706 0.086275
0.431373 0.172549 0.094118
0.462745 0.184314 0.101961
0.494118 0.188235 0.109804
0.521569 0.196078 0.117647
0.552941 0.203922 0.125490
0.580392 0.207843 0.129412
0.600000 0.211765 0.133333
0.619608 0.215686 0.141176
0.639216 0.219608 0.145098
0.662745 0.227451 0.149020
0.682353 0.231373 0.156863
0.705882 0.239216 0.164706
0.725490 0.243137 0.172549
0.745098 0.250980 0.176471
0.756863 0.254902 0.180392
0.768627 0.258824 0.184314
0.780392 0.262745 0.184314
0.792157 0.266667 0.188235
0.800000 0.270588 0.192157
0.811765 0.274510 0.196078
0.819608 0.278431 0.200000
0.831373 0.282353 0.200000
0.839216 0.282353 0.203922
0.847059 0.286275 0.207843
0.858824 0.290196 0.211765
0.866667 0.294118 0.211765
0.870588 0.294118 0.215686
0.878431 0.298039 0.219608
0.886275 0.301961 0.223529
0.890196 0.305882 0.223529
0.894118 0.305882 0.223529
0.898039 0.309804 0.227451
0.901961 0.313725 0.227451
0.905882 0.313725 0.227451
0.905882 0.317647 0.227451
0.909804 0.317647 0.231373
0.909804 0.321569 0.231373
0.905882 0.317647 0.227451
0.898039 0.317647 0.223529
0.890196 0.313725 0.223529
0.882353 0.309804 0.219608
0.121569 0.129412 0.047059
0.121569 0.129412 0.047059
0.125490 0.129412 0.047059
0.125490 0.129412 0.047059
0.129412 0.129412 0.043137
0.129412 0.125490 0.043137
0.125490 0.121569 0.039216
0.125490 0.117647 0.039216
0.125490 0.117647 0.035294
0.125490 0.113725 0.031373
0.133333 0.113725 0.031373
0.137255 0.113725 0.031373
0.145098 0.109804 0.031373
0.152941 0.109804 0.031373
0.168627 0.113725 0.035294
0.188235 0.121569 0.039216
0.207843 0.125490 0.039216
0.231373 0.129412 0.047059
0.258824 0.137255 0.054902
0.282353 0.145098 0.062745
0.309804 0.152941 0.070588
0.337255 0.156863 0.074510
0.372549 0.168627 0.082353
0.403922 0.176471 0.090196
0.439216 0.184314 0.101961
0.474510 0.196078 0.109804
0.505882 0.200000 0.117647
0.537255 0.207843 0.125490
0.564706 0.215686 0.129412
0.584314 0.219608 0.133333
0.603922 0.223529 0.141176
0.627451 0.227451 0.145098
0.647059 0.231373 0.149020
0.670588 0.239216 0.156863
0.694118 0.243137 0.164706
0.713725 0.250980 0.172549
0.733333 0.254902 0.176471
0.749020 0.258824 0.180392
0.760784 0.262745 0.184314
0.772549 0.266667 0.188235
0.784314 0.270588 0.192157
0.796078 0.274510 0.196078
0.807843 0.278431 0.196078
0.815686 0.282353 0.200000
0.827451 0.286275 0.203922
0.835294 0.290196 0.207843
0.847059 0.294118 0.207843
0.854902 0.298039 0.211765
0.862745 0.298039 0.211765
0.870588 0.301961 0.215686
0.878431 0.301961 0.219608
0.882353 0.305882 0.223529
0.890196 0.309804 0.223529
0.894118 0.313725 0.227451
0.898039 0.317647 0.227451
0.901961 0.317647 0.227451
0.905882 0.317647 0.227451
0.905882 0.321569 0.231373
0.909804 0.321569 0.231373
0.909804 0.325490 0.231373
0.905882 0.321569 0.231373
0.898039 0.321569 0.227451
0.890196 0.317647 0.223529
0.882353 0.313725 0.223529
0.129412 0.145098 0.054902
0.133333 0.145098 0.054902
0.133333 0.145098 0.054902
0.133333 0.145098 0.054902
0.137255 0.145098 0.054902
0.137255 0.141176 0.050980
0.133333 0.137255 0.047059
0.133333 0.133333 0.047059
0.133333 0.129412 0.043137
0.133333 0.129412 0.043137
0.133333 0.125490 0.039216
0.141176 0.125490 0.039216
0.149020 0.125490 0.039216
0.152941 0.121569 0.035294
0.160784 0.121569 0.035294
0.180392 0.125490 0.039216
0.200000 0.133333 0.043137
0.219608 0.137255 0.050980
0.243137 0.141176 0.054902
0.270588 0.149020 0.062745
0.294118 0.156863 0.070588
0.321569 0.160784 0.074510
0.345098 0.168627 0.082353
0.380392 0.176471 0.090196
0.415686 0.188235 0.098039
0.450980 0.196078 0.105882
0.486275 0.207843 0.117647
0.517647 0.211765 0.125490
0.545098 0.219608 0.129412
0.568627 0.223529 0.133333
0.592157 0.227451 0.141176
0.611765 0.231373 0.145098
0.635294 0.239216 0.149020
0.658824 0.243137 0.156863
0.682353 0.250980 0.164706
0.701961 0.254902 0.168627
0.721569 0.262745 0.176471
0.741176 0.266667 0.180392
0.756863 0.270588 0.184314
0.768627 0.274510 0.188235
0.780392 0.278431 0.192157
0.792157 0.282353 0.196078
0.803922 0.286275 0.200000
0.811765 0.290196 0.203922
0.823529 0.294118 0.203922
0.831373 0.298039 0.207843
0.843137 0.301961 0.211765
0.850980 0.301961 0.215686
0.858824 0.305882 0.215686
0.866667 0.305882 0.215686
0.874510 0.309804 0.219608
0.882353 0.309804 0.223529
0.886275 0.313725 0.223529
0.894118 0.317647 0.227451
0.898039 0.321569 0.231373
0.901961 0.325490 0.231373
0.905882 0.325490 0.231373
0.905882 0.325490 0.231373
0.909804 0.325490 0.231373
0.909804 0.325490 0.231373
0.905882 0.325490 0.231373
0.898039 0.325490 0.231373
0.890196 0.321569 0.227451
0.882353 0.321569 0.223529
0.141176 0.160784 0.066667
0.141176 0.160784 0.066667
0.141176 0.160784 0.066667
0.145098 0.160784 0.066667
0.145098 0.156863 0.062745
0.145098 0.152941 0.062745
0.141176 0.149020 0.058824
0.141176 0.145098 0.054902
0.141176 0.145098 0.054902
0.141176 0.141176 0.050980
0.145098 0.141176 0.047059
0.145098 0.137255 0.043137
0.149020 0.137255 0.043137
0.156863 0.137255 0.043137
0.160784 0.133333 0.043137
0.168627 0.133333 0.043137
0.188235 0.137255 0.043137
0.211765 0.145098 0.050980
0.231373 0.149020 0.058824
0.254902 0.152941 0.062745
0.282353 0.160784 0.070588
0.305882 0.168627 0.074510
0.329412 0.172549 0.082353
0.356863 0.180392 0.086275
0.392157 0.188235 0.094118
0.427451 0.200000 0.105882
0.466667 0.207843 0.113725
0.498039 0.219608 0.125490
0.525490 0.223529 0.129412
0.552941 0.231373 0.133333
0.576471 0.235294 0.141176
0.596078 0.239216 0.145098
0.619608 0.243137 0.149020
0.643137 0.250980 0.156863
0.666667 0.254902 0.160784
0.690196 0.262745 0.168627
0.709804 0.266667 0.176471
0.729412 0.274510 0.180392
0.745098 0.278431 0.184314
0.760784 0.282353 0.188235
0.772549 0.286275 0.192157
0.784314 0.290196 0.196078
0.800000 0.294118 0.200000
0.807843 0.298039 0.203922
0.819608 0.301961 0.207843
0.827451 0.305882 0.211765
0.839216 0.305882 0.211765
0.847059 0.309804 0.215686
0.854902 0.313725 0.215686
0.866667 0.313725 0.219608
0.874510 0.313725 0.219608
0.878431 0.317647 0.223529
0.886275 0.321569 0.223529
0.890196 0.325490 0.227451
0.894118 0.329412 0.231373
0.898039 0.333333 0.231373
0.901961 0.329412 0.231373
0.905882 0.329412 0.231373
0.909804 0.329412 0.231373
0.909804 0.329412 0.235294
0.905882 0.329412 0.231373
0.898039 0.329412 0.231373
0.890196 0.325490 0.231373
0.882353 0.325490 0.227451
0.149020 0.176471 0.074510
0.149020 0.176471 0.074510
0.152941 0.176471 0.074510
0.152941 0.176471 0.074510
0.152941 0.172549 0.074510
0.152941 0.168627 0.070588
0.152941 0.164706 0.070588
0.149020 0.160784 0.066667
0.149020 0.160784 0.062745
0.149020 0.156863 0.058824
0.152941 0.156863 0.058824
0.152941 0.152941 0.054902
0.152941 0.149020 0.050980
0.160784 0.149020 0.050980
0.164706 0.149020 0.047059
0.172549 0.149020 0.047059
0.180392 0.149020 0.047059
0.200000 0.152941 0.054902
0.223529 0.156863 0.058824
0.247059 0.160784 0.066667
0.266667 0.168627 0.070588
0.294118 0.172549 0.074510
0.317647 0.180392 0.082353
0.345098 0.184314 0.086275
0.372549 0.192157 0.094118
0.407843 0.203922 0.101961
0.443137 0.211765 0.113725
0.478431 0.223529 0.121569
0.509804 0.231373 0.129412
0.533333 0.235294 0.137255
0.560784 0.239216 0.141176
0.584314 0.247059 0.145098
0.607843 0.250980 0.152941
0.631373 0.258824 0.156863
0.654902 0.262745 0.164706
0.678431 0.270588 0.168627
0.701961 0.274510 0.176471
0.717647 0.278431 0.180392
0.737255 0.286275 0.184314
0.752941 0.290196 0.188235
0.768627 0.294118 0.192157
0.780392 0.298039 0.196078
0.792157 0.301961 0.200000
0.803922 0.305882 0.203922
0.815686 0.309804 0.207843
0.823529 0.313725 0.211765
0.835294 0.313725 0.215686
0.847059 0.317647 0.219608
0.854902 0.321569 0.219608
0.862745 0.321569 0.219608
0.870588 0.321569 0.223529
0.878431 0.321569 0.223529
0.882353 0.325490 0.223529
0.890196 0.329412 0.227451
0.894118 0.333333 0.231373
0.898039 0.337255 0.235294
0.901961 0.337255 0.235294
0.905882 0.337255 0.235294
0.909804 0.337255 0.235294
0.909804 0.333333 0.235294
0.905882 0.333333 0.235294
0.898039 0.333333 0.231373
0.890196 0.333333 0.231373
0.882353 0.329412 0.231373
0.160784 0.192157 0.086275
0.160784 0.192157 0.086275
0.160784 0.192157 0.086275
0.164706 0.192157 0.086275
0.164706 0.192157 0.086275
0.164706 0.188235 0.082353
0.164706 0.184314 0.078431
0.160784 0.180392 0.078431
0.160784 0.176471 0.074510
0.164706 0.176471 0.074510
0.164706 0.176471 0.070588
0.164706 0.172549 0.066667
0.164706 0.172549 0.062745
0.164706 0.168627 0.058824
0.172549 0.164706 0.058824
0.176471 0.164706 0.054902
0.184314 0.164706 0.054902
0.196078 0.164706 0.054902
0.215686 0.168627 0.062745
0.239216 0.172549 0.066667
0.262745 0.180392 0.074510
0.286275 0.184314 0.078431
0.309804 0.188235 0.082353
0.337255 0.196078 0.090196
0.364706 0.200000 0.094118
0.396078 0.211765 0.101961
0.431373 0.219608 0.113725
0.466667 0.231373 0.121569
0.498039 0.239216 0.133333
0.529412 0.247059 0.137255
0.552941 0.250980 0.145098
0.576471 0.254902 0.149020
0.600000 0.262745 0.152941
0.619608 0.266667 0.160784
0.643137 0.274510 0.164706
0.666667 0.278431 0.172549
0.694118 0.286275 0.176471
0.713725 0.290196 0.184314
0.733333 0.294118 0.188235
0.749020 0.301961 0.192157
0.764706 0.305882 0.196078
0.776471 0.305882 0.200000
0.788235 0.309804 0.203922
0.800000 0.317647 0.207843
0.811765 0.321569 0.211765
0.823529 0.321569 0.215686
0.831373 0.325490 0.215686
0.843137 0.329412 0.219608
0.850980 0.333333 0.223529
0.858824 0.333333 0.223529
0.866667 0.333333 0.227451
0.874510 0.333333 0.227451
0.882353 0.337255 0.227451
