public/LUT/植人大树调色方案#1.cube
#Generated with IWLTBAP LUT Generator
#Website: https://luts.iwltbap.com
TITLE "D FunS"
LUT_3D_SIZE 4
0.082353 0.035294 0.003922
0.490196 0.137255 0.090196
0.839216 0.266667 0.196078
0.894118 0.301961 0.219608
0.254902 0.349020 0.192157
0.290196 0.325490 0.137255
0.760784 0.411765 0.231373
0.878431 0.435294 0.266667
0.462745 0.662745 0.427451
0.505882 0.694118 0.431373
0.654902 0.690196 0.317647
0.870588 0.729412 0.380392
0.537255 0.752941 0.552941
0.572549 0.780392 0.552941
0.694118 0.835294 0.470588
0.874510 0.866667 0.458824
0.133333 0.164706 0.333333
0.372549 0.152941 0.274510
0.831373 0.298039 0.286275
0.921569 0.333333 0.270588
0.035294 0.364706 0.435294
0.250980 0.298039 0.325490
0.807843 0.400000 0.298039
0.925490 0.439216 0.290196
0.309804 0.647059 0.509804
0.372549 0.690196 0.521569
0.666667 0.694118 0.403922
0.901961 0.741176 0.407843
0.450980 0.772549 0.588235
0.501961 0.796078 0.600000
0.709804 0.847059 0.533333
0.886275 0.874510 0.482353
0.207843 0.298039 0.631373
0.360784 0.286275 0.619608
0.745098 0.313725 0.596078
0.854902 0.368627 0.584314
0.274510 0.431373 0.737255
0.407843 0.392157 0.705882
0.768627 0.388235 0.650980
0.882353 0.415686 0.615686
0.325490 0.733333 0.823529
0.333333 0.752941 0.827451
0.741176 0.733333 0.745098
0.917647 0.756863 0.721569
0.345098 0.827451 0.831373
0.356863 0.843137 0.835294
0.733333 0.886275 0.776471
0.905882 0.905882 0.776471
0.321569 0.368627 0.733333
0.403922 0.364706 0.733333
0.713725 0.352941 0.721569
0.839216 0.388235 0.741176
0.407843 0.407843 0.784314
0.474510 0.392157 0.780392
0.737255 0.380392 0.760784
0.858824 0.411765 0.780392
0.466667 0.776471 0.917647
0.529412 0.760784 0.913725
0.796078 0.737255 0.894118
0.917647 0.733333 0.878431
0.474510 0.882353 0.933333
0.482353 0.890196 0.937255
0.772549 0.913725 0.929412
0.933333 0.921569 0.921569
