public/LUT/植人大树调色方案#1.cube
#Generated with IWLTBAP LUT Generator
#Website: https://luts.iwltbap.com
TITLE "D FunS"
LUT_3D_SIZE 8
0.082353 0.035294 0.003922
0.137255 0.050980 0.011765
0.392157 0.113725 0.066667
0.647059 0.184314 0.133333
0.788235 0.239216 0.176471
0.862745 0.278431 0.203922
0.901961 0.301961 0.219608
0.894118 0.301961 0.219608
0.121569 0.129412 0.047059
0.125490 0.113725 0.031373
0.258824 0.137255 0.054902
0.537255 0.207843 0.125490
0.733333 0.254902 0.176471
0.835294 0.290196 0.207843
0.898039 0.317647 0.227451
0.882353 0.313725 0.223529
0.219608 0.290196 0.152941
0.227451 0.282353 0.137255
0.235294 0.258824 0.105882
0.419608 0.282353 0.133333
0.650980 0.337255 0.188235
0.815686 0.380392 0.231373
0.882353 0.400000 0.250980
0.878431 0.396078 0.250980
0.337255 0.466667 0.266667
0.345098 0.478431 0.262745
0.368627 0.482353 0.243137
0.396078 0.462745 0.203922
0.584314 0.470588 0.215686
0.788235 0.517647 0.270588
0.882353 0.533333 0.301961
0.878431 0.529412 0.298039
0.427451 0.607843 0.372549
0.427451 0.600000 0.364706
0.458824 0.627451 0.364706
0.478431 0.619608 0.309804
0.552941 0.603922 0.270588
0.737255 0.639216 0.305882
0.878431 0.662745 0.349020
0.870588 0.654902 0.349020
0.482353 0.686275 0.454902
0.486275 0.690196 0.458824
0.513725 0.709804 0.458824
0.556863 0.733333 0.443137
0.592157 0.721569 0.364706
0.709804 0.729412 0.345098
0.866667 0.764706 0.388235
0.870588 0.760784 0.396078
0.525490 0.745098 0.533333
0.533333 0.749020 0.537255
0.564706 0.764706 0.533333
0.611765 0.803922 0.545098
0.647059 0.811765 0.474510
0.705882 0.815686 0.423529
0.843137 0.835294 0.431373
0.874510 0.843137 0.443137
0.537255 0.752941 0.552941
0.537255 0.756863 0.552941
0.556863 0.768627 0.552941
0.607843 0.803922 0.549020
0.662745 0.823529 0.513725
0.721569 0.839216 0.458824
0.831373 0.850980 0.443137
0.874510 0.866667 0.458824
0.101961 0.050980 0.039216
0.125490 0.050980 0.035294
0.380392 0.105882 0.070588
0.639216 0.180392 0.129412
0.796078 0.243137 0.180392
0.862745 0.278431 0.207843
0.909804 0.305882 0.219608
0.917647 0.313725 0.223529
0.086275 0.117647 0.101961
0.109804 0.105882 0.070588
0.282353 0.133333 0.074510
0.545098 0.200000 0.125490
0.752941 0.254902 0.180392
0.843137 0.286275 0.207843
0.898039 0.313725 0.223529
0.913725 0.325490 0.231373
0.176471 0.274510 0.180392
0.196078 0.278431 0.176471
0.235294 0.254902 0.137255
0.431373 0.282353 0.141176
0.674510 0.337255 0.192157
0.815686 0.384314 0.231373
0.886275 0.400000 0.254902
0.913725 0.407843 0.258824
0.321569 0.466667 0.290196
0.329412 0.478431 0.294118
0.364706 0.482353 0.266667
0.396078 0.450980 0.203922
0.592157 0.478431 0.219608
0.796078 0.517647 0.274510
0.886275 0.537255 0.301961
0.917647 0.537255 0.309804
0.415686 0.603922 0.380392
0.419608 0.607843 0.384314
0.450980 0.631373 0.384314
0.478431 0.623529 0.321569
0.549020 0.607843 0.266667
0.737255 0.639216 0.305882
0.878431 0.670588 0.352941
0.909804 0.666667 0.360784
0.490196 0.694118 0.466667
0.490196 0.694118 0.466667
0.513725 0.709804 0.466667
0.560784 0.737255 0.447059
0.596078 0.729412 0.368627
0.701961 0.737255 0.349020
0.866667 0.764706 0.388235
0.898039 0.768627 0.400000
0.533333 0.752941 0.541176
0.533333 0.752941 0.541176
0.560784 0.764706 0.537255
0.619608 0.807843 0.549020
0.647059 0.815686 0.478431
0.713725 0.819608 0.423529
0.847059 0.835294 0.431373
0.894118 0.847059 0.443137
0.545098 0.768627 0.564706
0.541176 0.768627 0.568627
0.560784 0.776471 0.564706
0.619608 0.815686 0.568627
0.670588 0.835294 0.525490
0.725490 0.847059 0.458824
0.831373 0.854902 0.447059
0.890196 0.870588 0.458824
0.156863 0.137255 0.258824
0.141176 0.125490 0.254902
0.290196 0.121569 0.211765
0.584314 0.200000 0.223529
0.776471 0.258824 0.239216
0.862745 0.294118 0.243137
0.909804 0.313725 0.239216
0.921569 0.321569 0.243137
0.152941 0.180392 0.290196
0.145098 0.160784 0.270588
0.290196 0.149020 0.207843
0.572549 0.203922 0.215686
0.772549 0.254902 0.223529
0.862745 0.290196 0.223529
0.909804 0.313725 0.231373
0.921569 0.321569 0.235294
0.066667 0.298039 0.337255
0.043137 0.290196 0.329412
0.200000 0.235294 0.247059
0.474510 0.270588 0.231373
0.694118 0.325490 0.231373
0.835294 0.372549 0.247059
0.901961 0.396078 0.258824
0.921569 0.403922 0.262745
0.149020 0.423529 0.356863
0.156863 0.431373 0.360784
0.235294 0.450980 0.349020
0.388235 0.431373 0.294118
0.611765 0.454902 0.270588
0.803922 0.509804 0.290196
0.898039 0.533333 0.305882
0.921569 0.533333 0.313725
0.286275 0.584314 0.435294
0.282353 0.584314 0.435294
0.329412 0.615686 0.443137
0.466667 0.615686 0.403922
0.556863 0.600000 0.325490
0.749020 0.643137 0.325490
0.882353 0.666667 0.352941
0.909804 0.662745 0.360784
0.388235 0.682353 0.498039
0.388235 0.682353 0.501961
0.427451 0.701961 0.509804
0.525490 0.737255 0.517647
0.596078 0.725490 0.427451
0.705882 0.733333 0.368627
0.862745 0.772549 0.392157
0.894118 0.768627 0.403922
0.466667 0.756863 0.560784
0.466667 0.752941 0.556863
0.505882 0.768627 0.568627
0.584314 0.800000 0.580392
0.650980 0.815686 0.521569
0.713725 0.819608 0.450980
0.839216 0.835294 0.435294
0.894118 0.847059 0.443137
0.490196 0.768627 0.572549
0.486275 0.764706 0.572549
0.513725 0.780392 0.580392
0.588235 0.807843 0.588235
0.670588 0.831373 0.549020
0.725490 0.843137 0.486275
0.827451 0.854902 0.454902
0.890196 0.866667 0.462745
0.160784 0.219608 0.458824
0.172549 0.219608 0.458824
0.290196 0.196078 0.419608
0.513725 0.207843 0.388235
0.729412 0.298039 0.411765
0.831373 0.345098 0.403922
0.890196 0.364706 0.388235
0.913725 0.368627 0.376471
0.176471 0.227451 0.478431
0.200000 0.223529 0.462745
0.329412 0.196078 0.411765
0.560784 0.219608 0.396078
0.733333 0.301961 0.407843
0.839216 0.341176 0.400000
0.894118 0.364706 0.388235
0.917647 0.364706 0.368627
0.145098 0.372549 0.552941
0.152941 0.364706 0.549020
0.254902 0.301961 0.490196
0.474510 0.286275 0.419608
0.713725 0.352941 0.419608
0.839216 0.384314 0.400000
0.909804 0.396078 0.380392
0.929412 0.392157 0.345098
0.031373 0.501961 0.588235
0.047059 0.513725 0.607843
0.062745 0.498039 0.568627
0.376471 0.435294 0.470588
0.631373 0.450980 0.443137
0.823529 0.505882 0.443137
0.909804 0.521569 0.431373
0.933333 0.525490 0.403922
0.050980 0.592157 0.592157
0.050980 0.600000 0.596078
0.090196 0.619608 0.592157
0.372549 0.611765 0.533333
0.552941 0.584314 0.486275
0.772549 0.639216 0.490196
0.894118 0.662745 0.490196
0.925490 0.670588 0.470588
0.278431 0.686275 0.611765
0.266667 0.690196 0.619608
0.321569 0.705882 0.611765
0.392157 0.745098 0.615686
0.627451 0.737255 0.556863
0.717647 0.741176 0.521569
0.866667 0.772549 0.521569
0.909804 0.776471 0.505882
0.388235 0.760784 0.643137
0.388235 0.764706 0.643137
0.415686 0.780392 0.635294
0.462745 0.819608 0.650980
0.670588 0.827451 0.607843
0.741176 0.831373 0.568627
0.850980 0.843137 0.545098
0.894118 0.850980 0.537255
0.415686 0.780392 0.650980
0.411765 0.780392 0.647059
0.427451 0.796078 0.647059
0.478431 0.831373 0.654902
0.662745 0.850980 0.631373
0.745098 0.858824 0.584314
0.843137 0.870588 0.556863
0.890196 0.878431 0.552941
0.196078 0.262745 0.564706
0.200000 0.266667 0.576471
0.309804 0.254902 0.556863
0.486275 0.231373 0.521569
0.678431 0.278431 0.529412
0.780392 0.321569 0.525490
0.843137 0.368627 0.529412
0.878431 0.396078 0.529412
0.215686 0.266667 0.576471
0.219608 0.266667 0.580392
0.321569 0.254902 0.560784
0.490196 0.231373 0.525490
0.670588 0.274510 0.525490
0.780392 0.321569 0.533333
0.843137 0.372549 0.537255
0.874510 0.400000 0.529412
0.227451 0.372549 0.658824
0.231373 0.368627 0.670588
0.321569 0.333333 0.635294
0.490196 0.305882 0.580392
0.698039 0.333333 0.564706
0.796078 0.368627 0.541176
0.874510 0.427451 0.541176
0.898039 0.443137 0.533333
0.227451 0.537255 0.713725
0.235294 0.556863 0.733333
0.262745 0.525490 0.701961
0.415686 0.466667 0.654902
0.631373 0.447059 0.607843
0.780392 0.482353 0.584314
0.874510 0.521569 0.572549
0.917647 0.529412 0.552941
0.219608 0.650980 0.741176
0.231373 0.658824 0.749020
0.231373 0.666667 0.749020
0.337255 0.643137 0.709804
0.576471 0.611765 0.650980
0.768627 0.619608 0.607843
0.878431 0.647059 0.600000
0.925490 0.647059 0.584314
0.235294 0.721569 0.752941
0.227451 0.717647 0.749020
0.235294 0.729412 0.749020
0.286275 0.756863 0.745098
0.588235 0.733333 0.670588
0.733333 0.729412 0.643137
0.862745 0.760784 0.631373
0.909804 0.764706 0.623529
0.301961 0.792157 0.764706
0.294118 0.792157 0.772549
0.317647 0.800000 0.768627
0.372549 0.823529 0.764706
0.584314 0.831373 0.709804
0.764706 0.839216 0.690196
0.847059 0.839216 0.658824
0.898039 0.850980 0.643137
0.341176 0.811765 0.764706
0.337255 0.807843 0.768627
0.360784 0.807843 0.760784
0.407843 0.839216 0.760784
0.564706 0.866667 0.729412
0.776471 0.878431 0.701961
0.847059 0.882353 0.674510
0.890196 0.886275 0.662745
0.231373 0.313725 0.658824
0.247059 0.317647 0.666667
0.325490 0.309804 0.658824
0.482353 0.286275 0.639216
0.662745 0.301961 0.627451
0.768627 0.329412 0.627451
0.827451 0.352941 0.619608
0.850980 0.360784 0.615686
0.250980 0.317647 0.662745
0.262745 0.313725 0.662745
0.337255 0.309804 0.658824
0.486275 0.290196 0.639216
0.647059 0.298039 0.627451
0.768627 0.333333 0.639216
0.823529 0.349020 0.627451
0.847059 0.356863 0.623529
0.294118 0.368627 0.729412
0.309804 0.368627 0.729412
0.392157 0.356863 0.717647
0.525490 0.333333 0.690196
0.678431 0.333333 0.670588
0.796078 0.360784 0.670588
0.850980 0.372549 0.654902
0.866667 0.376471 0.639216
0.352941 0.576471 0.807843
0.368627 0.572549 0.807843
0.400000 0.541176 0.800000
0.509804 0.498039 0.764706
0.650980 0.474510 0.729412
0.792157 0.486275 0.717647
0.866667 0.486275 0.690196
0.898039 0.490196 0.674510
0.368627 0.701961 0.843137
0.368627 0.705882 0.847059
0.376471 0.709804 0.843137
0.498039 0.674510 0.815686
0.643137 0.639216 0.776471
0.803922 0.631373 0.749020
0.878431 0.631373 0.713725
0.909804 0.643137 0.709804
0.372549 0.776471 0.858824
0.376471 0.776471 0.862745
0.380392 0.788235 0.866667
0.423529 0.784314 0.850980
0.615686 0.772549 0.815686
0.811765 0.784314 0.792157
0.898039 0.800000 0.780392
0.921569 0.803922 0.780392
0.372549 0.823529 0.862745
0.376471 0.823529 0.862745
0.372549 0.827451 0.862745
0.384314 0.850980 0.862745
0.572549 0.850980 0.831373
0.815686 0.874510 0.815686
0.890196 0.878431 0.807843
0.913725 0.882353 0.796078
0.376471 0.835294 0.862745
0.372549 0.835294 0.858824
0.376471 0.847059 0.862745
0.396078 0.874510 0.870588
0.564706 0.882353 0.835294
0.800000 0.905882 0.819608
0.890196 0.913725 0.823529
0.913725 0.913725 0.815686
0.301961 0.345098 0.709804
0.298039 0.345098 0.713725
0.356863 0.341176 0.709804
0.474510 0.329412 0.701961
0.623529 0.317647 0.690196
0.749020 0.349020 0.698039
0.815686 0.368627 0.705882
0.839216 0.376471 0.701961
0.298039 0.345098 0.709804
0.290196 0.345098 0.709804
0.352941 0.345098 0.709804
0.474510 0.333333 0.705882
0.623529 0.317647 0.690196
0.749020 0.349020 0.701961
0.811765 0.368627 0.705882
0.843137 0.376471 0.705882
0.364706 0.380392 0.756863
0.360784 0.376471 0.756863
0.415686 0.376471 0.752941
0.525490 0.356863 0.745098
0.643137 0.341176 0.729412
0.768627 0.368627 0.733333
0.835294 0.384314 0.737255
0.858824 0.388235 0.733333
0.423529 0.537255 0.839216
0.423529 0.525490 0.839216
0.470588 0.513725 0.831373
0.556863 0.494118 0.815686
0.682353 0.470588 0.796078
0.776471 0.482353 0.788235
0.866667 0.490196 0.788235
0.890196 0.478431 0.776471
0.443137 0.717647 0.886275
0.431373 0.717647 0.886275
0.478431 0.701961 0.882353
0.568627 0.662745 0.870588
0.670588 0.639216 0.847059
0.784314 0.627451 0.831373
0.870588 0.623529 0.823529
0.909804 0.611765 0.803922
0.443137 0.796078 0.909804
0.439216 0.800000 0.905882
0.443137 0.803922 0.909804
0.529412 0.796078 0.901961
0.698039 0.788235 0.886275
0.835294 0.803922 0.886275
0.898039 0.792157 0.870588
0.925490 0.776471 0.847059
0.447059 0.850980 0.913725
0.450980 0.850980 0.913725
0.450980 0.854902 0.917647
0.474510 0.870588 0.921569
0.627451 0.862745 0.901961
0.827451 0.886275 0.905882
0.909804 0.890196 0.898039
0.929412 0.886275 0.878431
0.447059 0.870588 0.917647
0.447059 0.870588 0.917647
0.447059 0.870588 0.917647
0.454902 0.890196 0.921569
0.584314 0.898039 0.905882
0.788235 0.921569 0.909804
0.913725 0.921569 0.905882
0.921569 0.917647 0.894118
0.321569 0.368627 0.733333
0.325490 0.368627 0.737255
0.372549 0.364706 0.733333
0.482353 0.352941 0.733333
0.615686 0.337255 0.717647
0.745098 0.360784 0.725490
0.811765 0.380392 0.737255
0.839216 0.388235 0.741176
0.321569 0.356863 0.725490
0.321569 0.356863 0.729412
0.368627 0.356863 0.729412
0.482353 0.349020 0.725490
0.607843 0.333333 0.713725
0.741176 0.356863 0.721569
0.807843 0.376471 0.737255
0.839216 0.384314 0.737255
0.384314 0.376471 0.752941
0.384314 0.376471 0.752941
0.427451 0.372549 0.752941
0.521569 0.364706 0.749020
0.635294 0.349020 0.741176
0.760784 0.372549 0.749020
0.823529 0.392157 0.756863
0.854902 0.396078 0.764706
0.443137 0.498039 0.839216
0.450980 0.494118 0.839216
0.494118 0.490196 0.831373
0.572549 0.474510 0.819608
0.682353 0.454902 0.807843
0.780392 0.462745 0.800000
0.862745 0.478431 0.807843
0.878431 0.482353 0.811765
0.490196 0.690196 0.890196
0.494118 0.694118 0.894118
0.529412 0.674510 0.890196
0.592157 0.635294 0.878431
0.690196 0.619608 0.866667
0.784314 0.611765 0.850980
0.870588 0.615686 0.850980
0.913725 0.615686 0.850980
0.466667 0.800000 0.921569
0.466667 0.800000 0.925490
0.482353 0.800000 0.921569
0.584314 0.784314 0.913725
0.733333 0.788235 0.909804
0.839216 0.792157 0.905882
0.898039 0.784314 0.898039
0.921569 0.780392 0.894118
0.474510 0.854902 0.933333
0.474510 0.854902 0.933333
0.478431 0.858824 0.933333
0.529412 0.862745 0.933333
0.666667 0.862745 0.921569
0.854902 0.894118 0.933333
0.917647 0.894118 0.929412
0.933333 0.886275 0.917647
0.474510 0.882353 0.933333
0.478431 0.882353 0.933333
0.482353 0.886275 0.937255
0.498039 0.898039 0.937255
0.639216 0.901961 0.925490
0.831373 0.925490 0.933333
0.925490 0.929412 0.937255
0.933333 0.921569 0.921569
